3dlut_lib/face.cube
# Copyright: (C) Copyright 2010-2020 by IWLTBAP SAS
# Cannot be resold, shared or otherwise redistributed
# Website: https://luts.iwltbap.com
#TITLE "IWLTBAP 8120 (Rec.709, sRGB, DCI-P3)"
LUT_3D_SIZE 17
0.000000 0.000000 0.040994
0.049680 0.000000 0.127806
0.153060 0.000000 0.203994
0.426871 0.000000 0.210770
0.664662 0.000000 0.204568
0.877118 0.000000 0.197755
1.000000 0.000000 0.188599
1.000000 0.000000 0.179596
1.000000 0.000000 0.168439
1.000000 0.000000 0.156951
1.000000 0.000000 0.146165
1.000000 0.000000 0.134798
1.000000 0.000000 0.124965
1.000000 0.000000 0.115010
1.000000 0.000000 0.102637
1.000000 0.000000 0.087851
1.000000 0.000000 0.077646
0.000000 0.037852 0.171474
0.000000 0.043264 0.211692
0.000000 0.038640 0.297654
0.476903 0.005520 0.292373
0.756121 0.000000 0.250525
0.962517 0.000000 0.222600
1.000000 0.000000 0.202647
1.000000 0.000000 0.186498
1.000000 0.000000 0.171706
1.000000 0.000000 0.157205
1.000000 0.000000 0.145343
1.000000 0.000000 0.135093
1.000000 0.000000 0.122061
1.000000 0.000000 0.113620
1.000000 0.000000 0.103784
1.000000 0.000000 0.092168
1.000000 0.000000 0.081950
0.000000 0.107156 0.200706
0.000000 0.109712 0.238483
0.000000 0.103403 0.317748
0.476903 0.089600 0.314622
0.778838 0.077155 0.278249
1.000000 0.065646 0.247770
1.000000 0.055568 0.222252
1.000000 0.047596 0.200511
1.000000 0.043264 0.180474
1.000000 0.040217 0.165586
1.000000 0.041759 0.151788
1.000000 0.043264 0.141728
1.000000 0.048985 0.131499
1.000000 0.055568 0.122387
1.000000 0.062227 0.113270
1.000000 0.072104 0.101867
1.000000 0.082416 0.089165
0.000000 0.172856 0.223987
0.000000 0.174681 0.254444
0.291377 0.170314 0.273762
0.546001 0.162923 0.294775
0.784507 0.153356 0.302582
1.000000 0.147794 0.271971
1.000000 0.143408 0.246069
1.000000 0.140312 0.221903
1.000000 0.138306 0.202647
1.000000 0.137437 0.186075
1.000000 0.137147 0.173314
1.000000 0.139170 0.159468
1.000000 0.141164 0.148063
1.000000 0.144517 0.136563
1.000000 0.148333 0.125284
1.000000 0.152835 0.113620
1.000000 0.158215 0.099916
0.000000 0.239606 0.223814
0.188419 0.238483 0.233105
0.399925 0.235893 0.246534
0.606782 0.231613 0.263807
0.813419 0.225707 0.282520
1.000000 0.218203 0.299760
1.000000 0.215156 0.274858
1.000000 0.212975 0.251889
1.000000 0.211876 0.231779
1.000000 0.211139 0.215336
1.000000 0.211692 0.197755
1.000000 0.212609 0.182650
1.000000 0.214250 0.168203
1.000000 0.216057 0.156443
1.000000 0.219091 0.142571
1.000000 0.222600 0.128429
1.000000 0.226220 0.115010
0.118286 0.303191 0.215336
0.279032 0.302338 0.221554
0.450610 0.300622 0.231945
0.636729 0.297902 0.248385
0.830288 0.294272 0.265662
1.000000 0.289304 0.284759
1.000000 0.283313 0.302460
1.000000 0.280927 0.286327
1.000000 0.279993 0.264379
1.000000 0.279592 0.244979
1.000000 0.279993 0.225707
1.000000 0.280794 0.208351
1.000000 0.281858 0.193338
1.000000 0.283839 0.177156
1.000000 0.286066 0.162189
1.000000 0.288660 0.147523
1.000000 0.291226 0.133608
0.196937 0.366609 0.211692
0.324774 0.366027 0.216954
0.476903 0.364957 0.225535
0.653541 0.363198 0.238161
0.840381 0.360541 0.253995
1.000000 0.357359 0.270027
1.000000 0.353232 0.287237
1.000000 0.348532 0.303191
1.000000 0.346152 0.295529
1.000000 0.346048 0.273488
1.000000 0.346256 0.253696
1.000000 0.346671 0.235893
1.000000 0.347706 0.218025
1.000000 0.349252 0.200706
1.000000 0.351096 0.184799
1.000000 0.353435 0.167494
1.000000 0.355856 0.153095
0.243029 0.430125 0.205901
0.354244 0.429727 0.209843
0.496756 0.428929 0.217669
0.664662 0.427728 0.229271
0.845573 0.425960 0.241360
1.000000 0.423534 0.257559
1.000000 0.420764 0.272662
1.000000 0.417227 0.289175
1.000000 0.413403 0.303313
1.000000 0.411053 0.301359
1.000000 0.411390 0.280661
1.000000 0.411642 0.262369
1.000000 0.412733 0.242152
1.000000 0.413654 0.224849
1.000000 0.415321 0.206090
1.000000 0.417145 0.189225
1.000000 0.419288 0.172167
0.272675 0.493561 0.200511
0.375852 0.493226 0.204568
0.510242 0.492689 0.210400
0.671961 0.491882 0.219268
0.847957 0.490601 0.231113
1.000000 0.488909 0.245447
1.000000 0.486732 0.259904
1.000000 0.484200 0.274721
1.000000 0.481374 0.288918
1.000000 0.478319 0.301114
1.000000 0.475800 0.305735
1.000000 0.476221 0.285936
1.000000 0.477061 0.266088
1.000000 0.478040 0.247307
1.000000 0.479293 0.228428
1.000000 0.480751 0.209843
1.000000 0.483719 0.198151
0.288945 0.556930 0.193744
0.387146 0.556700 0.196761
0.517191 0.556297 0.202067
0.676092 0.555663 0.210029
0.848750 0.554739 0.220150
1.000000 0.553523 0.232939
1.000000 0.552071 0.245447
1.000000 0.550148 0.259904
1.000000 0.548039 0.272662
1.000000 0.545626 0.286196
1.000000 0.543198 0.297280
1.000000 0.540638 0.306457
1.000000 0.541234 0.286847
1.000000 0.542069 0.267643
1.000000 0.543198 0.248692
1.000000 0.544325 0.231113
1.000000 0.547570 0.218913
0.292586 0.620314 0.183942
0.388072 0.620163 0.186075
0.517191 0.619913 0.190262
0.674546 0.619411 0.197953
0.847163 0.618657 0.208351
1.000000 0.617802 0.218913
1.000000 0.616692 0.231113
1.000000 0.615226 0.245447
1.000000 0.613756 0.257117
1.000000 0.611822 0.271001
1.000000 0.609880 0.281858
1.000000 0.607775 0.292754
1.000000 0.605662 0.301604
1.000000 0.605920 0.286457
1.000000 0.607003 0.266088
1.000000 0.608033 0.248845
1.000000 0.610647 0.234257
0.281539 0.683688 0.172627
0.380598 0.683556 0.175585
0.511640 0.683291 0.180693
0.668843 0.682937 0.186920
0.840781 0.682405 0.194755
1.000000 0.681696 0.204759
1.000000 0.680764 0.217847
1.000000 0.679741 0.229775
1.000000 0.678493 0.243098
1.000000 0.677152 0.255041
1.000000 0.675718 0.265377
1.000000 0.674101 0.275676
1.000000 0.672523 0.283444
1.000000 0.670805 0.291482
1.000000 0.670669 0.282123
1.000000 0.671755 0.261792
1.000000 0.675269 0.260341
0.270096 0.746936 0.160958
0.369109 0.746818 0.163411
0.501056 0.746660 0.167256
0.659392 0.746384 0.173543
0.831913 0.745951 0.182000
1.000000 0.745437 0.191293
1.000000 0.744726 0.202261
1.000000 0.743895 0.213705
1.000000 0.742984 0.225192
1.000000 0.741872 0.238000
1.000000 0.740838 0.247153
1.000000 0.739482 0.258735
1.000000 0.738364 0.265377
1.000000 0.736963 0.274174
1.000000 0.735759 0.279056
1.000000 0.735518 0.272662
1.000000 0.737804 0.270166
0.248642 0.810103 0.146165
0.352216 0.810032 0.147523
0.486568 0.809926 0.150468
0.647631 0.809713 0.156697
0.821698 0.809394 0.165105
1.000000 0.808969 0.175585
1.000000 0.808507 0.184585
1.000000 0.807903 0.194755
1.000000 0.807049 0.208351
1.000000 0.806301 0.217669
1.000000 0.805303 0.230445
1.000000 0.804409 0.239126
1.000000 0.803336 0.248845
1.000000 0.802368 0.255636
1.000000 0.801471 0.260777
1.000000 0.800644 0.264379
1.000000 0.800644 0.273625
0.219411 0.873197 0.129049
0.332372 0.873133 0.131499
0.473888 0.873005 0.135683
0.637828 0.872844 0.142009
0.811751 0.872620 0.148063
0.991691 0.872362 0.155933
1.000000 0.871977 0.166543
1.000000 0.871462 0.179155
1.000000 0.870947 0.188390
1.000000 0.870302 0.199335
1.000000 0.869528 0.210400
1.000000 0.868753 0.220678
1.000000 0.868009 0.228597
1.000000 0.867265 0.235893
1.000000 0.866682 0.239286
1.000000 0.865936 0.244667
1.000000 0.865644 0.243413
0.186681 0.936203 0.111148
0.309062 0.936144 0.113270
0.455363 0.936085 0.116385
0.622801 0.935968 0.121734
0.800389 0.935763 0.128739
0.983413 0.935500 0.139170
1.000000 0.935206 0.149137
1.000000 0.934855 0.160215
1.000000 0.934444 0.171011
1.000000 0.934003 0.180036
1.000000 0.933474 0.189848
1.000000 0.933004 0.196561
1.000000 0.932327 0.206847
1.000000 0.931827 0.212059
1.000000 0.931267 0.218559
1.000000 0.930883 0.220853
1.000000 0.930470 0.222426
0.144881 0.999141 0.089165
0.280288 0.999114 0.090463
0.435205 0.999060 0.094262
0.608520 0.998953 0.099916
0.788836 0.998819 0.107524
0.972695 0.998604 0.117066
1.000000 0.998362 0.127493
1.000000 0.998173 0.134798
1.000000 0.997851 0.146437
1.000000 0.997447 0.159468
1.000000 0.997178 0.166065
1.000000 0.996720 0.176036
1.000000 0.996315 0.182866
1.000000 0.995965 0.187972
1.000000 0.995479 0.194957
1.000000 0.995236 0.196960
1.000000 0.994966 0.198941
0.002366 0.000000 0.072104
0.040217 0.000000 0.147253
0.040217 0.000000 0.240246
0.384353 0.000000 0.251132
0.636729 0.000000 0.241835
0.860541 0.000000 0.236543
1.000000 0.000000 0.229775
1.000000 0.000000 0.221554
1.000000 0.000000 0.212792
1.000000 0.000000 0.203994
1.000000 0.000000 0.194149
1.000000 0.000000 0.183513
1.000000 0.000000 0.172167
1.000000 0.000000 0.161452
1.000000 0.000000 0.146981
1.000000 0.000000 0.135683
1.000000 0.000000 0.123683
0.000000 0.041759 0.179376
0.000000 0.048294 0.215517
0.000000 0.048985 0.287626
0.352216 0.007886 0.347189
0.714483 0.000000 0.303678
0.937901 0.000000 0.271417
1.000000 0.000000 0.250525
1.000000 0.000000 0.233929
1.000000 0.000000 0.221204
1.000000 0.000000 0.208164
1.000000 0.000000 0.195961
1.000000 0.000000 0.184371
1.000000 0.000000 0.171936
1.000000 0.000000 0.158968
1.000000 0.000000 0.146710
1.000000 0.000000 0.135683
1.000000 0.000000 0.126551
0.000000 0.107524 0.217847
0.000000 0.109350 0.252040
0.000000 0.106786 0.329573
0.328050 0.090892 0.371892
0.719299 0.076662 0.335893
0.976731 0.062806 0.304648
1.000000 0.051020 0.276763
1.000000 0.040994 0.253995
1.000000 0.033120 0.234913
1.000000 0.029177 0.218381
1.000000 0.029966 0.202840
1.000000 0.030754 0.190675
1.000000 0.037852 0.177825
1.000000 0.047596 0.165345
1.000000 0.056820 0.154392
1.000000 0.067305 0.143129
1.000000 0.077155 0.131803
0.000000 0.170547 0.257265
0.000000 0.171706 0.287237
0.000000 0.170314 0.340169
0.420083 0.162679 0.360639
0.712061 0.153095 0.363688
0.974716 0.146437 0.332097
1.000000 0.140880 0.303921
1.000000 0.136855 0.279056
1.000000 0.133906 0.258001
1.000000 0.133308 0.237354
1.000000 0.133009 0.220678
1.000000 0.134798 0.204759
1.000000 0.136855 0.191499
1.000000 0.140597 0.177825
1.000000 0.144241 0.166304
1.000000 0.149137 0.154650
1.000000 0.155421 0.141164
0.000000 0.235730 0.273762
0.000000 0.237515 0.292627
0.270096 0.235403 0.309564
0.524042 0.231113 0.327804
0.751118 0.224677 0.348119
0.973032 0.217133 0.361528
1.000000 0.213340 0.333404
1.000000 0.210770 0.307297
1.000000 0.209285 0.283049
1.000000 0.208538 0.261647
1.000000 0.208725 0.242310
1.000000 0.209285 0.226049
1.000000 0.211323 0.208912
1.000000 0.213705 0.194149
1.000000 0.216596 0.180255
1.000000 0.220150 0.167019
1.000000 0.223814 0.154133
0.000000 0.302216 0.269468
0.155059 0.301849 0.276220
0.375852 0.300130 0.287496
0.584871 0.297280 0.303070
0.790560 0.293387 0.320383
0.995306 0.288143 0.338893
1.000000 0.281725 0.357159
1.000000 0.279324 0.334921
1.000000 0.277979 0.310749
1.000000 0.277709 0.288014
1.000000 0.277709 0.267784
1.000000 0.278518 0.248385
1.000000 0.279859 0.229943
1.000000 0.281725 0.213340
1.000000 0.283839 0.198744
1.000000 0.286457 0.184157
1.000000 0.289818 0.168203
0.096995 0.366221 0.256378
0.262227 0.365541 0.262225
0.434379 0.364470 0.271140
0.622237 0.362610 0.283313
0.815498 0.359848 0.299636
1.000000 0.356358 0.316363
1.000000 0.352013 0.333186
1.000000 0.346982 0.349252
1.000000 0.344590 0.338039
1.000000 0.344381 0.313571
1.000000 0.344276 0.292881
1.000000 0.345111 0.271556
1.000000 0.346152 0.252644
1.000000 0.347499 0.235567
1.000000 0.349355 0.218559
1.000000 0.351810 0.201096
1.000000 0.356959 0.188599
0.193564 0.429647 0.246224
0.320358 0.429248 0.250373
0.471614 0.428449 0.257559
0.645467 0.427167 0.268487
0.830695 0.425315 0.281060
1.000000 0.422803 0.296906
1.000000 0.419863 0.311457
1.000000 0.416151 0.328026
1.000000 0.412146 0.341439
1.000000 0.409703 0.338146
1.000000 0.409957 0.315900
1.000000 0.410379 0.295404
1.000000 0.411306 0.275131
1.000000 0.412146 0.257559
1.000000 0.413988 0.238000
1.000000 0.415902 0.220678
1.000000 0.421744 0.210214
0.245849 0.493159 0.235893
0.355253 0.492823 0.239446
0.494592 0.492353 0.244667
0.659922 0.491478 0.252945
0.838775 0.490128 0.265946
1.000000 0.488366 0.279056
1.000000 0.486049 0.293640
1.000000 0.483444 0.308493
1.000000 0.480405 0.323218
1.000000 0.477061 0.336000
1.000000 0.474535 0.338679
1.000000 0.475098 0.317172
1.000000 0.475730 0.297529
1.000000 0.476781 0.277439
1.000000 0.478109 0.258148
1.000000 0.479641 0.239446
1.000000 0.485297 0.232111
0.272675 0.556642 0.224849
0.373938 0.556412 0.227751
0.507435 0.556008 0.232609
0.669364 0.555316 0.241518
0.843580 0.554334 0.251738
1.000000 0.553117 0.264093
1.000000 0.551431 0.277574
1.000000 0.549446 0.291226
1.000000 0.547276 0.303678
1.000000 0.544739 0.317287
1.000000 0.542188 0.327472
1.000000 0.539501 0.336323
1.000000 0.539980 0.316710
1.000000 0.541056 0.295780
1.000000 0.542128 0.276627
1.000000 0.543198 0.259320
1.000000 0.546805 0.246379
0.285264 0.620063 0.214069
0.383417 0.619862 0.216596
0.513034 0.619561 0.221204
0.671442 0.619059 0.228259
0.844378 0.618305 0.237839
1.000000 0.617449 0.247307
1.000000 0.616238 0.260487
1.000000 0.614770 0.273488
1.000000 0.613095 0.285936
1.000000 0.611158 0.298771
1.000000 0.609162 0.309564
1.000000 0.606900 0.320611
1.000000 0.604627 0.329904
1.000000 0.605041 0.312986
1.000000 0.606023 0.293134
1.000000 0.607106 0.275131
1.000000 0.610391 0.264093
0.281539 0.683467 0.202261
0.379653 0.683335 0.204950
0.510242 0.683069 0.209471
0.667801 0.682715 0.214794
0.839980 0.682184 0.222078
1.000000 0.681385 0.232774
1.000000 0.680453 0.244667
1.000000 0.679429 0.255636
1.000000 0.678091 0.269468
1.000000 0.676660 0.281060
1.000000 0.675045 0.292881
1.000000 0.673380 0.302460
1.000000 0.671710 0.309920
1.000000 0.669853 0.318323
1.000000 0.669762 0.308493
1.000000 0.670895 0.287496
1.000000 0.673695 0.280260
0.268799 0.746779 0.188808
0.368136 0.746700 0.190882
0.499628 0.746503 0.194554
0.658333 0.746227 0.200120
0.832723 0.745753 0.209285
1.000000 0.745161 0.218203
1.000000 0.744449 0.228766
1.000000 0.743539 0.240246
1.000000 0.742587 0.251587
1.000000 0.741474 0.263233
1.000000 0.740320 0.273075
1.000000 0.738963 0.283839
1.000000 0.737724 0.291099
1.000000 0.736281 0.299142
1.000000 0.735035 0.303678
1.000000 0.734713 0.298151
1.000000 0.737123 0.294775
0.250028 0.809962 0.174907
0.354244 0.809891 0.176933
0.489502 0.809749 0.180474
0.649787 0.809536 0.185863
0.822932 0.809217 0.193135
1.000000 0.808756 0.202454
1.000000 0.808294 0.210214
1.000000 0.807619 0.221204
1.000000 0.806765 0.233599
1.000000 0.805981 0.242310
1.000000 0.804910 0.255190
1.000000 0.804016 0.263089
1.000000 0.802870 0.273488
1.000000 0.801866 0.279592
1.000000 0.800788 0.286066
1.000000 0.799852 0.289818
1.000000 0.800464 0.311457
0.225504 0.873069 0.159966
0.335578 0.873005 0.161944
0.476151 0.872909 0.165586
0.638926 0.872716 0.170547
0.812586 0.872523 0.175811
0.992349 0.872266 0.182650
1.000000 0.871784 0.193744
1.000000 0.871269 0.204759
1.000000 0.870754 0.212792
1.000000 0.870012 0.224677
1.000000 0.869270 0.234585
1.000000 0.868462 0.244041
1.000000 0.867589 0.253245
1.000000 0.866811 0.260196
1.000000 0.866130 0.264522
1.000000 0.865351 0.269468
1.000000 0.864929 0.269328
0.190146 0.936144 0.142850
0.310209 0.936085 0.144241
0.456151 0.936027 0.146981
0.623365 0.935910 0.151261
0.801660 0.935675 0.158717
0.984743 0.935382 0.167731
1.000000 0.935089 0.176260
1.000000 0.934737 0.185863
1.000000 0.934268 0.197159
1.000000 0.933768 0.206280
1.000000 0.933239 0.214975
1.000000 0.932680 0.222600
1.000000 0.931974 0.231779
1.000000 0.931502 0.236381
1.000000 0.930854 0.243570
1.000000 0.930441 0.245447
1.000000 0.929939 0.248231
0.153060 0.999060 0.126866
0.286496 0.999007 0.128429
0.439312 0.998953 0.131196
0.611406 0.998845 0.135389
0.790560 0.998711 0.141446
0.974379 0.998523 0.148869
1.000000 0.998254 0.157710
1.000000 0.998039 0.164623
1.000000 0.997689 0.175134
1.000000 0.997285 0.186498
1.000000 0.996989 0.192319
1.000000 0.996504 0.202067
1.000000 0.996100 0.207976
1.000000 0.995641 0.214250
1.000000 0.995182 0.220326
1.000000 0.994912 0.222078
1.000000 0.994561 0.225021
0.000000 0.000000 0.129973
0.000000 0.000789 0.191704
0.000000 0.003154 0.267784
0.314757 0.000000 0.297155
0.582448 0.000000 0.305132
0.821287 0.000000 0.304527
1.000000 0.000000 0.296031
1.000000 0.000000 0.286847
1.000000 0.000000 0.276763
1.000000 0.000000 0.265946
1.000000 0.000000 0.255339
1.000000 0.000000 0.243256
1.000000 0.000000 0.230111
1.000000 0.000000 0.218736
1.000000 0.000000 0.204950
1.000000 0.000000 0.190055
1.000000 0.000000 0.179376
0.000000 0.048985 0.192114
0.000000 0.055568 0.222078
0.000000 0.058053 0.291482
0.000000 0.018137 0.415902
0.583055 0.000000 0.397121
0.876737 0.000000 0.351708
1.000000 0.000000 0.325241
1.000000 0.000000 0.306217
1.000000 0.000000 0.289561
1.000000 0.000000 0.273625
1.000000 0.000000 0.260632
1.000000 0.000000 0.246379
1.000000 0.000000 0.230947
1.000000 0.000000 0.218203
1.000000 0.000000 0.204377
1.000000 0.000000 0.189848
1.000000 0.000000 0.180255
0.000000 0.108623 0.240564
0.000000 0.110791 0.271971
0.000000 0.111859 0.331878
0.000000 0.099522 0.439627
0.554396 0.079582 0.425799
0.895197 0.062806 0.390462
1.000000 0.046892 0.358656
1.000000 0.032332 0.331222
1.000000 0.022869 0.306938
1.000000 0.017349 0.285936
1.000000 0.015771 0.267220
1.000000 0.018137 0.250981
1.000000 0.024446 0.235403
1.000000 0.033120 0.222078
1.000000 0.044738 0.209285
1.000000 0.059267 0.195961
1.000000 0.070003 0.185438
0.000000 0.168439 0.294019
0.000000 0.169613 0.319813
0.000000 0.170081 0.370843
0.000000 0.164139 0.463530
0.534809 0.154392 0.451663
0.888468 0.145891 0.415736
1.000000 0.138595 0.384028
1.000000 0.133608 0.353536
1.000000 0.129973 0.327027
1.000000 0.127806 0.304285
1.000000 0.127180 0.284365
1.000000 0.129049 0.264379
1.000000 0.131196 0.248539
1.000000 0.134798 0.233270
1.000000 0.139742 0.218913
1.000000 0.145618 0.205331
1.000000 0.151788 0.192523
0.000000 0.231945 0.324681
0.000000 0.233270 0.344799
0.000000 0.234421 0.384577
0.299747 0.230780 0.415985
0.613704 0.224160 0.435418
0.884326 0.216416 0.441174
1.000000 0.211876 0.409111
1.000000 0.208538 0.378206
1.000000 0.206280 0.350585
1.000000 0.204759 0.326916
1.000000 0.205140 0.302826
1.000000 0.205901 0.282785
1.000000 0.207600 0.264093
1.000000 0.209657 0.248385
1.000000 0.212792 0.232609
1.000000 0.216416 0.218559
1.000000 0.220502 0.205140
0.000000 0.297529 0.331878
0.000000 0.299266 0.344694
0.172317 0.299513 0.362315
0.467798 0.296656 0.378486
0.706700 0.292373 0.396417
0.929760 0.286847 0.415819
1.000000 0.279993 0.432110
1.000000 0.277439 0.403300
1.000000 0.275812 0.375112
1.000000 0.274994 0.349560
1.000000 0.274994 0.325129
1.000000 0.275676 0.303435
1.000000 0.276627 0.284496
1.000000 0.278518 0.265662
1.000000 0.281060 0.248078
1.000000 0.283839 0.232774
1.000000 0.288014 0.218736
0.000000 0.364372 0.322201
0.068606 0.364957 0.327694
0.335578 0.363786 0.335677
0.553755 0.361725 0.349046
0.763332 0.358855 0.365055
0.969994 0.355152 0.381731
1.000000 0.350585 0.399310
1.000000 0.345007 0.415819
1.000000 0.342703 0.397648
1.000000 0.341966 0.372177
1.000000 0.341966 0.348119
1.000000 0.342598 0.325577
1.000000 0.343438 0.305253
1.000000 0.345111 0.284365
1.000000 0.346982 0.266372
1.000000 0.349149 0.249610
1.000000 0.353536 0.236381
0.056777 0.429088 0.302826
0.237306 0.428609 0.306818
0.414919 0.427808 0.314388
0.603872 0.426443 0.325912
0.798264 0.424426 0.338893
0.994978 0.421744 0.355152
1.000000 0.418465 0.371129
1.000000 0.414655 0.386490
1.000000 0.410126 0.401485
1.000000 0.407753 0.394297
1.000000 0.407838 0.369022
1.000000 0.408178 0.346775
1.000000 0.409195 0.324344
1.000000 0.410210 0.304527
1.000000 0.411810 0.285413
1.000000 0.413570 0.268347
1.000000 0.419863 0.254593
0.177802 0.492622 0.287755
0.306758 0.492286 0.291099
0.460846 0.491680 0.297031
0.634523 0.490736 0.306097
0.818812 0.489316 0.318094
1.000000 0.487482 0.330783
1.000000 0.485023 0.346464
1.000000 0.482272 0.359848
1.000000 0.478876 0.375865
1.000000 0.475379 0.387941
1.000000 0.472841 0.388212
1.000000 0.473265 0.365444
1.000000 0.473900 0.344694
1.000000 0.474957 0.323218
1.000000 0.476011 0.304527
1.000000 0.477760 0.284234
1.000000 0.484268 0.274721
0.235857 0.556181 0.272524
0.346066 0.555951 0.275676
0.487303 0.555489 0.281060
0.653541 0.554739 0.288789
0.830695 0.553813 0.298151
1.000000 0.552420 0.311103
1.000000 0.550615 0.324456
1.000000 0.548509 0.337932
1.000000 0.545980 0.352420
1.000000 0.543258 0.365639
1.000000 0.540399 0.376897
1.000000 0.537701 0.383019
1.000000 0.538302 0.362118
1.000000 0.539262 0.340804
1.000000 0.540279 0.321521
1.000000 0.541771 0.300868
1.000000 0.547863 0.294775
0.266187 0.619612 0.259758
0.367161 0.619461 0.262081
0.501769 0.619110 0.266372
0.662560 0.618607 0.272937
0.837167 0.617802 0.282123
1.000000 0.616793 0.293261
1.000000 0.615530 0.305494
1.000000 0.614009 0.317748
1.000000 0.612076 0.330893
1.000000 0.610084 0.342282
1.000000 0.607775 0.354749
1.000000 0.605455 0.364567
1.000000 0.602864 0.374830
1.000000 0.603435 0.355856
1.000000 0.604472 0.335245
1.000000 0.605610 0.316132
1.000000 0.610545 0.311928
0.275234 0.683069 0.246224
0.373938 0.682892 0.248692
0.506025 0.682671 0.252040
0.664662 0.682317 0.256822
0.837167 0.681696 0.265235
1.000000 0.680897 0.275540
1.000000 0.679963 0.285805
1.000000 0.678805 0.297654
1.000000 0.677376 0.310749
1.000000 0.675898 0.321521
1.000000 0.674055 0.334055
1.000000 0.672252 0.343753
1.000000 0.670306 0.353638
1.000000 0.668353 0.361133
1.000000 0.668353 0.349046
1.000000 0.669489 0.328026
1.000000 0.673019 0.325241
0.262227 0.746542 0.229943
0.364219 0.746463 0.232111
0.498194 0.746227 0.236056
0.658863 0.745872 0.242468
0.832318 0.745358 0.250373
1.000000 0.744805 0.258295
1.000000 0.744053 0.267643
1.000000 0.743063 0.280127
1.000000 0.742031 0.291099
1.000000 0.740798 0.303191
1.000000 0.739482 0.314038
1.000000 0.738124 0.323444
1.000000 0.736642 0.332097
1.000000 0.735156 0.339106
1.000000 0.733626 0.345216
1.000000 0.733303 0.338679
1.000000 0.735960 0.335677
0.254150 0.809713 0.218203
0.356260 0.809643 0.219974
0.490962 0.809501 0.222948
0.650862 0.809253 0.227751
0.824163 0.808898 0.234421
1.000000 0.808436 0.242783
1.000000 0.807868 0.251738
1.000000 0.807121 0.261792
1.000000 0.806266 0.272386
1.000000 0.805374 0.282388
1.000000 0.804302 0.294019
1.000000 0.803336 0.301481
1.000000 0.802045 0.312164
1.000000 0.801040 0.317633
1.000000 0.799744 0.325129
1.000000 0.798662 0.329022
1.000000 0.799203 0.342914
0.231466 0.872876 0.203610
0.339810 0.872812 0.205331
0.478403 0.872684 0.208164
0.640568 0.872523 0.211876
0.813419 0.872330 0.216416
0.994650 0.871977 0.224677
1.000000 0.871494 0.234421
1.000000 0.870979 0.243256
1.000000 0.870399 0.251435
1.000000 0.869560 0.263663
1.000000 0.868785 0.272109
1.000000 0.867848 0.282652
1.000000 0.867006 0.290587
1.000000 0.866098 0.298027
1.000000 0.865156 0.304285
1.000000 0.864344 0.308373
1.000000 0.863725 0.309920
0.191860 0.936027 0.186287
0.311352 0.935998 0.187552
0.457721 0.935910 0.190262
0.626175 0.935734 0.195158
0.804197 0.935500 0.201873
0.986403 0.935206 0.209098
1.000000 0.934913 0.216057
1.000000 0.934561 0.224332
1.000000 0.933974 0.235893
1.000000 0.933474 0.243884
1.000000 0.932886 0.252191
1.000000 0.932151 0.262225
1.000000 0.931414 0.270445
1.000000 0.930795 0.276220
1.000000 0.930116 0.282520
1.000000 0.929673 0.283971
1.000000 0.929022 0.288402
0.160954 0.998953 0.173999
0.291377 0.998899 0.175134
0.443381 0.998845 0.177380
0.613704 0.998738 0.180912
0.793137 0.998577 0.185863
0.976395 0.998362 0.192319
1.000000 0.998093 0.199924
1.000000 0.997797 0.208351
1.000000 0.997447 0.217133
1.000000 0.997016 0.226561
1.000000 0.996639 0.233105
1.000000 0.996127 0.241360
1.000000 0.995722 0.246224
1.000000 0.995101 0.254294
1.000000 0.994642 0.259174
1.000000 0.994236 0.262801
1.000000 0.993858 0.264950
0.000000 0.004731 0.183298
0.000000 0.009463 0.226391
0.000000 0.008674 0.298895
0.227006 0.000000 0.351198
0.551183 0.000000 0.354042
0.788404 0.000000 0.359550
1.000000 0.000000 0.364665
1.000000 0.000000 0.356258
1.000000 0.000000 0.345424
1.000000 0.000000 0.333730
1.000000 0.000000 0.322088
1.000000 0.000000 0.308493
1.000000 0.000000 0.296156
1.000000 0.000000 0.283181
