3dlut_lib/face.cube
# Copyright: (C) Copyright 2010-2020 by IWLTBAP SAS
# Cannot be resold, shared or otherwise redistributed
# Website: https://luts.iwltbap.com
#TITLE "IWLTBAP 8120 (Rec.709, sRGB, DCI-P3)"
LUT_3D_SIZE 9
0.000000 0.000000 0.040994
0.153060 0.000000 0.203994
0.664662 0.000000 0.204568
1.000000 0.000000 0.188599
1.000000 0.000000 0.168439
1.000000 0.000000 0.146165
1.000000 0.000000 0.124965
1.000000 0.000000 0.102637
1.000000 0.000000 0.077646
0.000000 0.107156 0.200706
0.000000 0.103403 0.317748
0.778838 0.077155 0.278249
1.000000 0.055568 0.222252
1.000000 0.043264 0.180474
1.000000 0.041759 0.151788
1.000000 0.048985 0.131499
1.000000 0.062227 0.113270
1.000000 0.082416 0.089165
0.000000 0.239606 0.223814
0.399925 0.235893 0.246534
0.813419 0.225707 0.282520
1.000000 0.215156 0.274858
1.000000 0.211876 0.231779
1.000000 0.211692 0.197755
1.000000 0.214250 0.168203
1.000000 0.219091 0.142571
1.000000 0.226220 0.115010
0.196937 0.366609 0.211692
0.476903 0.364957 0.225535
0.840381 0.360541 0.253995
1.000000 0.353232 0.287237
1.000000 0.346152 0.295529
1.000000 0.346256 0.253696
1.000000 0.347706 0.218025
1.000000 0.351096 0.184799
1.000000 0.355856 0.153095
0.272675 0.493561 0.200511
0.510242 0.492689 0.210400
0.847957 0.490601 0.231113
1.000000 0.486732 0.259904
1.000000 0.481374 0.288918
1.000000 0.475800 0.305735
1.000000 0.477061 0.266088
1.000000 0.479293 0.228428
1.000000 0.483719 0.198151
0.292586 0.620314 0.183942
0.517191 0.619913 0.190262
0.847163 0.618657 0.208351
1.000000 0.616692 0.231113
1.000000 0.613756 0.257117
1.000000 0.609880 0.281858
1.000000 0.605662 0.301604
1.000000 0.607003 0.266088
1.000000 0.610647 0.234257
0.270096 0.746936 0.160958
0.501056 0.746660 0.167256
0.831913 0.745951 0.182000
1.000000 0.744726 0.202261
1.000000 0.742984 0.225192
1.000000 0.740838 0.247153
1.000000 0.738364 0.265377
1.000000 0.735759 0.279056
1.000000 0.737804 0.270166
0.219411 0.873197 0.129049
0.473888 0.873005 0.135683
0.811751 0.872620 0.148063
1.000000 0.871977 0.166543
1.000000 0.870947 0.188390
1.000000 0.869528 0.210400
1.000000 0.868009 0.228597
1.000000 0.866682 0.239286
1.000000 0.865644 0.243413
0.144881 0.999141 0.089165
0.435205 0.999060 0.094262
0.788836 0.998819 0.107524
1.000000 0.998362 0.127493
1.000000 0.997851 0.146437
1.000000 0.997178 0.166065
1.000000 0.996315 0.182866
1.000000 0.995479 0.194957
1.000000 0.994966 0.198941
0.000000 0.000000 0.129973
0.000000 0.003154 0.267784
0.582448 0.000000 0.305132
1.000000 0.000000 0.296031
1.000000 0.000000 0.276763
1.000000 0.000000 0.255339
1.000000 0.000000 0.230111
1.000000 0.000000 0.204950
1.000000 0.000000 0.179376
0.000000 0.108623 0.240564
0.000000 0.111859 0.331878
0.554396 0.079582 0.425799
1.000000 0.046892 0.358656
1.000000 0.022869 0.306938
1.000000 0.015771 0.267220
1.000000 0.024446 0.235403
1.000000 0.044738 0.209285
1.000000 0.070003 0.185438
0.000000 0.231945 0.324681
0.000000 0.234421 0.384577
0.613704 0.224160 0.435418
1.000000 0.211876 0.409111
1.000000 0.206280 0.350585
1.000000 0.205140 0.302826
1.000000 0.207600 0.264093
1.000000 0.212792 0.232609
1.000000 0.220502 0.205140
0.000000 0.364372 0.322201
0.335578 0.363786 0.335677
0.763332 0.358855 0.365055
1.000000 0.350585 0.399310
1.000000 0.342703 0.397648
1.000000 0.341966 0.348119
1.000000 0.343438 0.305253
1.000000 0.346982 0.266372
1.000000 0.353536 0.236381
0.177802 0.492622 0.287755
0.460846 0.491680 0.297031
0.818812 0.489316 0.318094
1.000000 0.485023 0.346464
1.000000 0.478876 0.375865
1.000000 0.472841 0.388212
1.000000 0.473900 0.344694
1.000000 0.476011 0.304527
1.000000 0.484268 0.274721
0.266187 0.619612 0.259758
0.501769 0.619110 0.266372
0.837167 0.617802 0.282123
1.000000 0.615530 0.305494
1.000000 0.612076 0.330893
1.000000 0.607775 0.354749
1.000000 0.602864 0.374830
1.000000 0.604472 0.335245
1.000000 0.610545 0.311928
0.262227 0.746542 0.229943
0.498194 0.746227 0.236056
0.832318 0.745358 0.250373
1.000000 0.744053 0.267643
1.000000 0.742031 0.291099
1.000000 0.739482 0.314038
1.000000 0.736642 0.332097
1.000000 0.733626 0.345216
1.000000 0.735960 0.335677
0.231466 0.872876 0.203610
0.478403 0.872684 0.208164
0.813419 0.872330 0.216416
1.000000 0.871494 0.234421
1.000000 0.870399 0.251435
1.000000 0.868785 0.272109
1.000000 0.867006 0.290587
1.000000 0.865156 0.304285
1.000000 0.863725 0.309920
0.160954 0.998953 0.173999
0.443381 0.998845 0.177380
0.793137 0.998577 0.185863
1.000000 0.998093 0.199924
1.000000 0.997447 0.217133
1.000000 0.996639 0.233105
1.000000 0.995722 0.246224
1.000000 0.994642 0.259174
1.000000 0.993858 0.264950
0.000000 0.014194 0.236218
0.000000 0.012617 0.342808
0.517191 0.000000 0.402610
0.990042 0.000000 0.406047
1.000000 0.000000 0.414905
1.000000 0.000000 0.389384
1.000000 0.000000 0.362806
1.000000 0.000000 0.334813
1.000000 0.000000 0.306337
0.000000 0.116726 0.299142
0.000000 0.120418 0.371129
0.203555 0.095499 0.520763
1.000000 0.058053 0.503489
1.000000 0.008674 0.469929
1.000000 0.000000 0.417723
1.000000 0.000000 0.375865
1.000000 0.016560 0.341966
1.000000 0.054934 0.312399
0.000000 0.229271 0.407072
0.000000 0.231280 0.456574
0.000000 0.227751 0.599368
0.927979 0.211692 0.585442
1.000000 0.201873 0.514832
1.000000 0.197358 0.455612
1.000000 0.198744 0.406218
1.000000 0.204185 0.365639
1.000000 0.222252 0.334164
0.000000 0.355454 0.457681
0.000000 0.358158 0.490871
0.427712 0.356959 0.547276
0.990042 0.347189 0.584524
1.000000 0.338893 0.561393
1.000000 0.336646 0.498755
1.000000 0.337289 0.444934
1.000000 0.340593 0.398261
1.000000 0.354143 0.365639
0.000000 0.488230 0.437061
0.193564 0.489925 0.447368
0.695836 0.487209 0.469144
1.000000 0.482203 0.500010
1.000000 0.474816 0.532496
1.000000 0.468214 0.535469
1.000000 0.468500 0.482479
1.000000 0.470570 0.435183
1.000000 0.483306 0.401485
0.078069 0.618305 0.390373
0.417509 0.617701 0.397296
0.788404 0.616137 0.413654
1.000000 0.613349 0.437919
1.000000 0.609111 0.465771
1.000000 0.603694 0.492823
1.000000 0.597952 0.509716
1.000000 0.599525 0.464254
1.000000 0.609060 0.437139
0.227006 0.745398 0.352319
0.478403 0.745003 0.358158
0.818812 0.744093 0.370651
1.000000 0.742468 0.389384
1.000000 0.740041 0.412901
1.000000 0.736842 0.436280
1.000000 0.733101 0.456870
1.000000 0.729051 0.473547
1.000000 0.735478 0.471494
0.229987 0.872170 0.320839
0.476903 0.871977 0.324456
0.813835 0.871494 0.332969
1.000000 0.870431 0.349560
1.000000 0.868947 0.367673
1.000000 0.866941 0.389024
1.000000 0.864734 0.407583
1.000000 0.862291 0.422152
1.000000 0.861115 0.472203
0.172317 0.998604 0.290459
0.449013 0.998469 0.293767
0.797838 0.998093 0.301849
1.000000 0.997474 0.314388
1.000000 0.996666 0.329243
1.000000 0.995560 0.345216
1.000000 0.994047 0.362512
1.000000 0.992477 0.376991
1.000000 0.991202 0.384577
0.000000 0.030754 0.362512
0.000000 0.017349 0.438152
0.467030 0.000000 0.501064
0.976731 0.000000 0.496832
1.000000 0.000000 0.504990
1.000000 0.000000 0.504664
1.000000 0.000000 0.496034
1.000000 0.000000 0.465915
1.000000 0.000000 0.438852
0.000000 0.127180 0.388031
0.000000 0.127180 0.456796
0.092263 0.106043 0.576835
0.941064 0.083803 0.572470
1.000000 0.048294 0.564174
1.000000 0.000789 0.551315
1.000000 0.000000 0.521889
1.000000 0.000000 0.480335
1.000000 0.061643 0.446609
0.000000 0.234093 0.472841
0.000000 0.236381 0.519634
0.000000 0.235403 0.633949
0.770021 0.221204 0.670442
1.000000 0.207036 0.645220
1.000000 0.193338 0.614669
1.000000 0.191704 0.557275
1.000000 0.196960 0.508685
1.000000 0.219268 0.469287
0.000000 0.352319 0.556354
0.000000 0.353739 0.589044
0.000000 0.354951 0.684086
0.186681 0.345840 0.810245
1.000000 0.337718 0.736201
1.000000 0.333078 0.665570
1.000000 0.331987 0.602552
1.000000 0.334597 0.547922
1.000000 0.350380 0.503881
0.000000 0.479780 0.587058
0.000000 0.481996 0.607930
0.125278 0.484954 0.658938
0.877118 0.479154 0.693886
1.000000 0.470499 0.730107
1.000000 0.464254 0.709228
1.000000 0.463602 0.644982
1.000000 0.464977 0.588722
1.000000 0.479293 0.542485
0.000000 0.612993 0.554334
0.000000 0.615581 0.562530
0.621672 0.613908 0.579741
1.000000 0.610647 0.607209
1.000000 0.605662 0.638121
1.000000 0.598949 0.669671
1.000000 0.592989 0.676570
1.000000 0.593944 0.621465
1.000000 0.605714 0.581159
0.000000 0.743816 0.502311
0.355253 0.743380 0.507457
0.752030 0.742309 0.520011
1.000000 0.740280 0.541473
1.000000 0.737323 0.567556
1.000000 0.733182 0.595108
1.000000 0.728196 0.620814
1.000000 0.722549 0.642019
1.000000 0.730958 0.611311
0.160954 0.871011 0.459739
0.444998 0.870754 0.463602
0.796559 0.870044 0.473265
1.000000 0.868753 0.490736
1.000000 0.866941 0.511001
1.000000 0.864409 0.535046
1.000000 0.861311 0.557217
1.000000 0.857838 0.576175
1.000000 0.857575 0.629839
0.174159 0.997851 0.424183
0.449812 0.997662 0.427728
0.797838 0.997178 0.436515
1.000000 0.996450 0.448579
1.000000 0.995236 0.466059
1.000000 0.993641 0.484543
1.000000 0.991636 0.504730
1.000000 0.989544 0.521514
1.000000 0.981667 0.677107
0.000000 0.030754 0.506745
0.000000 0.015771 0.549739
0.457721 0.000000 0.599735
0.981748 0.000000 0.600310
1.000000 0.000000 0.598215
1.000000 0.000000 0.597164
1.000000 0.000000 0.594367
1.000000 0.000000 0.584470
1.000000 0.000000 0.564174
0.000000 0.134798 0.503163
0.000000 0.129973 0.564344
0.200267 0.111859 0.642833
0.924404 0.098729 0.644505
1.000000 0.079102 0.642881
1.000000 0.052347 0.636573
1.000000 0.020503 0.625645
1.000000 0.001577 0.608238
1.000000 0.020503 0.578537
0.000000 0.242310 0.551023
0.000000 0.243570 0.595425
0.000000 0.239926 0.701419
0.750661 0.230111 0.722549
1.000000 0.220150 0.710070
1.000000 0.209098 0.693452
1.000000 0.199335 0.674191
1.000000 0.193135 0.650856
1.000000 0.203418 0.604834
0.000000 0.355756 0.634192
0.000000 0.357159 0.664057
0.000000 0.358457 0.738963
0.186681 0.353638 0.839645
1.000000 0.345424 0.816271
1.000000 0.337182 0.787811
1.000000 0.329353 0.759058
1.000000 0.330234 0.698333
1.000000 0.340699 0.644362
0.000000 0.476781 0.696395
0.000000 0.478179 0.719911
0.000000 0.480058 0.781161
0.000000 0.478179 0.887142
0.929760 0.467425 0.955012
1.000000 0.462513 0.882125
1.000000 0.460398 0.811907
1.000000 0.460763 0.747015
1.000000 0.470356 0.689184
0.000000 0.604576 0.710239
0.000000 0.606436 0.726034
0.000000 0.610596 0.768090
0.769133 0.607775 0.800428
1.000000 0.601875 0.836935
1.000000 0.594050 0.872716
1.000000 0.588990 0.853321
1.000000 0.589258 0.788913
1.000000 0.597374 0.730553
0.000000 0.738084 0.669444
0.000000 0.740559 0.676570
0.542735 0.739921 0.692541
1.000000 0.737724 0.714512
1.000000 0.734150 0.744884
1.000000 0.729213 0.776724
1.000000 0.723084 0.807049
1.000000 0.717550 0.817078
1.000000 0.725257 0.763094
0.000000 0.869399 0.614618
0.279032 0.869044 0.619612
0.713031 0.868171 0.631360
1.000000 0.866747 0.648070
1.000000 0.864376 0.672884
1.000000 0.861311 0.700135
1.000000 0.857213 0.727544
1.000000 0.852559 0.752463
1.000000 0.852360 0.787223
0.066240 0.996585 0.571191
0.407050 0.996342 0.575017
0.773120 0.995803 0.583062
1.000000 0.994831 0.596427
1.000000 0.993289 0.616692
1.000000 0.991284 0.638556
1.000000 0.988728 0.662541
1.000000 0.985671 0.684263
1.000000 0.979492 0.794825
0.000000 0.027600 0.630870
0.000000 0.009463 0.662725
0.508840 0.000000 0.691845
0.995306 0.000000 0.696696
1.000000 0.000000 0.699492
1.000000 0.000000 0.698505
1.000000 0.000000 0.693799
1.000000 0.000000 0.686025
1.000000 0.000000 0.672884
0.000000 0.133308 0.651421
0.000000 0.125919 0.692236
0.352216 0.116385 0.719456
0.942815 0.108258 0.723946
1.000000 0.096721 0.725462
1.000000 0.081481 0.724684
1.000000 0.067305 0.717135
1.000000 0.056196 0.705380
1.000000 0.058053 0.688045
0.000000 0.249458 0.653299
0.000000 0.248539 0.701419
0.000000 0.241677 0.785382
0.791850 0.236543 0.782942
1.000000 0.229607 0.778518
1.000000 0.222078 0.770137
1.000000 0.214794 0.758556
1.000000 0.209843 0.741395
1.000000 0.209098 0.720200
0.000000 0.361133 0.713927
0.000000 0.362708 0.745911
0.000000 0.364079 0.811271
0.366183 0.359550 0.878823
1.000000 0.353840 0.866358
1.000000 0.347603 0.849205
1.000000 0.341650 0.828084
1.000000 0.337075 0.804874
1.000000 0.335245 0.778257
0.000000 0.479085 0.778965
0.000000 0.480127 0.799852
0.000000 0.481927 0.856522
0.000000 0.481305 0.973483
0.934725 0.475379 0.984357
1.000000 0.469430 0.959079
1.000000 0.463964 0.929111
1.000000 0.459079 0.898179
1.000000 0.460617 0.838799
0.000000 0.601719 0.825601
0.000000 0.603020 0.843284
0.000000 0.605559 0.889558
0.000000 0.606952 0.975621
0.980079 0.599839 1.000000
1.000000 0.595372 1.000000
1.000000 0.589311 1.000000
1.000000 0.586251 0.955411
1.000000 0.587542 0.889464
0.000000 0.729823 0.832474
0.000000 0.731323 0.843284
0.000000 0.734995 0.873999
0.656740 0.734834 0.909071
1.000000 0.730837 0.940930
1.000000 0.725011 0.977559
1.000000 0.718048 1.000000
1.000000 0.713509 0.994777
1.000000 0.714470 0.930470
0.000000 0.863628 0.785529
0.000000 0.865286 0.790524
0.456937 0.865936 0.803121
0.965244 0.864051 0.824736
1.000000 0.861573 0.849737
1.000000 0.857805 0.881903
1.000000 0.852957 0.914407
1.000000 0.847237 0.943774
1.000000 0.842275 0.955953
0.000000 0.994939 0.727952
0.190146 0.994696 0.731565
0.677634 0.994020 0.741673
1.000000 0.992775 0.758749
1.000000 0.991094 0.778294
1.000000 0.988510 0.805445
1.000000 0.985343 0.833498
1.000000 0.981310 0.860853
1.000000 0.977310 0.904551
0.000000 0.017349 0.758209
0.000000 0.000000 0.779673
0.589085 0.000000 0.788619
1.000000 0.000000 0.793734
1.000000 0.000000 0.800284
1.000000 0.000000 0.800608
1.000000 0.000000 0.799708
1.000000 0.000000 0.791584
1.000000 0.000000 0.781124
0.000000 0.122712 0.800644
0.000000 0.121734 0.802081
0.498194 0.119755 0.805410
0.986071 0.115355 0.810564
1.000000 0.108623 0.815043
1.000000 0.099522 0.816342
1.000000 0.091319 0.813706
1.000000 0.086520 0.805124
1.000000 0.088291 0.792642
0.000000 0.251889 0.783608
0.000000 0.248078 0.829115
0.000000 0.244354 0.853122
0.865592 0.241201 0.853784
1.000000 0.236706 0.854775
1.000000 0.231779 0.851598
1.000000 0.226732 0.846034
1.000000 0.223814 0.834453
1.000000 0.223641 0.818372
0.000000 0.368637 0.807690
0.000000 0.369118 0.836154
0.000000 0.368059 0.904428
0.554396 0.364275 0.929761
1.000000 0.360442 0.922753
1.000000 0.355957 0.914950
1.000000 0.351606 0.902710
1.000000 0.348016 0.887016
1.000000 0.346671 0.865286
0.000000 0.483100 0.866617
0.000000 0.483994 0.887204
0.000000 0.485502 0.942383
0.000000 0.485844 1.000000
1.000000 0.482548 1.000000
1.000000 0.477551 1.000000
1.000000 0.473335 0.987801
1.000000 0.469572 0.964137
1.000000 0.467138 0.938103
0.000000 0.603435 0.915132
0.000000 0.604627 0.933504
0.000000 0.606694 0.978415
0.553113 0.605403 1.000000
1.000000 0.603279 1.000000
1.000000 0.605559 1.000000
1.000000 0.608392 1.000000
1.000000 0.607312 1.000000
1.000000 0.597742 1.000000
0.000000 0.727585 0.949775
0.000000 0.728766 0.963574
0.000000 0.730877 0.998227
0.861321 0.726973 1.000000
1.000000 0.722426 1.000000
1.000000 0.722138 1.000000
1.000000 0.728969 1.000000
1.000000 0.739403 1.000000
1.000000 0.743737 1.000000
0.000000 0.855303 0.951496
0.000000 0.856588 0.960580
0.000000 0.859806 0.983727
0.757931 0.858757 1.000000
1.000000 0.850004 1.000000
1.000000 0.844526 1.000000
1.000000 0.845230 1.000000
1.000000 0.854114 1.000000
1.000000 0.869367 1.000000
0.000000 0.989245 0.899939
0.000000 0.990577 0.904612
0.358266 0.991772 0.915101
0.922611 0.990387 0.932268
1.000000 0.988155 0.957773
1.000000 0.985425 0.985343
1.000000 0.976064 1.000000
1.000000 0.968377 1.000000
1.000000 0.981777 1.000000
0.000000 0.007097 0.879332
0.200267 0.000000 0.889276
0.665186 0.000000 0.892807
1.000000 0.000000 0.897436
1.000000 0.000000 0.901911
1.000000 0.000000 0.904306
1.000000 0.000000 0.904367
1.000000 0.000000 0.900217
1.000000 0.000000 0.889526
0.000000 0.123683 0.898364
0.000000 0.123360 0.899631
0.611981 0.122061 0.902649
1.000000 0.119755 0.907394
1.000000 0.116385 0.911562
1.000000 0.111148 0.914558
1.000000 0.107156 0.912077
1.000000 0.103784 0.908644
1.000000 0.106786 0.898457
0.000000 0.249152 0.920002
0.000000 0.247616 0.930411
0.401718 0.246689 0.933092
0.950824 0.244979 0.935206
1.000000 0.242468 0.938424
1.000000 0.239286 0.939270
1.000000 0.236056 0.936700
1.000000 0.234093 0.930175
1.000000 0.233764 0.920122
0.000000 0.373222 0.918683
0.000000 0.372653 0.939882
0.000000 0.369694 0.992883
0.730239 0.367866 0.992883
1.000000 0.365444 0.990523
1.000000 0.362315 0.988755
1.000000 0.359352 0.981860
1.000000 0.356859 0.972982
1.000000 0.356157 0.958512
0.000000 0.489451 0.951869
0.000000 0.490398 0.977642
0.000000 0.491276 1.000000
0.685284 0.491680 1.000000
1.000000 0.492353 1.000000
1.000000 0.492353 1.000000
1.000000 0.491882 1.000000
1.000000 0.487141 1.000000
1.000000 0.476221 1.000000
0.000000 0.606591 1.000000
0.000000 0.606539 1.000000
0.585475 0.606385 1.000000
1.000000 0.606900 1.000000
1.000000 0.610494 1.000000
1.000000 0.616238 1.000000
1.000000 0.623061 1.000000
1.000000 0.630870 1.000000
1.000000 0.637734 1.000000
0.668843 0.723741 1.000000
0.795705 0.723330 1.000000
1.000000 0.722385 1.000000
1.000000 0.721850 1.000000
1.000000 0.723412 1.000000
1.000000 0.728481 1.000000
1.000000 0.739522 1.000000
1.000000 0.754255 1.000000
1.000000 0.772253 1.000000
1.000000 0.839239 1.000000
1.000000 0.839002 1.000000
1.000000 0.837105 1.000000
1.000000 0.835372 1.000000
1.000000 0.834964 1.000000
1.000000 0.838156 1.000000
1.000000 0.847371 1.000000
1.000000 0.864018 1.000000
1.000000 0.886670 1.000000
1.000000 0.953156 1.000000
1.000000 0.951954 1.000000
1.000000 0.948768 1.000000
1.000000 0.945626 1.000000
1.000000 0.943311 1.000000
1.000000 0.944643 1.000000
1.000000 0.952126 1.000000
1.000000 0.967060 1.000000
1.000000 0.990387 1.000000
0.000000 0.000789 1.000000
0.363233 0.000000 1.000000
0.736340 0.000000 1.000000
1.000000 0.003943 1.000000
1.000000 0.011040 1.000000
1.000000 0.018137 1.000000
1.000000 0.023657 1.000000
1.000000 0.025234 1.000000
1.000000 0.007886 1.000000
0.000000 0.124646 1.000000
0.302101 0.124646 1.000000
0.703264 0.124005 1.000000
1.000000 0.123036 1.000000
1.000000 0.121406 1.000000
1.000000 0.118753 1.000000
1.000000 0.116385 1.000000
1.000000 0.115699 1.000000
1.000000 0.119422 1.000000
0.000000 0.249916 1.000000
0.000000 0.249458 1.000000
0.615421 0.249763 1.000000
1.000000 0.249458 1.000000
1.000000 0.251738 1.000000
1.000000 0.249458 1.000000
1.000000 0.250068 1.000000
1.000000 0.249458 1.000000
1.000000 0.253696 1.000000
0.000000 0.375865 1.000000
0.000000 0.376147 1.000000
0.593860 0.376616 1.000000
1.000000 0.378579 1.000000
1.000000 0.381731 1.000000
1.000000 0.384942 1.000000
1.000000 0.390014 1.000000
1.000000 0.391537 1.000000
1.000000 0.388753 1.000000
0.177802 0.495434 1.000000
0.431891 0.495967 1.000000
0.749289 0.497430 1.000000
1.000000 0.499944 1.000000
1.000000 0.504077 1.000000
1.000000 0.510359 1.000000
1.000000 0.518439 1.000000
1.000000 0.527350 1.000000
1.000000 0.538602 1.000000
0.844378 0.607673 1.000000
0.911398 0.608392 1.000000
1.000000 0.610391 1.000000
1.000000 0.614060 1.000000
1.000000 0.619812 1.000000
1.000000 0.628067 1.000000
1.000000 0.639038 1.000000
1.000000 0.652830 1.000000
1.000000 0.671664 1.000000
1.000000 0.719828 1.000000
1.000000 0.720200 1.000000
1.000000 0.721355 1.000000
1.000000 0.723700 1.000000
1.000000 0.728603 1.000000
1.000000 0.737724 1.000000
1.000000 0.750901 1.000000
1.000000 0.768508 1.000000
1.000000 0.789975 1.000000
1.000000 0.829493 1.000000
1.000000 0.829562 1.000000
1.000000 0.830248 1.000000
1.000000 0.831961 1.000000
1.000000 0.835882 1.000000
1.000000 0.843352 1.000000
1.000000 0.855797 1.000000
1.000000 0.874480 1.000000
1.000000 0.898797 1.000000
1.000000 0.931679 1.000000
1.000000 0.931473 1.000000
1.000000 0.931738 1.000000
1.000000 0.933151 1.000000
1.000000 0.936993 1.000000
1.000000 0.943919 1.000000
1.000000 0.956067 1.000000
1.000000 0.974400 1.000000
1.000000 0.999383 1.000000
