3dlut_lib/face.cube
# Copyright: (C) Copyright 2010-2020 by IWLTBAP SAS
# Cannot be resold, shared or otherwise redistributed
# Website: https://luts.iwltbap.com
#TITLE "IWLTBAP 8120 (Rec.709, sRGB, DCI-P3)"
LUT_3D_SIZE 5
0.000000 0.000000 0.040994
0.664662 0.000000 0.204568
1.000000 0.000000 0.168439
1.000000 0.000000 0.124965
1.000000 0.000000 0.077646
0.000000 0.239606 0.223814
0.813419 0.225707 0.282520
1.000000 0.211876 0.231779
1.000000 0.214250 0.168203
1.000000 0.226220 0.115010
0.272675 0.493561 0.200511
0.847957 0.490601 0.231113
1.000000 0.481374 0.288918
1.000000 0.477061 0.266088
1.000000 0.483719 0.198151
0.270096 0.746936 0.160958
0.831913 0.745951 0.182000
1.000000 0.742984 0.225192
1.000000 0.738364 0.265377
1.000000 0.737804 0.270166
0.144881 0.999141 0.089165
0.788836 0.998819 0.107524
1.000000 0.997851 0.146437
1.000000 0.996315 0.182866
1.000000 0.994966 0.198941
0.000000 0.014194 0.236218
0.517191 0.000000 0.402610
1.000000 0.000000 0.414905
1.000000 0.000000 0.362806
1.000000 0.000000 0.306337
0.000000 0.229271 0.407072
0.000000 0.227751 0.599368
1.000000 0.201873 0.514832
1.000000 0.198744 0.406218
1.000000 0.222252 0.334164
0.000000 0.488230 0.437061
0.695836 0.487209 0.469144
1.000000 0.474816 0.532496
1.000000 0.468500 0.482479
1.000000 0.483306 0.401485
0.227006 0.745398 0.352319
0.818812 0.744093 0.370651
1.000000 0.740041 0.412901
1.000000 0.733101 0.456870
1.000000 0.735478 0.471494
0.172317 0.998604 0.290459
0.797838 0.998093 0.301849
1.000000 0.996666 0.329243
1.000000 0.994047 0.362512
1.000000 0.991202 0.384577
0.000000 0.030754 0.506745
0.457721 0.000000 0.599735
1.000000 0.000000 0.598215
1.000000 0.000000 0.594367
1.000000 0.000000 0.564174
0.000000 0.242310 0.551023
0.000000 0.239926 0.701419
1.000000 0.220150 0.710070
1.000000 0.199335 0.674191
1.000000 0.203418 0.604834
0.000000 0.476781 0.696395
0.000000 0.480058 0.781161
0.929760 0.467425 0.955012
1.000000 0.460398 0.811907
1.000000 0.470356 0.689184
0.000000 0.738084 0.669444
0.542735 0.739921 0.692541
1.000000 0.734150 0.744884
1.000000 0.723084 0.807049
1.000000 0.725257 0.763094
0.066240 0.996585 0.571191
0.773120 0.995803 0.583062
1.000000 0.993289 0.616692
1.000000 0.988728 0.662541
1.000000 0.979492 0.794825
0.000000 0.017349 0.758209
0.589085 0.000000 0.788619
1.000000 0.000000 0.800284
1.000000 0.000000 0.799708
1.000000 0.000000 0.781124
0.000000 0.251889 0.783608
0.000000 0.244354 0.853122
1.000000 0.236706 0.854775
1.000000 0.226732 0.846034
1.000000 0.223641 0.818372
0.000000 0.483100 0.866617
0.000000 0.485502 0.942383
1.000000 0.482548 1.000000
1.000000 0.473335 0.987801
1.000000 0.467138 0.938103
0.000000 0.727585 0.949775
0.000000 0.730877 0.998227
1.000000 0.722426 1.000000
1.000000 0.728969 1.000000
1.000000 0.743737 1.000000
0.000000 0.989245 0.899939
0.358266 0.991772 0.915101
1.000000 0.988155 0.957773
1.000000 0.976064 1.000000
1.000000 0.981777 1.000000
0.000000 0.000789 1.000000
0.736340 0.000000 1.000000
1.000000 0.011040 1.000000
1.000000 0.023657 1.000000
1.000000 0.007886 1.000000
0.000000 0.249916 1.000000
0.615421 0.249763 1.000000
1.000000 0.251738 1.000000
1.000000 0.250068 1.000000
1.000000 0.253696 1.000000
0.177802 0.495434 1.000000
0.749289 0.497430 1.000000
1.000000 0.504077 1.000000
1.000000 0.518439 1.000000
1.000000 0.538602 1.000000
1.000000 0.719828 1.000000
1.000000 0.721355 1.000000
1.000000 0.728603 1.000000
1.000000 0.750901 1.000000
1.000000 0.789975 1.000000
1.000000 0.931679 1.000000
1.000000 0.931738 1.000000
1.000000 0.936993 1.000000
1.000000 0.956067 1.000000
1.000000 0.999383 1.000000
