3dlut_lib/g_origin.cube
TITLE "Generated by 3D LUT Creator Pro (c) Oleg Sharonov"
LUT_3D_SIZE 17
#INPUTGAMMA sRGB
#IMAGEPROFILE sRGB
#OUTPUTGAMMA sRGB
0.000000 0.000000 0.000000
0.186681 0.000000 0.000000
0.373938 0.000000 0.000000
0.560761 0.000789 0.000000
0.747914 0.000789 0.000000
0.935079 0.001577 0.000000
1.000000 0.001577 0.000000
1.000000 0.002366 0.000000
1.000000 0.003154 0.000000
1.000000 0.004731 0.000000
1.000000 0.005520 0.000000
1.000000 0.007097 0.000000
1.000000 0.008674 0.000000
1.000000 0.010251 0.000000
1.000000 0.011829 0.000000
1.000000 0.014194 0.000000
1.000000 0.015771 0.000000
0.000000 0.062227 0.000000
0.184930 0.062227 0.000000
0.372977 0.062806 0.000000
0.556314 0.064521 0.000000
0.738672 0.066756 0.000000
0.922252 0.070003 0.000000
1.000000 0.073137 0.000000
1.000000 0.076167 0.000000
1.000000 0.079582 0.000000
1.000000 0.082416 0.000000
1.000000 0.085170 0.000000
1.000000 0.088291 0.000000
1.000000 0.091319 0.000000
1.000000 0.094676 0.000000
1.000000 0.098330 0.000000
1.000000 0.101090 0.000000
1.000000 0.104163 0.000000
0.000000 0.124965 0.000000
0.198607 0.124326 0.000000
0.372977 0.124965 0.000000
0.562025 0.124965 0.000000
0.745155 0.125919 0.000000
0.926551 0.127806 0.000000
1.000000 0.130280 0.000000
1.000000 0.132708 0.000000
1.000000 0.135683 0.000000
1.000000 0.138595 0.000000
1.000000 0.142009 0.000000
1.000000 0.145343 0.000000
1.000000 0.148869 0.000000
1.000000 0.151788 0.000000
1.000000 0.154650 0.000000
1.000000 0.157458 0.000000
1.000000 0.160463 0.000000
0.000000 0.187552 0.000000
0.222474 0.186287 0.000000
0.381540 0.187131 0.000000
0.560128 0.187762 0.000000
0.749747 0.187552 0.000000
0.935432 0.187972 0.000000
1.000000 0.189016 0.000000
1.000000 0.191293 0.000000
1.000000 0.193338 0.000000
1.000000 0.196162 0.000000
1.000000 0.198744 0.000000
1.000000 0.201679 0.000000
1.000000 0.204568 0.000000
1.000000 0.207788 0.000000
1.000000 0.211139 0.000000
1.000000 0.214613 0.000000
1.000000 0.218203 0.000000
0.000000 0.249916 0.000000
0.232937 0.248692 0.000000
0.403503 0.248539 0.000000
0.565798 0.249763 0.000000
0.746996 0.250220 0.000000
0.936844 0.250068 0.000000
1.000000 0.250220 0.000000
1.000000 0.250981 0.000000
1.000000 0.252493 0.000000
1.000000 0.254593 0.000000
1.000000 0.256378 0.000000
1.000000 0.259466 0.000000
1.000000 0.261936 0.000000
1.000000 0.264665 0.000000
1.000000 0.267643 0.000000
1.000000 0.270584 0.000000
1.000000 0.273762 0.000000
0.002366 0.312516 0.000000
0.243029 0.311221 0.000000
0.427712 0.310512 0.000000
0.584266 0.311339 0.000000
0.751574 0.312399 0.000000
0.934371 0.312868 0.000000
1.000000 0.312634 0.000000
1.000000 0.312516 0.000000
1.000000 0.312986 0.000000
1.000000 0.314272 0.000000
1.000000 0.315784 0.000000
1.000000 0.317979 0.000000
1.000000 0.319813 0.000000
1.000000 0.322541 0.000000
1.000000 0.325241 0.000000
1.000000 0.327804 0.000000
1.000000 0.330564 0.000000
0.002366 0.374924 0.000000
0.250028 0.373790 0.000000
0.438494 0.372937 0.000000
0.608520 0.372937 0.000000
0.766908 0.373980 0.000000
0.937196 0.375018 0.000000
1.000000 0.375395 0.000000
1.000000 0.375207 0.000000
1.000000 0.375018 0.000000
1.000000 0.375677 0.000000
1.000000 0.376053 0.000000
1.000000 0.377459 0.000000
1.000000 0.379138 0.000000
1.000000 0.381362 0.000000
1.000000 0.383111 0.000000
1.000000 0.385672 0.000000
1.000000 0.388663 0.000000
0.002366 0.437451 0.000000
0.255511 0.436515 0.000000
0.447412 0.435575 0.000000
0.632309 0.434712 0.000000
0.788404 0.435497 0.000000
0.950131 0.436671 0.000000
1.000000 0.437607 0.000000
1.000000 0.437997 0.000000
1.000000 0.437763 0.000000
1.000000 0.437529 0.000000
1.000000 0.437841 0.000000
1.000000 0.438230 0.000000
1.000000 0.439317 0.000000
1.000000 0.440556 0.000000
1.000000 0.442483 0.000000
1.000000 0.444781 0.000000
1.000000 0.446533 0.000000
0.004731 0.499944 0.000000
0.262227 0.499020 0.000000
0.457721 0.498093 0.000000
0.644382 0.497231 0.000000
0.813835 0.497098 0.000000
0.969317 0.498159 0.000000
1.000000 0.499350 0.000000
1.000000 0.500274 0.000000
1.000000 0.500537 0.000000
1.000000 0.500274 0.000000
1.000000 0.500010 0.000000
1.000000 0.500076 0.000000
1.000000 0.500998 0.000000
1.000000 0.501261 0.000000
1.000000 0.502639 0.000000
1.000000 0.503881 0.000000
1.000000 0.505901 0.000000
0.004731 0.562474 0.000000
0.268799 0.561564 0.000000
0.466262 0.560652 0.000000
0.653541 0.559796 0.000000
0.837569 0.558995 0.000000
0.993336 0.559682 0.000000
1.000000 0.560824 0.000000
1.000000 0.562076 0.000000
1.000000 0.562871 0.000000
1.000000 0.563041 0.000000
1.000000 0.562871 0.000000
1.000000 0.562587 0.000000
1.000000 0.562530 0.000000
1.000000 0.563098 0.000000
1.000000 0.563381 0.000000
1.000000 0.564457 0.000000
1.000000 0.565755 0.000000
0.007097 0.625000 0.000000
0.275234 0.624156 0.000000
0.472373 0.623310 0.000000
0.662560 0.622413 0.000000
0.850333 0.621514 0.000000
1.000000 0.621415 0.000000
1.000000 0.622413 0.000000
1.000000 0.623510 0.000000
1.000000 0.624653 0.000000
1.000000 0.625447 0.000000
1.000000 0.625645 0.000000
1.000000 0.625447 0.000000
1.000000 0.625149 0.000000
1.000000 0.625000 0.000000
1.000000 0.625298 0.000000
1.000000 0.626140 0.000000
1.000000 0.626437 0.000000
0.007097 0.687431 0.000000
0.281539 0.686641 0.000000
0.478403 0.685893 0.000000
0.673513 0.684924 0.000000
0.859371 0.684086 0.000000
1.000000 0.683291 0.000000
1.000000 0.683953 0.000000
1.000000 0.685101 0.000000
1.000000 0.686245 0.000000
1.000000 0.687300 0.000000
1.000000 0.687958 0.000000
1.000000 0.688177 0.000000
1.000000 0.688001 0.000000
1.000000 0.687738 0.000000
1.000000 0.687519 0.000000
1.000000 0.687651 0.000000
1.000000 0.688396 0.000000
0.009463 0.749961 0.000000
0.285264 0.749216 0.000000
0.484356 0.748470 0.000000
0.683254 0.747487 0.000000
0.868683 0.746700 0.000000
1.000000 0.745753 0.000000
1.000000 0.745674 0.000000
1.000000 0.746660 0.000000
1.000000 0.747723 0.000000
1.000000 0.748941 0.000000
1.000000 0.749961 0.000000
1.000000 0.750549 0.000000
1.000000 0.750744 0.000000
1.000000 0.750588 0.000000
1.000000 0.750314 0.000000
1.000000 0.750039 0.000000
1.000000 0.750039 0.000000
0.011829 0.812437 0.000000
0.290163 0.811731 0.000000
0.490962 0.811024 0.000000
0.689326 0.810139 0.000000
0.877880 0.809288 0.000000
1.000000 0.808401 0.000000
1.000000 0.807583 0.000000
1.000000 0.808223 0.000000
1.000000 0.809288 0.000000
1.000000 0.810457 0.000000
1.000000 0.811660 0.000000
1.000000 0.812578 0.000000
1.000000 0.813072 0.000000
1.000000 0.813283 0.000000
1.000000 0.813142 0.000000
1.000000 0.812931 0.000000
1.000000 0.812613 0.000000
0.011829 0.874961 0.000000
0.294990 0.874288 0.000000
0.497476 0.873583 0.000000
0.694839 0.872748 0.000000
0.888844 0.871784 0.000000
1.000000 0.870979 0.000000
1.000000 0.870044 0.000000
1.000000 0.869915 0.000000
1.000000 0.870850 0.000000
1.000000 0.871977 0.000000
1.000000 0.873133 0.000000
1.000000 0.874352 0.000000
1.000000 0.875185 0.000000
1.000000 0.875633 0.000000
1.000000 0.875824 0.000000
1.000000 0.875696 0.000000
1.000000 0.875505 0.000000
0.014194 0.937431 0.000000
0.299747 0.936788 0.000000
0.504610 0.936115 0.000000
0.700798 0.935353 0.000000
0.899280 0.934356 0.000000
1.000000 0.933563 0.000000
1.000000 0.932622 0.000000
1.000000 0.931915 0.000000
1.000000 0.932504 0.000000
1.000000 0.933533 0.000000
1.000000 0.934649 0.000000
1.000000 0.935822 0.000000
1.000000 0.936963 0.000000
1.000000 0.937782 0.000000
1.000000 0.938191 0.000000
1.000000 0.938424 0.000000
1.000000 0.938278 0.000000
0.016560 0.999946 0.000000
0.304437 0.999356 0.000000
0.511640 0.998657 0.000000
0.706700 0.997904 0.000000
0.905913 0.996935 0.000000
1.000000 0.996100 0.000000
1.000000 0.995236 0.000000
1.000000 0.994344 0.000000
1.000000 0.994209 0.000000
1.000000 0.995101 0.000000
1.000000 0.996207 0.000000
1.000000 0.997339 0.000000
1.000000 0.998523 0.000000
1.000000 0.999624 0.000000
1.000000 1.000000 0.000000
1.000000 1.000000 0.000000
1.000000 1.000000 0.000000
0.002366 0.000789 0.051020
0.186681 0.000000 0.061056
0.373938 0.000000 0.061643
0.561393 0.000789 0.058662
0.750204 0.000789 0.055568
0.938956 0.000000 0.052347
1.000000 0.000000 0.048294
1.000000 0.000000 0.044738
1.000000 0.000000 0.040994
1.000000 0.000000 0.038640
1.000000 0.000000 0.035486
1.000000 0.000000 0.032332
1.000000 0.000000 0.029177
1.000000 0.000000 0.026023
1.000000 0.000000 0.022869
1.000000 0.000000 0.020503
1.000000 0.000000 0.018137
0.044949 0.062227 0.029177
0.122983 0.071584 0.009463
0.362245 0.065646 0.048985
0.567049 0.062227 0.056196
0.757931 0.060464 0.056196
0.947004 0.058662 0.055568
1.000000 0.056820 0.053651
1.000000 0.054934 0.051020
1.000000 0.053002 0.047596
1.000000 0.049669 0.044005
1.000000 0.046892 0.039429
1.000000 0.042516 0.033909
1.000000 0.037852 0.027600
1.000000 0.032332 0.020503
1.000000 0.026812 0.012617
1.000000 0.019714 0.003943
1.000000 0.018137 0.000000
0.014194 0.124965 0.050348
0.155059 0.128118 0.024446
0.328050 0.131196 0.018926
0.528781 0.130891 0.033909
0.730710 0.129666 0.045463
0.921533 0.129666 0.046181
1.000000 0.130280 0.044005
1.000000 0.130891 0.041759
1.000000 0.131196 0.037852
1.000000 0.131499 0.031543
1.000000 0.131499 0.025234
1.000000 0.131196 0.018926
1.000000 0.130891 0.011829
1.000000 0.130586 0.003943
1.000000 0.131499 0.000000
1.000000 0.133906 0.000000
1.000000 0.136563 0.000000
0.002366 0.187552 0.059267
0.168589 0.189016 0.036274
0.371048 0.189016 0.022080
0.534143 0.191293 0.022080
0.713031 0.193541 0.022869
0.921533 0.190882 0.043264
1.000000 0.191293 0.044005
1.000000 0.192114 0.040994
1.000000 0.192727 0.037063
1.000000 0.193744 0.031543
1.000000 0.194957 0.024446
1.000000 0.195560 0.018137
1.000000 0.196162 0.008674
1.000000 0.197159 0.000000
1.000000 0.199924 0.000000
1.000000 0.202840 0.000000
1.000000 0.205140 0.000000
0.000000 0.249916 0.061643
0.177802 0.250677 0.043264
0.389919 0.250068 0.019714
0.557588 0.251284 0.017349
0.729295 0.252794 0.021292
0.908844 0.254294 0.022080
1.000000 0.253095 0.038640
1.000000 0.252945 0.041759
1.000000 0.253696 0.037852
1.000000 0.254444 0.033120
1.000000 0.255339 0.026812
1.000000 0.256526 0.018926
1.000000 0.257559 0.010251
1.000000 0.258881 0.000000
1.000000 0.261213 0.000000
1.000000 0.263520 0.000000
1.000000 0.266372 0.000000
0.000000 0.312516 0.062227
0.164802 0.313337 0.044005
0.408811 0.312046 0.016560
0.573263 0.312751 0.008674
0.743771 0.313805 0.010251
0.920813 0.314854 0.018926
1.000000 0.315668 0.022869
1.000000 0.316479 0.023657
1.000000 0.314738 0.040994
1.000000 0.315320 0.037063
1.000000 0.316363 0.029966
1.000000 0.317287 0.022080
1.000000 0.318094 0.014194
1.000000 0.319355 0.001577
1.000000 0.321294 0.000000
1.000000 0.323444 0.000000
1.000000 0.326136 0.000000
0.000000 0.375018 0.062227
0.157041 0.375865 0.043264
0.419227 0.374358 0.014194
0.590283 0.374546 0.000000
0.757479 0.375395 0.000000
0.930471 0.376335 0.002366
1.000000 0.377085 0.014983
1.000000 0.377459 0.022869
1.000000 0.378113 0.023657
1.000000 0.377365 0.035486
1.000000 0.377365 0.035486
1.000000 0.377926 0.029966
1.000000 0.379045 0.018926
1.000000 0.380066 0.007886
1.000000 0.380992 0.000000
1.000000 0.383295 0.000000
1.000000 0.385581 0.000000
0.000000 0.437529 0.061056
0.149008 0.438230 0.041759
0.414919 0.437061 0.010251
0.613704 0.436123 0.000000
0.777083 0.436749 0.000000
0.943165 0.437763 0.000000
1.000000 0.438774 0.000000
1.000000 0.439395 0.009463
1.000000 0.439627 0.019714
1.000000 0.439937 0.024446
1.000000 0.440479 0.022080
1.000000 0.439240 0.037063
1.000000 0.440015 0.026812
1.000000 0.440710 0.020503
1.000000 0.441944 0.004731
1.000000 0.443327 0.000000
1.000000 0.444857 0.000000
0.000000 0.500010 0.059868
0.140676 0.500669 0.039429
0.411440 0.499746 0.004731
0.626175 0.498424 0.000000
0.800813 0.498292 0.000000
0.961834 0.499152 0.000000
1.000000 0.500274 0.000000
1.000000 0.501261 0.000000
1.000000 0.501721 0.003154
1.000000 0.501852 0.016560
1.000000 0.501721 0.026812
1.000000 0.502311 0.023657
1.000000 0.501852 0.031543
1.000000 0.501918 0.029177
1.000000 0.502770 0.016560
1.000000 0.503555 0.006309
1.000000 0.505185 0.000000
0.000000 0.562530 0.058662
0.132014 0.563211 0.036274
0.410566 0.562303 0.000000
0.632309 0.560937 0.000000
0.825802 0.560025 0.000000
0.984411 0.560595 0.000000
1.000000 0.561678 0.000000
1.000000 0.562814 0.000000
1.000000 0.563721 0.000000
1.000000 0.564118 0.000000
1.000000 0.564118 0.013406
1.000000 0.564004 0.025234
1.000000 0.564400 0.024446
1.000000 0.564966 0.016560
1.000000 0.564061 0.031543
1.000000 0.564796 0.017349
1.000000 0.565530 0.004731
0.000000 0.625050 0.057439
0.120652 0.625695 0.032332
0.414052 0.624802 0.000000
0.639474 0.623460 0.000000
0.836361 0.622413 0.000000
1.000000 0.622264 0.000000
1.000000 0.623161 0.000000
1.000000 0.624305 0.000000
1.000000 0.625348 0.000000
1.000000 0.626140 0.000000
1.000000 0.626586 0.000000
1.000000 0.626437 0.010251
1.000000 0.626388 0.022080
1.000000 0.626635 0.024446
1.000000 0.626981 0.019714
1.000000 0.626487 0.028389
1.000000 0.626783 0.019714
0.000000 0.687519 0.056196
0.108823 0.688177 0.029177
0.416647 0.687256 0.000000
0.644382 0.686069 0.000000
0.843979 0.685012 0.000000
1.000000 0.684042 0.000000
1.000000 0.684660 0.000000
1.000000 0.685717 0.000000
1.000000 0.686861 0.000000
1.000000 0.688001 0.000000
1.000000 0.688615 0.000000
1.000000 0.689052 0.000000
1.000000 0.688790 0.005520
1.000000 0.688834 0.018926
1.000000 0.688746 0.027600
1.000000 0.689140 0.022080
1.000000 0.689795 0.008674
0.000000 0.750039 0.054295
0.096995 0.750705 0.024446
0.420083 0.749765 0.000000
0.649787 0.748588 0.000000
0.852308 0.747527 0.000000
1.000000 0.746542 0.000000
1.000000 0.746384 0.000000
1.000000 0.747251 0.000000
1.000000 0.748274 0.000000
1.000000 0.749491 0.000000
1.000000 0.750549 0.000000
1.000000 0.751096 0.000000
1.000000 0.751487 0.000000
1.000000 0.751331 0.000000
1.000000 0.751253 0.014194
1.000000 0.751057 0.026812
1.000000 0.751370 0.023657
0.000000 0.812543 0.052347
0.082800 0.813213 0.019714
0.423491 0.812225 0.000000
0.655143 0.811130 0.000000
0.861321 0.810032 0.000000
1.000000 0.809146 0.000000
1.000000 0.808152 0.000000
1.000000 0.808827 0.000000
1.000000 0.809855 0.000000
1.000000 0.810953 0.000000
1.000000 0.812154 0.000000
1.000000 0.813107 0.000000
1.000000 0.813635 0.000000
1.000000 0.813952 0.000000
1.000000 0.813811 0.000000
1.000000 0.813776 0.007886
1.000000 0.813495 0.024446
0.000000 0.875089 0.050348
0.068606 0.875760 0.014194
0.426028 0.874736 0.000000
0.659392 0.873679 0.000000
0.869839 0.872555 0.000000
1.000000 0.871655 0.000000
1.000000 0.870657 0.000000
1.000000 0.870496 0.000000
1.000000 0.871333 0.000000
1.000000 0.872459 0.000000
1.000000 0.873583 0.000000
1.000000 0.874768 0.000000
1.000000 0.875664 0.000000
1.000000 0.876112 0.000000
1.000000 0.876463 0.000000
1.000000 0.876304 0.000000
1.000000 0.876272 0.000789
0.000000 0.937548 0.048294
0.052046 0.938249 0.007886
0.428551 0.937227 0.000000
0.663612 0.936232 0.000000
0.876355 0.935118 0.000000
1.000000 0.934209 0.000000
1.000000 0.933269 0.000000
1.000000 0.932327 0.000000
1.000000 0.932975 0.000000
1.000000 0.933974 0.000000
1.000000 0.935060 0.000000
1.000000 0.936232 0.000000
1.000000 0.937402 0.000000
1.000000 0.938220 0.000000
1.000000 0.938629 0.000000
1.000000 0.938979 0.000000
1.000000 0.938833 0.000000
0.000000 1.000000 0.046181
0.035486 1.000000 0.001577
0.431058 0.999732 0.000000
0.668322 0.998738 0.000000
0.882815 0.997662 0.000000
1.000000 0.996693 0.000000
1.000000 0.995830 0.000000
1.000000 0.994804 0.000000
1.000000 0.994696 0.000000
1.000000 0.995533 0.000000
1.000000 0.996612 0.000000
1.000000 0.997716 0.000000
1.000000 0.998899 0.000000
1.000000 1.000000 0.000000
1.000000 1.000000 0.000000
1.000000 1.000000 0.000000
1.000000 1.000000 0.000000
0.009463 0.003154 0.108258
0.184930 0.003943 0.111859
0.373938 0.000789 0.123360
0.562025 0.000000 0.124646
0.748831 0.000789 0.122712
0.936844 0.001577 0.119422
1.000000 0.001577 0.116385
1.000000 0.001577 0.113270
1.000000 0.000789 0.109712
1.000000 0.000000 0.106043
1.000000 0.000000 0.102253
1.000000 0.000000 0.098330
1.000000 0.000000 0.094676
1.000000 0.000000 0.091745
1.000000 0.000000 0.088729
1.000000 0.000000 0.085622
1.000000 0.000000 0.082416
0.016560 0.062806 0.115355
0.196937 0.067305 0.087409
0.362245 0.071060 0.080536
0.558224 0.067852 0.101090
0.749747 0.065646 0.108258
0.939660 0.064521 0.109712
1.000000 0.063382 0.108987
1.000000 0.062227 0.107524
1.000000 0.060464 0.105295
1.000000 0.057439 0.101867
1.000000 0.054934 0.097930
1.000000 0.051686 0.094262
1.000000 0.047596 0.090032
1.000000 0.042516 0.084717
1.000000 0.036274 0.079102
1.000000 0.029966 0.072622
1.000000 0.022080 0.065085
0.122983 0.124326 0.072622
0.181392 0.130280 0.059868
0.276505 0.139170 0.026812
0.520628 0.133608 0.090463
0.744694 0.127180 0.110791
0.943165 0.124326 0.115355
1.000000 0.122387 0.116042
1.000000 0.121078 0.115355
1.000000 0.119422 0.114317
1.000000 0.117744 0.112567
1.000000 0.116042 0.110432
1.000000 0.113969 0.107892
1.000000 0.111859 0.104919
1.000000 0.109350 0.101479
1.000000 0.106415 0.097529
1.000000 0.103403 0.093011
1.000000 0.100700 0.089165
0.061509 0.187552 0.097529
0.205183 0.189848 0.069470
0.320358 0.194352 0.052347
0.475398 0.198744 0.046181
0.674546 0.199924 0.063953
0.900020 0.195560 0.094676
1.000000 0.195359 0.099916
1.000000 0.195158 0.101867
1.000000 0.195158 0.101867
1.000000 0.195158 0.100700
1.000000 0.195359 0.099126
1.000000 0.195359 0.095499
1.000000 0.195359 0.091745
1.000000 0.195158 0.087409
1.000000 0.194957 0.082881
1.000000 0.194554 0.077155
1.000000 0.194149 0.070533
0.023657 0.250068 0.112567
0.211600 0.251132 0.078134
0.330217 0.253995 0.071060
0.539448 0.253995 0.057439
0.688822 0.258148 0.054934
0.862099 0.261502 0.047596
1.000000 0.256378 0.092590
1.000000 0.256526 0.097126
1.000000 0.256822 0.098330
1.000000 0.257265 0.097529
1.000000 0.257707 0.095908
1.000000 0.258588 0.092590
1.000000 0.259466 0.088291
1.000000 0.259758 0.084717
1.000000 0.260196 0.079582
1.000000 0.260632 0.071584
1.000000 0.261068 0.062227
0.007097 0.312516 0.119422
0.196937 0.313454 0.088291
0.345031 0.314738 0.083803
0.566424 0.314155 0.061056
0.730710 0.315900 0.057439
0.892961 0.318668 0.058053
1.000000 0.321180 0.053651
1.000000 0.320611 0.074158
1.000000 0.317633 0.095908
1.000000 0.318209 0.096721
1.000000 0.318668 0.095499
1.000000 0.319355 0.093011
1.000000 0.320155 0.089165
1.000000 0.321066 0.084261
1.000000 0.322088 0.078134
1.000000 0.323106 0.070003
1.000000 0.324007 0.061643
0.000000 0.375018 0.122712
0.179603 0.375865 0.095908
0.365202 0.376053 0.093429
0.584871 0.375489 0.061643
0.752486 0.376429 0.053002
0.920093 0.377926 0.053651
1.000000 0.379973 0.058053
1.000000 0.381638 0.057439
1.000000 0.382192 0.069470
1.000000 0.379416 0.093846
1.000000 0.379602 0.095088
1.000000 0.380252 0.093846
1.000000 0.381084 0.089600
1.000000 0.381823 0.085622
1.000000 0.382560 0.080060
1.000000 0.383662 0.072622
1.000000 0.384668 0.064521
0.000000 0.437529 0.124326
0.175987 0.438230 0.099522
0.353231 0.438619 0.096721
0.603872 0.437139 0.062227
0.770021 0.437841 0.046181
0.937549 0.438929 0.041759
1.000000 0.440247 0.046181
1.000000 0.441636 0.056820
1.000000 0.442943 0.056820
1.000000 0.444246 0.058662
1.000000 0.442867 0.080536
1.000000 0.441328 0.093846
1.000000 0.441944 0.091745
1.000000 0.442636 0.088729
1.000000 0.443710 0.081010
1.000000 0.444399 0.075168
1.000000 0.445239 0.067852
0.000000 0.500010 0.124965
0.172317 0.500537 0.103784
0.341907 0.501195 0.096721
0.622801 0.499020 0.061056
0.787972 0.499548 0.037852
0.953245 0.500471 0.025234
1.000000 0.501524 0.025234
1.000000 0.502573 0.037852
1.000000 0.503686 0.051686
1.000000 0.504534 0.056820
1.000000 0.505446 0.061056
1.000000 0.506225 0.061643
1.000000 0.503359 0.093011
1.000000 0.503816 0.090032
1.000000 0.504404 0.086965
1.000000 0.505185 0.081010
1.000000 0.506420 0.069470
0.000000 0.562474 0.124965
0.168589 0.562984 0.104919
0.332372 0.563665 0.095908
0.620541 0.561735 0.059868
0.807145 0.561393 0.029966
0.968300 0.562246 0.005520
1.000000 0.563098 0.003154
1.000000 0.564118 0.009463
1.000000 0.565022 0.026023
1.000000 0.565812 0.045463
1.000000 0.566488 0.053651
1.000000 0.566882 0.062806
1.000000 0.567724 0.062227
1.000000 0.567163 0.075168
1.000000 0.565586 0.090892
1.000000 0.566375 0.083803
1.000000 0.566938 0.080060
0.000000 0.625050 0.124326
0.164802 0.625496 0.104919
0.324774 0.626140 0.095088
0.614277 0.624554 0.057439
0.823343 0.623559 0.018926
0.989381 0.623908 0.000000
1.000000 0.624603 0.000000
1.000000 0.625546 0.000000
1.000000 0.626536 0.000000
1.000000 0.627475 0.011829
1.000000 0.628018 0.039429
1.000000 0.628511 0.051686
1.000000 0.628609 0.064521
1.000000 0.629495 0.062227
1.000000 0.629987 0.060464
1.000000 0.627623 0.091319
1.000000 0.628215 0.085170
0.000000 0.687519 0.123360
0.160954 0.687958 0.104542
0.315884 0.688615 0.093429
0.609099 0.687212 0.052347
0.821698 0.686289 0.007886
1.000000 0.685585 0.000000
1.000000 0.686025 0.000000
1.000000 0.686948 0.000000
1.000000 0.688001 0.000000
1.000000 0.688965 0.000000
1.000000 0.689970 0.000000
1.000000 0.690319 0.029177
1.000000 0.690581 0.048294
1.000000 0.690756 0.061643
1.000000 0.691279 0.063382
1.000000 0.691801 0.061643
1.000000 0.691627 0.067852
0.000000 0.750039 0.122061
0.155059 0.750470 0.103403
0.307912 0.751135 0.091319
0.604455 0.749883 0.044005
0.820463 0.749020 0.000000
1.000000 0.747684 0.000000
1.000000 0.747684 0.000000
1.000000 0.748352 0.000000
1.000000 0.749373 0.000000
1.000000 0.750509 0.000000
1.000000 0.751487 0.000000
1.000000 0.752307 0.000000
1.000000 0.752736 0.018137
1.000000 0.752775 0.044005
1.000000 0.752970 0.058053
1.000000 0.753048 0.066202
1.000000 0.753710 0.062806
0.000000 0.812543 0.120748
0.149008 0.812931 0.102637
0.299747 0.813565 0.088291
0.599772 0.812578 0.033909
0.822521 0.811589 0.000000
1.000000 0.810245 0.000000
1.000000 0.809359 0.000000
1.000000 0.809926 0.000000
1.000000 0.810847 0.000000
1.000000 0.811907 0.000000
1.000000 0.813001 0.000000
1.000000 0.813952 0.000000
1.000000 0.814656 0.000000
1.000000 0.815148 0.004731
1.000000 0.815008 0.039429
1.000000 0.815289 0.053002
1.000000 0.815148 0.067305
0.000000 0.875089 0.119422
0.144881 0.875441 0.102253
0.291377 0.876112 0.085622
0.595048 0.875153 0.023657
0.825392 0.874096 0.000000
1.000000 0.872780 0.000000
1.000000 0.871623 0.000000
1.000000 0.871558 0.000000
1.000000 0.872298 0.000000
1.000000 0.873326 0.000000
1.000000 0.874448 0.000000
1.000000 0.875537 0.000000
1.000000 0.876527 0.000000
1.000000 0.877038 0.000000
1.000000 0.877549 0.000000
1.000000 0.877325 0.033120
1.000000 0.877612 0.046892
0.000000 0.937548 0.117744
0.138543 0.937928 0.101090
0.281539 0.938570 0.081950
0.589085 0.937782 0.013406
0.829474 0.936612 0.000000
1.000000 0.935265 0.000000
1.000000 0.934179 0.000000
1.000000 0.933327 0.000000
1.000000 0.933886 0.000000
1.000000 0.934767 0.000000
1.000000 0.935851 0.000000
1.000000 0.936963 0.000000
1.000000 0.938074 0.000000
1.000000 0.939037 0.000000
1.000000 0.939503 0.000000
1.000000 0.939969 0.000000
1.000000 0.939766 0.022080
0.000000 1.000000 0.117066
0.127547 1.000000 0.098330
0.271389 1.000000 0.078134
0.583055 1.000000 0.004731
0.833938 0.999060 0.000000
1.000000 0.997770 0.000000
1.000000 0.996720 0.000000
1.000000 0.995668 0.000000
1.000000 0.995560 0.000000
1.000000 0.996315 0.000000
1.000000 0.997366 0.000000
1.000000 0.998415 0.000000
1.000000 0.999597 0.000000
1.000000 1.000000 0.000000
1.000000 1.000000 0.000000
1.000000 1.000000 0.000000
1.000000 1.000000 0.000000
0.018926 0.006309 0.165586
0.193564 0.009463 0.158717
0.371048 0.005520 0.175811
0.561393 0.001577 0.185225
0.750204 0.000000 0.187552
0.937196 0.000789 0.186287
1.000000 0.002366 0.183728
1.000000 0.003154 0.180255
1.000000 0.003154 0.177380
1.000000 0.003154 0.173771
1.000000 0.002366 0.170779
1.000000 0.001577 0.167019
1.000000 0.000000 0.163411
1.000000 0.000000 0.159717
1.000000 0.000000 0.155933
1.000000 0.000000 0.152050
1.000000 0.000000 0.148063
