3dlut_lib/g_origin.cube
TITLE "Generated by 3D LUT Creator Pro (c) Oleg Sharonov"
LUT_3D_SIZE 9
#INPUTGAMMA sRGB
#IMAGEPROFILE sRGB
#OUTPUTGAMMA sRGB
0.000000 0.000000 0.000000
0.373938 0.000000 0.000000
0.747914 0.000789 0.000000
1.000000 0.001577 0.000000
1.000000 0.003154 0.000000
1.000000 0.005520 0.000000
1.000000 0.008674 0.000000
1.000000 0.011829 0.000000
1.000000 0.015771 0.000000
0.000000 0.124965 0.000000
0.372977 0.124965 0.000000
0.745155 0.125919 0.000000
1.000000 0.130280 0.000000
1.000000 0.135683 0.000000
1.000000 0.142009 0.000000
1.000000 0.148869 0.000000
1.000000 0.154650 0.000000
1.000000 0.160463 0.000000
0.000000 0.249916 0.000000
0.403503 0.248539 0.000000
0.746996 0.250220 0.000000
1.000000 0.250220 0.000000
1.000000 0.252493 0.000000
1.000000 0.256378 0.000000
1.000000 0.261936 0.000000
1.000000 0.267643 0.000000
1.000000 0.273762 0.000000
0.002366 0.374924 0.000000
0.438494 0.372937 0.000000
0.766908 0.373980 0.000000
1.000000 0.375395 0.000000
1.000000 0.375018 0.000000
1.000000 0.376053 0.000000
1.000000 0.379138 0.000000
1.000000 0.383111 0.000000
1.000000 0.388663 0.000000
0.004731 0.499944 0.000000
0.457721 0.498093 0.000000
0.813835 0.497098 0.000000
1.000000 0.499350 0.000000
1.000000 0.500537 0.000000
1.000000 0.500010 0.000000
1.000000 0.500998 0.000000
1.000000 0.502639 0.000000
1.000000 0.505901 0.000000
0.007097 0.625000 0.000000
0.472373 0.623310 0.000000
0.850333 0.621514 0.000000
1.000000 0.622413 0.000000
1.000000 0.624653 0.000000
1.000000 0.625645 0.000000
1.000000 0.625149 0.000000
1.000000 0.625298 0.000000
1.000000 0.626437 0.000000
0.009463 0.749961 0.000000
0.484356 0.748470 0.000000
0.868683 0.746700 0.000000
1.000000 0.745674 0.000000
1.000000 0.747723 0.000000
1.000000 0.749961 0.000000
1.000000 0.750744 0.000000
1.000000 0.750314 0.000000
1.000000 0.750039 0.000000
0.011829 0.874961 0.000000
0.497476 0.873583 0.000000
0.888844 0.871784 0.000000
1.000000 0.870044 0.000000
1.000000 0.870850 0.000000
1.000000 0.873133 0.000000
1.000000 0.875185 0.000000
1.000000 0.875824 0.000000
1.000000 0.875505 0.000000
0.016560 0.999946 0.000000
0.511640 0.998657 0.000000
0.905913 0.996935 0.000000
1.000000 0.995236 0.000000
1.000000 0.994209 0.000000
1.000000 0.996207 0.000000
1.000000 0.998523 0.000000
1.000000 1.000000 0.000000
1.000000 1.000000 0.000000
0.009463 0.003154 0.108258
0.373938 0.000789 0.123360
0.748831 0.000789 0.122712
1.000000 0.001577 0.116385
1.000000 0.000789 0.109712
1.000000 0.000000 0.102253
1.000000 0.000000 0.094676
1.000000 0.000000 0.088729
1.000000 0.000000 0.082416
0.122983 0.124326 0.072622
0.276505 0.139170 0.026812
0.744694 0.127180 0.110791
1.000000 0.122387 0.116042
1.000000 0.119422 0.114317
1.000000 0.116042 0.110432
1.000000 0.111859 0.104919
1.000000 0.106415 0.097529
1.000000 0.100700 0.089165
0.023657 0.250068 0.112567
0.330217 0.253995 0.071060
0.688822 0.258148 0.054934
1.000000 0.256378 0.092590
1.000000 0.256822 0.098330
1.000000 0.257707 0.095908
1.000000 0.259466 0.088291
1.000000 0.260196 0.079582
1.000000 0.261068 0.062227
0.000000 0.375018 0.122712
0.365202 0.376053 0.093429
0.752486 0.376429 0.053002
1.000000 0.379973 0.058053
1.000000 0.382192 0.069470
1.000000 0.379602 0.095088
1.000000 0.381084 0.089600
1.000000 0.382560 0.080060
1.000000 0.384668 0.064521
0.000000 0.500010 0.124965
0.341907 0.501195 0.096721
0.787972 0.499548 0.037852
1.000000 0.501524 0.025234
1.000000 0.503686 0.051686
1.000000 0.505446 0.061056
1.000000 0.503359 0.093011
1.000000 0.504404 0.086965
1.000000 0.506420 0.069470
0.000000 0.625050 0.124326
0.324774 0.626140 0.095088
0.823343 0.623559 0.018926
1.000000 0.624603 0.000000
1.000000 0.626536 0.000000
1.000000 0.628018 0.039429
1.000000 0.628609 0.064521
1.000000 0.629987 0.060464
1.000000 0.628215 0.085170
0.000000 0.750039 0.122061
0.307912 0.751135 0.091319
0.820463 0.749020 0.000000
1.000000 0.747684 0.000000
1.000000 0.749373 0.000000
1.000000 0.751487 0.000000
1.000000 0.752736 0.018137
1.000000 0.752970 0.058053
1.000000 0.753710 0.062806
0.000000 0.875089 0.119422
0.291377 0.876112 0.085622
0.825392 0.874096 0.000000
1.000000 0.871623 0.000000
1.000000 0.872298 0.000000
1.000000 0.874448 0.000000
1.000000 0.876527 0.000000
1.000000 0.877549 0.000000
1.000000 0.877612 0.046892
0.000000 1.000000 0.117066
0.271389 1.000000 0.078134
0.833938 0.999060 0.000000
1.000000 0.996720 0.000000
1.000000 0.995560 0.000000
1.000000 0.997366 0.000000
1.000000 0.999597 0.000000
1.000000 1.000000 0.000000
1.000000 1.000000 0.000000
0.033120 0.011040 0.221029
0.372014 0.014194 0.222426
0.747455 0.002366 0.246844
1.000000 0.000789 0.249305
1.000000 0.003943 0.244667
1.000000 0.006309 0.238483
1.000000 0.005520 0.231447
1.000000 0.002366 0.224677
1.000000 0.000000 0.217133
0.040217 0.125602 0.238000
0.397221 0.132407 0.196162
0.728350 0.139742 0.190469
1.000000 0.133308 0.219268
1.000000 0.129973 0.226732
1.000000 0.127806 0.226561
1.000000 0.125602 0.222426
1.000000 0.122387 0.218381
1.000000 0.117066 0.210770
0.323675 0.248692 0.161698
0.420937 0.255933 0.142571
0.582448 0.274311 0.080536
1.000000 0.262369 0.201679
1.000000 0.251738 0.229775
1.000000 0.246998 0.234585
1.000000 0.243727 0.233929
1.000000 0.240724 0.231945
1.000000 0.237515 0.228766
0.172317 0.375207 0.210214
0.453784 0.377085 0.157963
0.660978 0.385307 0.134204
0.986734 0.392964 0.121078
1.000000 0.394651 0.155164
1.000000 0.388121 0.201679
1.000000 0.387760 0.208725
1.000000 0.387941 0.209285
1.000000 0.388573 0.206847
0.059143 0.500208 0.233435
0.423491 0.501392 0.183942
0.682745 0.505576 0.167731
1.000000 0.505511 0.137147
1.000000 0.512282 0.134501
1.000000 0.517934 0.128429
1.000000 0.509716 0.198744
1.000000 0.510488 0.203418
1.000000 0.511514 0.202647
0.014194 0.625100 0.243884
0.385286 0.626239 0.203225
0.718339 0.627673 0.190262
1.000000 0.626783 0.138882
1.000000 0.629692 0.132105
1.000000 0.634046 0.138306
1.000000 0.638218 0.133608
1.000000 0.635894 0.178270
1.000000 0.633169 0.200901
0.000000 0.750039 0.248385
0.362245 0.751018 0.212975
0.719779 0.751839 0.201679
1.000000 0.749883 0.136563
1.000000 0.751761 0.114664
1.000000 0.754333 0.117744
1.000000 0.757165 0.135977
1.000000 0.760252 0.135977
1.000000 0.761367 0.152835
0.000000 0.874993 0.249916
0.356260 0.875792 0.219797
0.695836 0.876974 0.202067
1.000000 0.873550 0.133308
1.000000 0.874993 0.088729
1.000000 0.877006 0.076662
1.000000 0.879141 0.097126
1.000000 0.881206 0.126551
1.000000 0.883011 0.137728
0.000000 1.000000 0.249763
0.350177 1.000000 0.222774
0.676606 1.000000 0.200315
1.000000 0.998415 0.130586
1.000000 0.998550 0.064521
1.000000 1.000000 0.003943
1.000000 1.000000 0.007097
1.000000 1.000000 0.065646
1.000000 1.000000 0.161205
0.073337 0.024446 0.334489
0.400823 0.039429 0.313922
0.740995 0.024446 0.349970
1.000000 0.005520 0.370747
1.000000 0.000000 0.375018
1.000000 0.004731 0.371606
1.000000 0.010251 0.366027
1.000000 0.013406 0.360145
1.000000 0.014194 0.352624
0.011829 0.125602 0.371415
0.426028 0.141164 0.299636
0.762435 0.135389 0.332969
1.000000 0.141446 0.338893
1.000000 0.137437 0.350892
1.000000 0.134204 0.355856
1.000000 0.133009 0.354749
1.000000 0.132105 0.351912
1.000000 0.130891 0.347189
0.183167 0.250677 0.346775
0.503192 0.255190 0.286847
0.690834 0.272937 0.228597
1.000000 0.266513 0.266513
1.000000 0.262657 0.302826
1.000000 0.258001 0.325241
1.000000 0.254892 0.333838
1.000000 0.252342 0.335569
1.000000 0.250068 0.334380
0.524042 0.373317 0.250525
0.603288 0.376710 0.245602
0.685791 0.390642 0.212792
0.888844 0.409111 0.136270
1.000000 0.398524 0.277574
1.000000 0.384668 0.331659
1.000000 0.376429 0.348119
1.000000 0.371606 0.353131
1.000000 0.368252 0.353131
0.384353 0.499812 0.300253
0.616563 0.500603 0.247770
0.722649 0.508620 0.240883
0.988390 0.517682 0.191909
1.000000 0.528335 0.181348
1.000000 0.532496 0.207412
1.000000 0.520450 0.296656
1.000000 0.519257 0.312164
1.000000 0.518691 0.318438
0.220947 0.625348 0.336753
0.530799 0.625893 0.292500
0.763780 0.629692 0.255636
1.000000 0.636330 0.234257
1.000000 0.636815 0.208538
1.000000 0.646552 0.203418
1.000000 0.654189 0.182434
1.000000 0.645172 0.278249
1.000000 0.641251 0.306938
0.094629 0.750314 0.355454
0.456151 0.750979 0.321407
0.766462 0.753204 0.271001
1.000000 0.757281 0.263950
1.000000 0.755343 0.222948
1.000000 0.759674 0.214069
1.000000 0.766493 0.214069
1.000000 0.772253 0.199728
1.000000 0.771310 0.248231
0.040217 0.875185 0.364860
0.422641 0.875760 0.335353
0.742384 0.877772 0.285544
1.000000 0.879332 0.286717
1.000000 0.877166 0.229943
1.000000 0.879491 0.215156
1.000000 0.883390 0.211508
1.000000 0.888210 0.218203
1.000000 0.892776 0.207976
0.004731 1.000000 0.370843
0.377757 1.000000 0.346671
0.717377 1.000000 0.296906
1.000000 1.000000 0.302704
1.000000 1.000000 0.230613
1.000000 1.000000 0.207224
1.000000 1.000000 0.198349
1.000000 1.000000 0.212243
1.000000 1.000000 0.473406
0.136389 0.044738 0.447898
0.453784 0.072104 0.404676
0.750204 0.059267 0.443634
1.000000 0.037063 0.475870
1.000000 0.010251 0.494699
1.000000 0.000000 0.499878
1.000000 0.003943 0.498159
1.000000 0.013406 0.493092
1.000000 0.019714 0.487482
0.000000 0.124965 0.499746
0.472373 0.155164 0.394740
0.774884 0.146981 0.435654
1.000000 0.142571 0.461274
1.000000 0.143686 0.473123
1.000000 0.139456 0.481443
1.000000 0.136563 0.484954
1.000000 0.136270 0.483513
1.000000 0.136855 0.479154
0.125278 0.251284 0.483168
0.508840 0.256822 0.432268
0.793994 0.264665 0.404934
1.000000 0.256081 0.433374
1.000000 0.275540 0.409872
1.000000 0.270305 0.435262
1.000000 0.264236 0.453829
1.000000 0.260922 0.460836
1.000000 0.258881 0.462295
0.350177 0.375301 0.454573
0.635075 0.377459 0.398873
0.787107 0.391716 0.329684
0.999233 0.408178 0.281990
1.000000 0.399920 0.349046
1.000000 0.388573 0.394031
1.000000 0.385034 0.419863
1.000000 0.381638 0.435418
1.000000 0.378858 0.442175
0.724079 0.497762 0.339425
0.783638 0.499680 0.341333
0.888468 0.508168 0.310749
0.998906 0.524256 0.269468
1.000000 0.543969 0.191909
1.000000 0.539441 0.322088
1.000000 0.519822 0.422315
1.000000 0.508104 0.454350
1.000000 0.501129 0.466275
0.591478 0.624504 0.388573
0.775325 0.624951 0.344381
0.917928 0.629397 0.323669
0.995634 0.641683 0.320155
1.000000 0.650903 0.246534
1.000000 0.663920 0.238644
1.000000 0.669399 0.261936
1.000000 0.653533 0.385672
1.000000 0.651891 0.408348
0.425184 0.750274 0.433137
0.658333 0.750627 0.396681
0.937901 0.752307 0.338359
1.000000 0.761483 0.339956
1.000000 0.767748 0.296406
1.000000 0.769190 0.273762
1.000000 0.781533 0.268628
1.000000 0.790048 0.238644
1.000000 0.782349 0.345944
0.279032 0.875473 0.459812
0.556951 0.875856 0.430523
0.877880 0.877325 0.373127
1.000000 0.882631 0.355957
1.000000 0.887739 0.331769
1.000000 0.885473 0.295153
1.000000 0.891310 0.286847
1.000000 0.900464 0.283971
1.000000 0.907242 0.258148
0.144881 1.000000 0.476851
0.473131 1.000000 0.453382
0.834342 1.000000 0.398961
1.000000 1.000000 0.387941
1.000000 1.000000 0.388663
1.000000 1.000000 0.309326
1.000000 1.000000 0.340699
1.000000 1.000000 0.429328
1.000000 1.000000 0.630723
0.203555 0.067305 0.561165
0.506730 0.099126 0.507651
0.778399 0.093011 0.534743
1.000000 0.078134 0.571580
1.000000 0.050348 0.601041
1.000000 0.017349 0.618356
1.000000 0.001577 0.624355
1.000000 0.002366 0.624305
1.000000 0.011829 0.620564
0.011829 0.125919 0.622663
0.520628 0.171011 0.498093
0.803353 0.162923 0.531521
1.000000 0.157458 0.563381
1.000000 0.149404 0.589204
1.000000 0.146165 0.602240
1.000000 0.139456 0.610698
1.000000 0.138595 0.611974
1.000000 0.138882 0.611311
0.063875 0.251284 0.616642
0.503192 0.260632 0.562757
0.822932 0.273213 0.508104
1.000000 0.265946 0.545153
1.000000 0.263089 0.564909
1.000000 0.277304 0.558595
1.000000 0.272937 0.573690
1.000000 0.268487 0.584686
1.000000 0.265093 0.590541
0.292586 0.376616 0.592511
0.580014 0.379138 0.558824
0.908478 0.386581 0.487958
1.000000 0.391805 0.494432
1.000000 0.378579 0.515975
1.000000 0.407753 0.467999
1.000000 0.401485 0.510295
1.000000 0.394385 0.541533
1.000000 0.389744 0.558136
0.554396 0.499746 0.553291
0.761986 0.501524 0.508168
0.949090 0.508878 0.456574
1.000000 0.528396 0.365152
1.000000 0.544147 0.331222
1.000000 0.539381 0.406304
1.000000 0.511322 0.506485
1.000000 0.510166 0.519634
1.000000 0.507586 0.536013
0.924762 0.622313 0.428209
0.970332 0.623659 0.430761
1.000000 0.628757 0.416814
1.000000 0.642594 0.380529
1.000000 0.658010 0.321180
1.000000 0.678894 0.247616
1.000000 0.680052 0.371511
1.000000 0.656243 0.502704
1.000000 0.642163 0.551489
0.796986 0.749138 0.476081
0.943865 0.749412 0.439240
1.000000 0.752346 0.408348
1.000000 0.760906 0.401571
1.000000 0.774774 0.390642
1.000000 0.784385 0.302093
1.000000 0.799239 0.296156
1.000000 0.806693 0.318438
1.000000 0.793807 0.442252
0.630643 0.875121 0.526115
0.809242 0.875345 0.495834
1.000000 0.876400 0.435183
1.000000 0.882093 0.416565
1.000000 0.893960 0.419863
1.000000 0.899693 0.355454
1.000000 0.902587 0.335029
1.000000 0.916819 0.330673
1.000000 0.925910 0.303556
0.478403 1.000000 0.559339
0.686297 1.000000 0.534743
0.996290 1.000000 0.478876
1.000000 1.000000 0.435105
1.000000 1.000000 0.510680
1.000000 1.000000 0.506290
1.000000 1.000000 0.497695
1.000000 1.000000 0.607003
1.000000 1.000000 0.779487
0.271389 0.090032 0.674595
0.558224 0.123036 0.618959
0.822932 0.124965 0.625942
1.000000 0.112919 0.664791
1.000000 0.093429 0.699492
1.000000 0.063382 0.725789
1.000000 0.025234 0.742190
1.000000 0.004731 0.748706
1.000000 0.000789 0.749844
0.059143 0.129666 0.740957
0.560761 0.184799 0.616440
0.844777 0.182434 0.624554
1.000000 0.176036 0.659911
1.000000 0.168203 0.690843
1.000000 0.156443 0.715596
1.000000 0.149404 0.729416
1.000000 0.141164 0.737564
1.000000 0.139170 0.739522
0.021292 0.250525 0.747330
0.508840 0.263663 0.692062
0.862099 0.284890 0.605197
1.000000 0.275948 0.648022
1.000000 0.273075 0.674101
1.000000 0.269608 0.694406
1.000000 0.278787 0.696696
1.000000 0.274858 0.707963
1.000000 0.271694 0.714554
0.228501 0.377272 0.727830
0.565171 0.381177 0.692975
0.938253 0.388212 0.627228
1.000000 0.396857 0.612790
1.000000 0.387760 0.647785
1.000000 0.382468 0.663507
1.000000 0.411306 0.628757
1.000000 0.405705 0.654843
1.000000 0.400443 0.673605
0.460846 0.501392 0.701205
0.679172 0.502770 0.676660
1.000000 0.505771 0.605507
1.000000 0.529686 0.534864
1.000000 0.539381 0.489654
1.000000 0.514133 0.557332
1.000000 0.534622 0.541056
1.000000 0.530543 0.585065
1.000000 0.523759 0.624901
0.742847 0.624504 0.650997
0.918290 0.625546 0.612790
1.000000 0.629643 0.558021
1.000000 0.642354 0.499878
1.000000 0.665935 0.433374
1.000000 0.679474 0.383019
1.000000 0.680408 0.451364
1.000000 0.644123 0.600153
1.000000 0.635263 0.635214
1.000000 0.746818 0.517051
1.000000 0.747881 0.519068
1.000000 0.751448 0.513113
1.000000 0.760483 0.479293
1.000000 0.777135 0.453382
1.000000 0.791912 0.369981
1.000000 0.813811 0.303191
1.000000 0.818512 0.423778
1.000000 0.792387 0.578044
1.000000 0.873711 0.561507
1.000000 0.873903 0.530788
1.000000 0.875664 0.497563
1.000000 0.881808 0.491141
1.000000 0.894053 0.483788
1.000000 0.907730 0.454276
1.000000 0.918232 0.356959
1.000000 0.934561 0.352827
1.000000 0.943079 0.379602
0.842782 0.999839 0.615985
0.974716 1.000000 0.592032
1.000000 1.000000 0.536617
1.000000 1.000000 0.501392
1.000000 1.000000 0.560253
1.000000 1.000000 0.619862
1.000000 1.000000 0.626635
1.000000 1.000000 0.702530
1.000000 1.000000 0.873967
0.338757 0.112214 0.787958
0.613130 0.147253 0.729863
0.877880 0.157458 0.716470
1.000000 0.146710 0.755654
1.000000 0.131499 0.793334
1.000000 0.107524 0.826222
1.000000 0.076662 0.850203
1.000000 0.036274 0.866033
1.000000 0.009463 0.872812
0.138543 0.137437 0.856193
0.603288 0.199138 0.734794
0.897798 0.204950 0.716844
1.000000 0.197557 0.753788
1.000000 0.189225 0.788619
1.000000 0.177603 0.818477
1.000000 0.164381 0.841164
1.000000 0.153095 0.855534
1.000000 0.143408 0.863497
0.002366 0.250068 0.874833
0.560128 0.267925 0.810280
0.910304 0.299760 0.699406
1.000000 0.288789 0.746069
1.000000 0.285152 0.776275
1.000000 0.280927 0.802296
1.000000 0.275812 0.822796
1.000000 0.281327 0.828943
1.000000 0.275948 0.839611
0.162886 0.376897 0.861573
0.556314 0.382376 0.825704
0.924404 0.394740 0.755227
1.000000 0.405363 0.716012
1.000000 0.396417 0.757435
1.000000 0.393320 0.779226
1.000000 0.390283 0.795369
1.000000 0.412984 0.777584
1.000000 0.408432 0.795006
0.400823 0.502377 0.837614
0.653541 0.504338 0.813107
1.000000 0.508749 0.759058
1.000000 0.519383 0.686465
1.000000 0.522638 0.710365
1.000000 0.509330 0.743697
1.000000 0.511962 0.737524
1.000000 0.544562 0.688089
1.000000 0.537761 0.727544
0.625053 0.626091 0.809536
0.810498 0.626833 0.788215
1.000000 0.629102 0.723248
1.000000 0.643503 0.662633
1.000000 0.666164 0.550089
1.000000 0.677465 0.539202
1.000000 0.639472 0.638797
1.000000 0.657592 0.647027
1.000000 0.656383 0.670714
0.935079 0.749373 0.745674
1.000000 0.749295 0.711247
1.000000 0.751643 0.657174
1.000000 0.760675 0.622313
1.000000 0.777584 0.542961
1.000000 0.801650 0.496100
1.000000 0.814902 0.433295
1.000000 0.821162 0.502770
1.000000 0.782757 0.675404
1.000000 0.871333 0.605868
1.000000 0.872202 0.607570
1.000000 0.874672 0.608598
1.000000 0.880984 0.588079
1.000000 0.893960 0.545626
1.000000 0.911259 0.513432
1.000000 0.926058 0.419370
1.000000 0.948711 0.358855
1.000000 0.956067 0.474675
1.000000 0.998120 0.644791
1.000000 0.998281 0.619009
1.000000 0.999544 0.584308
1.000000 1.000000 0.581758
1.000000 1.000000 0.609623
1.000000 1.000000 0.680675
1.000000 1.000000 0.725380
1.000000 1.000000 0.786414
1.000000 1.000000 0.934385
0.407050 0.134798 0.901265
0.671961 0.171474 0.840354
0.937196 0.187762 0.811837
1.000000 0.178491 0.847070
1.000000 0.166065 0.885663
1.000000 0.149404 0.920841
1.000000 0.121734 0.951983
1.000000 0.090032 0.974317
1.000000 0.048294 0.989762
0.201916 0.145343 0.973789
0.647631 0.214250 0.853254
0.958753 0.229943 0.808543
1.000000 0.221379 0.846235
1.000000 0.212975 0.883232
1.000000 0.203418 0.915433
1.000000 0.187762 0.945019
1.000000 0.171706 0.966724
1.000000 0.157458 0.980924
0.009463 0.250220 0.999141
0.594454 0.273350 0.930441
0.966604 0.317287 0.792350
1.000000 0.304042 0.841636
1.000000 0.299266 0.875217
1.000000 0.294524 0.904704
1.000000 0.288660 0.930175
1.000000 0.281725 0.950291
1.000000 0.284103 0.958568
0.085166 0.376335 0.993127
0.540107 0.384028 0.956095
0.932955 0.399920 0.881618
1.000000 0.416234 0.813952
1.000000 0.406133 0.860199
1.000000 0.402869 0.886890
1.000000 0.400182 0.908431
1.000000 0.396769 0.925672
1.000000 0.415071 0.917030
0.332372 0.502901 0.972398
0.623365 0.505836 0.946867
0.984079 0.512857 0.891653
1.000000 0.520073 0.823281
1.000000 0.529195 0.820396
1.000000 0.519257 0.860330
1.000000 0.514323 0.878950
1.000000 0.511578 0.889965
1.000000 0.547158 0.847137
0.571406 0.627278 0.946925
0.763332 0.628511 0.928282
1.000000 0.631262 0.881618
1.000000 0.635360 0.804910
1.000000 0.661804 0.734109
1.000000 0.652079 0.788105
1.000000 0.627179 0.833942
1.000000 0.647359 0.788142
1.000000 0.675404 0.746621
0.789698 0.750783 0.917421
0.958753 0.751096 0.896321
1.000000 0.752931 0.840016
1.000000 0.763170 0.771574
1.000000 0.779003 0.702444
1.000000 0.803944 0.583983
1.000000 0.812366 0.593148
1.000000 0.773157 0.718048
1.000000 0.793370 0.724971
1.000000 0.873197 0.834964
1.000000 0.873165 0.804123
1.000000 0.874640 0.750000
1.000000 0.881396 0.729254
1.000000 0.893773 0.671303
1.000000 0.914347 0.601875
1.000000 0.936554 0.550732
1.000000 0.950550 0.481651
1.000000 0.960127 0.550498
1.000000 0.995830 0.694709
1.000000 0.996558 0.696136
1.000000 0.998442 0.699621
1.000000 1.000000 0.684527
1.000000 1.000000 0.678939
1.000000 1.000000 0.730715
1.000000 1.000000 0.781087
1.000000 1.000000 0.848005
1.000000 1.000000 0.978388
