3dlut_lib/g_origin.cube
TITLE "Generated by 3D LUT Creator Pro (c) Oleg Sharonov"
LUT_3D_SIZE 5
#INPUTGAMMA sRGB
#IMAGEPROFILE sRGB
#OUTPUTGAMMA sRGB
0.000000 0.000000 0.000000
0.747914 0.000789 0.000000
1.000000 0.003154 0.000000
1.000000 0.008674 0.000000
1.000000 0.015771 0.000000
0.000000 0.249916 0.000000
0.746996 0.250220 0.000000
1.000000 0.252493 0.000000
1.000000 0.261936 0.000000
1.000000 0.273762 0.000000
0.004731 0.499944 0.000000
0.813835 0.497098 0.000000
1.000000 0.500537 0.000000
1.000000 0.500998 0.000000
1.000000 0.505901 0.000000
0.009463 0.749961 0.000000
0.868683 0.746700 0.000000
1.000000 0.747723 0.000000
1.000000 0.750744 0.000000
1.000000 0.750039 0.000000
0.016560 0.999946 0.000000
0.905913 0.996935 0.000000
1.000000 0.994209 0.000000
1.000000 0.998523 0.000000
1.000000 1.000000 0.000000
0.033120 0.011040 0.221029
0.747455 0.002366 0.246844
1.000000 0.003943 0.244667
1.000000 0.005520 0.231447
1.000000 0.000000 0.217133
0.323675 0.248692 0.161698
0.582448 0.274311 0.080536
1.000000 0.251738 0.229775
1.000000 0.243727 0.233929
1.000000 0.237515 0.228766
0.059143 0.500208 0.233435
0.682745 0.505576 0.167731
1.000000 0.512282 0.134501
1.000000 0.509716 0.198744
1.000000 0.511514 0.202647
0.000000 0.750039 0.248385
0.719779 0.751839 0.201679
1.000000 0.751761 0.114664
1.000000 0.757165 0.135977
1.000000 0.761367 0.152835
0.000000 1.000000 0.249763
0.676606 1.000000 0.200315
1.000000 0.998550 0.064521
1.000000 1.000000 0.007097
1.000000 1.000000 0.161205
0.136389 0.044738 0.447898
0.750204 0.059267 0.443634
1.000000 0.010251 0.494699
1.000000 0.003943 0.498159
1.000000 0.019714 0.487482
0.125278 0.251284 0.483168
0.793994 0.264665 0.404934
1.000000 0.275540 0.409872
1.000000 0.264236 0.453829
1.000000 0.258881 0.462295
0.724079 0.497762 0.339425
0.888468 0.508168 0.310749
1.000000 0.543969 0.191909
1.000000 0.519822 0.422315
1.000000 0.501129 0.466275
0.425184 0.750274 0.433137
0.937901 0.752307 0.338359
1.000000 0.767748 0.296406
1.000000 0.781533 0.268628
1.000000 0.782349 0.345944
0.144881 1.000000 0.476851
0.834342 1.000000 0.398961
1.000000 1.000000 0.388663
1.000000 1.000000 0.340699
1.000000 1.000000 0.630723
0.271389 0.090032 0.674595
0.822932 0.124965 0.625942
1.000000 0.093429 0.699492
1.000000 0.025234 0.742190
1.000000 0.000789 0.749844
0.021292 0.250525 0.747330
0.862099 0.284890 0.605197
1.000000 0.273075 0.674101
1.000000 0.278787 0.696696
1.000000 0.271694 0.714554
0.460846 0.501392 0.701205
1.000000 0.505771 0.605507
1.000000 0.539381 0.489654
1.000000 0.534622 0.541056
1.000000 0.523759 0.624901
1.000000 0.746818 0.517051
1.000000 0.751448 0.513113
1.000000 0.777135 0.453382
1.000000 0.813811 0.303191
1.000000 0.792387 0.578044
0.842782 0.999839 0.615985
1.000000 1.000000 0.536617
1.000000 1.000000 0.560253
1.000000 1.000000 0.626635
1.000000 1.000000 0.873967
0.407050 0.134798 0.901265
0.937196 0.187762 0.811837
1.000000 0.166065 0.885663
1.000000 0.121734 0.951983
1.000000 0.048294 0.989762
0.009463 0.250220 0.999141
0.966604 0.317287 0.792350
1.000000 0.299266 0.875217
1.000000 0.288660 0.930175
1.000000 0.284103 0.958568
0.332372 0.502901 0.972398
0.984079 0.512857 0.891653
1.000000 0.529195 0.820396
1.000000 0.514323 0.878950
1.000000 0.547158 0.847137
0.789698 0.750783 0.917421
1.000000 0.752931 0.840016
1.000000 0.779003 0.702444
1.000000 0.812366 0.593148
1.000000 0.793370 0.724971
1.000000 0.995830 0.694709
1.000000 0.998442 0.699621
1.000000 1.000000 0.678939
1.000000 1.000000 0.781087
1.000000 1.000000 0.978388
