3dlut/3dlut_lib/3.cube
TITLE "Generated by 3D LUT Creator Pro (c) Oleg Sharonov"
LUT_3D_SIZE 33
#IMAGEPROFILE 
#OUTPUTGAMMA 
0.000000 0.000000 0.000000
0.073337 0.001577 0.000000
0.159006 0.003943 0.000000
0.245849 0.006309 0.000000
0.330217 0.010251 0.000000
0.414919 0.014983 0.000000
0.501769 0.021292 0.000000
0.589085 0.028389 0.000789
0.674546 0.036274 0.000789
0.760637 0.045463 0.000789
0.846369 0.054934 0.000789
0.932601 0.064521 0.001577
1.000000 0.073649 0.001577
1.000000 0.082881 0.001577
1.000000 0.092590 0.002366
1.000000 0.101867 0.002366
1.000000 0.111148 0.003154
1.000000 0.120418 0.003154
1.000000 0.129666 0.003943
1.000000 0.139170 0.003943
1.000000 0.148601 0.004731
1.000000 0.157710 0.005520
1.000000 0.167256 0.005520
1.000000 0.176485 0.006309
1.000000 0.185863 0.007097
1.000000 0.195158 0.007886
1.000000 0.204568 0.008674
1.000000 0.213887 0.009463
1.000000 0.223295 0.010251
1.000000 0.232609 0.011040
1.000000 0.241994 0.011829
1.000000 0.251284 0.012617
1.000000 0.260632 0.013406
0.000000 0.030754 0.000000
0.094629 0.031543 0.000000
0.183167 0.031543 0.000000
0.266187 0.033909 0.000000
0.348127 0.037063 0.000000
0.433551 0.041759 0.000000
0.517191 0.047596 0.000000
0.601533 0.053002 0.000000
0.686803 0.059267 0.000000
0.770465 0.066202 0.000000
0.857024 0.073649 0.000000
0.942115 0.081010 0.000789
1.000000 0.088729 0.000789
1.000000 0.097126 0.000789
1.000000 0.105295 0.001577
1.000000 0.113620 0.001577
1.000000 0.122061 0.002366
1.000000 0.130586 0.002366
1.000000 0.139170 0.003154
1.000000 0.148063 0.003154
1.000000 0.156697 0.003943
1.000000 0.165586 0.004731
1.000000 0.174681 0.004731
1.000000 0.183513 0.005520
1.000000 0.192523 0.006309
1.000000 0.201485 0.007097
1.000000 0.210585 0.007886
1.000000 0.219621 0.008674
1.000000 0.228766 0.009463
1.000000 0.237839 0.010251
1.000000 0.246998 0.011040
1.000000 0.256081 0.011829
1.000000 0.265235 0.012617
0.002366 0.062227 0.000000
0.092263 0.062806 0.000000
0.184930 0.062227 0.000000
0.279032 0.062806 0.000000
0.362245 0.064521 0.000000
0.445804 0.067305 0.000000
0.528781 0.071060 0.000000
0.611406 0.075168 0.000000
0.696334 0.080060 0.000000
0.779275 0.085622 0.000000
0.864817 0.091319 0.000000
0.949784 0.097930 0.000000
1.000000 0.104542 0.000000
1.000000 0.111148 0.000000
1.000000 0.118418 0.000000
1.000000 0.125919 0.000789
1.000000 0.133608 0.000789
1.000000 0.141446 0.001577
1.000000 0.149404 0.001577
1.000000 0.157458 0.002366
1.000000 0.165825 0.003154
1.000000 0.174226 0.003154
1.000000 0.182650 0.003943
1.000000 0.191088 0.004731
1.000000 0.199728 0.005520
1.000000 0.208351 0.005520
1.000000 0.217133 0.006309
1.000000 0.225878 0.007097
1.000000 0.234749 0.007886
1.000000 0.243570 0.008674
1.000000 0.252493 0.009463
1.000000 0.261357 0.011040
1.000000 0.270305 0.011829
0.002366 0.093429 0.000000
0.096995 0.093846 0.000000
0.184930 0.093846 0.000000
0.279032 0.093846 0.000000
0.372977 0.093846 0.000000
0.459286 0.095499 0.000000
0.542735 0.097529 0.000000
0.624491 0.100700 0.000000
0.708167 0.104542 0.000000
0.790129 0.108623 0.000000
0.874827 0.113270 0.000000
0.958753 0.118418 0.000000
1.000000 0.124005 0.000000
1.000000 0.129666 0.000000
1.000000 0.135683 0.000000
1.000000 0.142290 0.000000
1.000000 0.149137 0.000000
1.000000 0.155933 0.000000
1.000000 0.163167 0.000789
1.000000 0.170547 0.000789
1.000000 0.178048 0.001577
1.000000 0.185863 0.001577
1.000000 0.193744 0.002366
1.000000 0.201679 0.003154
1.000000 0.209657 0.003943
1.000000 0.218025 0.004731
1.000000 0.226220 0.005520
1.000000 0.234585 0.005520
1.000000 0.243098 0.006309
1.000000 0.251587 0.007886
1.000000 0.260196 0.008674
1.000000 0.268768 0.009463
1.000000 0.277439 0.010251
0.004731 0.124646 0.000000
0.099360 0.124965 0.000000
0.188419 0.124965 0.000000
0.277771 0.125284 0.000000
0.372977 0.125284 0.000000
0.468563 0.125284 0.000000
0.554396 0.125919 0.000000
0.638926 0.128118 0.000000
0.720737 0.130586 0.000000
0.803775 0.133906 0.000000
0.886212 0.137437 0.000000
0.969317 0.141728 0.000000
1.000000 0.146437 0.000000
1.000000 0.150998 0.000000
1.000000 0.156443 0.000000
1.000000 0.161944 0.000000
1.000000 0.167731 0.000000
1.000000 0.173771 0.000000
1.000000 0.180255 0.000000
1.000000 0.186920 0.000000
1.000000 0.193744 0.000000
1.000000 0.200706 0.000000
1.000000 0.207788 0.000789
1.000000 0.215156 0.000789
1.000000 0.222600 0.001577
1.000000 0.230278 0.002366
1.000000 0.238000 0.003154
1.000000 0.245913 0.003943
1.000000 0.253995 0.004731
1.000000 0.262081 0.005520
1.000000 0.270166 0.006309
1.000000 0.278518 0.007097
1.000000 0.286717 0.008674
0.007097 0.155933 0.000000
0.104092 0.155933 0.000000
0.193564 0.155933 0.000000
0.281539 0.156443 0.000000
0.371048 0.156697 0.000000
0.466262 0.156443 0.000000
0.562025 0.156188 0.000000
0.651399 0.157205 0.000000
0.734937 0.158717 0.000000
0.817985 0.160958 0.000000
0.900389 0.163897 0.000000
0.982748 0.167256 0.000000
1.000000 0.171011 0.000000
1.000000 0.174907 0.000000
1.000000 0.179596 0.000000
1.000000 0.184157 0.000000
1.000000 0.189225 0.000000
1.000000 0.194755 0.000000
1.000000 0.200120 0.000000
1.000000 0.205901 0.000000
1.000000 0.212059 0.000000
1.000000 0.218381 0.000000
1.000000 0.224849 0.000000
1.000000 0.231613 0.000000
1.000000 0.238483 0.000000
1.000000 0.245447 0.000000
1.000000 0.252644 0.000789
1.000000 0.259904 0.001577
1.000000 0.267220 0.002366
1.000000 0.274858 0.003154
1.000000 0.282520 0.003943
1.000000 0.290331 0.004731
1.000000 0.298275 0.005520
0.009463 0.187342 0.000000
0.106458 0.187131 0.000000
0.196937 0.187131 0.000000
0.285264 0.187131 0.000000
0.372977 0.187762 0.000000
0.463175 0.187972 0.000000
0.559494 0.187762 0.000000
0.656740 0.187552 0.000000
0.746076 0.187972 0.000000
0.831101 0.189433 0.000000
0.914307 0.191499 0.000000
0.996617 0.194149 0.000000
1.000000 0.196960 0.000000
1.000000 0.200511 0.000000
1.000000 0.204185 0.000000
1.000000 0.208351 0.000000
1.000000 0.212609 0.000000
1.000000 0.217312 0.000000
1.000000 0.222078 0.000000
1.000000 0.227242 0.000000
1.000000 0.232939 0.000000
1.000000 0.238483 0.000000
1.000000 0.244197 0.000000
1.000000 0.250068 0.000000
1.000000 0.256378 0.000000
1.000000 0.262945 0.000000
1.000000 0.269608 0.000000
1.000000 0.276491 0.000000
1.000000 0.283181 0.000000
1.000000 0.290203 0.000000
1.000000 0.297280 0.000789
1.000000 0.304648 0.001577
1.000000 0.311928 0.003154
0.014194 0.218381 0.000000
0.108823 0.218381 0.000000
0.200267 0.218381 0.000000
0.288945 0.218559 0.000000
0.377757 0.218559 0.000000
0.465492 0.218913 0.000000
0.556314 0.219268 0.000000
0.653541 0.219091 0.000000
0.749747 0.218736 0.000000
0.841182 0.219091 0.000000
0.926551 0.220326 0.000000
1.000000 0.222078 0.000000
1.000000 0.224504 0.000000
1.000000 0.227072 0.000000
1.000000 0.230278 0.000000
1.000000 0.233764 0.000000
1.000000 0.237354 0.000000
1.000000 0.241518 0.000000
1.000000 0.245913 0.000000
1.000000 0.250525 0.000000
1.000000 0.255190 0.000000
1.000000 0.260050 0.000000
1.000000 0.265520 0.000000
1.000000 0.271001 0.000000
1.000000 0.276627 0.000000
1.000000 0.282388 0.000000
1.000000 0.288272 0.000000
1.000000 0.294524 0.000000
1.000000 0.300991 0.000000
1.000000 0.307537 0.000000
1.000000 0.314272 0.000000
1.000000 0.321180 0.000000
1.000000 0.327915 0.000000
0.016560 0.249610 0.000000
0.113555 0.249763 0.000000
0.203555 0.249610 0.000000
0.292586 0.249610 0.000000
0.381540 0.249610 0.000000
0.469328 0.250068 0.000000
0.557588 0.250220 0.000000
0.649787 0.250525 0.000000
0.746076 0.250220 0.000000
0.843580 0.250068 0.000000
0.935432 0.250220 0.000000
1.000000 0.251132 0.000000
1.000000 0.252794 0.000000
1.000000 0.254892 0.000000
1.000000 0.257412 0.000000
1.000000 0.260341 0.000000
1.000000 0.263520 0.000000
1.000000 0.267079 0.000000
1.000000 0.270723 0.000000
1.000000 0.274721 0.000000
1.000000 0.279056 0.000000
1.000000 0.283708 0.000000
1.000000 0.288272 0.000000
1.000000 0.293007 0.000000
1.000000 0.298151 0.000000
1.000000 0.303678 0.000000
1.000000 0.309207 0.000000
1.000000 0.314738 0.000000
1.000000 0.320497 0.000000
1.000000 0.326470 0.000000
1.000000 0.332642 0.000000
1.000000 0.338999 0.000000
1.000000 0.345528 0.000000
0.021292 0.280794 0.000000
0.118286 0.280927 0.000000
0.206802 0.280661 0.000000
0.296186 0.280794 0.000000
0.385286 0.280794 0.000000
0.473888 0.281060 0.000000
0.561393 0.281459 0.000000
0.649787 0.281725 0.000000
0.742847 0.281990 0.000000
0.839578 0.281592 0.000000
0.937549 0.281327 0.000000
1.000000 0.281459 0.000000
1.000000 0.282255 0.000000
1.000000 0.283708 0.000000
1.000000 0.285544 0.000000
1.000000 0.288014 0.000000
1.000000 0.290587 0.000000
1.000000 0.293514 0.000000
1.000000 0.296781 0.000000
1.000000 0.300376 0.000000
1.000000 0.304042 0.000000
1.000000 0.308135 0.000000
1.000000 0.312281 0.000000
1.000000 0.316826 0.000000
1.000000 0.321521 0.000000
1.000000 0.326136 0.000000
1.000000 0.331002 0.000000
1.000000 0.336323 0.000000
1.000000 0.341861 0.000000
1.000000 0.347396 0.000000
1.000000 0.353030 0.000000
1.000000 0.358755 0.000000
1.000000 0.364665 0.000000
0.026023 0.312164 0.000000
0.122983 0.312046 0.000000
0.210010 0.311928 0.000000
0.299747 0.311928 0.000000
0.388997 0.312046 0.000000
0.477654 0.312164 0.000000
0.565798 0.312399 0.000000
0.653007 0.312634 0.000000
0.742847 0.313103 0.000000
0.835554 0.313103 0.000000
0.933310 0.312986 0.000000
1.000000 0.312634 0.000000
1.000000 0.312634 0.000000
1.000000 0.313220 0.000000
1.000000 0.314622 0.000000
1.000000 0.316247 0.000000
1.000000 0.318438 0.000000
1.000000 0.320953 0.000000
1.000000 0.323669 0.000000
1.000000 0.326693 0.000000
1.000000 0.329904 0.000000
1.000000 0.333621 0.000000
1.000000 0.337289 0.000000
1.000000 0.341439 0.000000
1.000000 0.345528 0.000000
1.000000 0.349970 0.000000
1.000000 0.354749 0.000000
1.000000 0.359252 0.000000
1.000000 0.363981 0.000000
1.000000 0.369118 0.000000
1.000000 0.374452 0.000000
1.000000 0.380066 0.000000
1.000000 0.385581 0.000000
0.033120 0.343229 0.000000
0.127547 0.343334 0.000000
0.214751 0.343229 0.000000
0.303271 0.343229 0.000000
0.391757 0.343124 0.000000
0.481389 0.343334 0.000000
0.569544 0.343334 0.000000
0.657272 0.343648 0.000000
0.745616 0.344067 0.000000
0.835554 0.344381 0.000000
0.928691 0.344485 0.000000
1.000000 0.344172 0.000000
1.000000 0.343753 0.000000
1.000000 0.343858 0.000000
1.000000 0.344381 0.000000
1.000000 0.345528 0.000000
1.000000 0.347086 0.000000
1.000000 0.349149 0.000000
1.000000 0.351402 0.000000
1.000000 0.353941 0.000000
1.000000 0.356759 0.000000
1.000000 0.359748 0.000000
1.000000 0.363198 0.000000
1.000000 0.366900 0.000000
1.000000 0.370556 0.000000
1.000000 0.374735 0.000000
1.000000 0.378672 0.000000
1.000000 0.383111 0.000000
1.000000 0.387850 0.000000
1.000000 0.392430 0.000000
1.000000 0.397121 0.000000
1.000000 0.401918 0.000000
1.000000 0.407242 0.000000
0.040217 0.374452 0.000000
0.134213 0.374546 0.000000
0.217867 0.374452 0.000000
0.305600 0.374452 0.000000
0.395408 0.374358 0.000000
0.484356 0.374452 0.000000
0.573880 0.374546 0.000000
0.661506 0.374735 0.000000
0.749289 0.375112 0.000000
0.837569 0.375395 0.000000
0.928335 0.375771 0.000000
1.000000 0.375865 0.000000
1.000000 0.375489 0.000000
1.000000 0.375207 0.000000
1.000000 0.375018 0.000000
1.000000 0.375395 0.000000
1.000000 0.376429 0.000000
1.000000 0.378019 0.000000
1.000000 0.379788 0.000000
1.000000 0.381915 0.000000
1.000000 0.384394 0.000000
1.000000 0.387126 0.000000
1.000000 0.389924 0.000000
1.000000 0.393053 0.000000
1.000000 0.396593 0.000000
1.000000 0.400182 0.000000
1.000000 0.403903 0.000000
1.000000 0.408008 0.000000
1.000000 0.411978 0.000000
1.000000 0.416317 0.000000
1.000000 0.420927 0.000000
1.000000 0.425638 0.000000
1.000000 0.430205 0.000000
0.047314 0.405791 0.000000
0.140676 0.405705 0.000000
0.222474 0.405705 0.000000
0.309062 0.405620 0.000000
0.399026 0.405620 0.000000
0.488037 0.405620 0.000000
0.576956 0.405620 0.000000
0.665710 0.405791 0.000000
0.753397 0.406047 0.000000
0.841582 0.406474 0.000000
0.930115 0.406816 0.000000
1.000000 0.407072 0.000000
1.000000 0.407072 0.000000
1.000000 0.406816 0.000000
1.000000 0.406389 0.000000
1.000000 0.406218 0.000000
1.000000 0.406560 0.000000
1.000000 0.407412 0.000000
1.000000 0.408857 0.000000
1.000000 0.410548 0.000000
1.000000 0.412566 0.000000
1.000000 0.414905 0.000000
1.000000 0.417310 0.000000
1.000000 0.420191 0.000000
1.000000 0.423047 0.000000
1.000000 0.426282 0.000000
1.000000 0.429886 0.000000
1.000000 0.433453 0.000000
1.000000 0.437139 0.000000
1.000000 0.441251 0.000000
1.000000 0.445239 0.000000
1.000000 0.449484 0.000000
1.000000 0.454127 0.000000
0.054412 0.436983 0.000000
0.149008 0.436905 0.000000
0.228501 0.436905 0.000000
0.313625 0.436827 0.000000
0.402611 0.436827 0.000000
0.491690 0.436749 0.000000
0.580624 0.436827 0.000000
0.669364 0.436983 0.000000
0.757479 0.437139 0.000000
0.845573 0.437451 0.000000
0.933310 0.437763 0.000000
1.000000 0.438152 0.000000
1.000000 0.438386 0.000000
1.000000 0.438386 0.000000
1.000000 0.438074 0.000000
1.000000 0.437763 0.000000
1.000000 0.437451 0.000000
1.000000 0.437763 0.000000
1.000000 0.438463 0.000000
1.000000 0.439705 0.000000
1.000000 0.441328 0.000000
1.000000 0.443174 0.000000
1.000000 0.445391 0.000000
1.000000 0.447898 0.000000
1.000000 0.450463 0.000000
1.000000 0.453233 0.000000
1.000000 0.456279 0.000000
1.000000 0.459519 0.000000
1.000000 0.463094 0.000000
1.000000 0.466707 0.000000
1.000000 0.470428 0.000000
1.000000 0.474535 0.000000
1.000000 0.478528 0.000000
0.063875 0.468142 0.000000
0.155059 0.468142 0.000000
0.232937 0.468071 0.000000
0.317008 0.468071 0.000000
0.405280 0.467999 0.000000
0.495314 0.467999 0.000000
0.583661 0.468071 0.000000
0.672996 0.468071 0.000000
0.761537 0.468214 0.000000
0.849938 0.468357 0.000000
0.937549 0.468787 0.000000
1.000000 0.469144 0.000000
1.000000 0.469572 0.000000
1.000000 0.469715 0.000000
1.000000 0.469644 0.000000
1.000000 0.469358 0.000000
1.000000 0.469001 0.000000
1.000000 0.468787 0.000000
1.000000 0.469001 0.000000
1.000000 0.469572 0.000000
1.000000 0.470712 0.000000
1.000000 0.472274 0.000000
1.000000 0.473971 0.000000
1.000000 0.476011 0.000000
1.000000 0.478319 0.000000
1.000000 0.480820 0.000000
1.000000 0.483581 0.000000
1.000000 0.486322 0.000000
1.000000 0.489451 0.000000
1.000000 0.492756 0.000000
1.000000 0.496433 0.000000
1.000000 0.500010 0.000000
1.000000 0.503751 0.000000
0.073337 0.499416 0.000000
0.162886 0.499416 0.000000
0.238747 0.499350 0.000000
0.321467 0.499350 0.000000
0.408811 0.499284 0.000000
0.498194 0.499152 0.000000
0.587283 0.499152 0.000000
0.676092 0.499284 0.000000
0.765569 0.499284 0.000000
0.853883 0.499482 0.000000
0.941765 0.499746 0.000000
1.000000 0.500076 0.000000
1.000000 0.500471 0.000000
1.000000 0.500800 0.000000
1.000000 0.501064 0.000000
1.000000 0.500998 0.000000
1.000000 0.500669 0.000000
1.000000 0.500274 0.000000
1.000000 0.500010 0.000000
1.000000 0.500142 0.000000
1.000000 0.500669 0.000000
1.000000 0.501655 0.000000
1.000000 0.503097 0.000000
1.000000 0.504730 0.000000
1.000000 0.506615 0.000000
1.000000 0.508814 0.000000
1.000000 0.511386 0.000000
1.000000 0.513814 0.000000
1.000000 0.516671 0.000000
1.000000 0.519445 0.000000
1.000000 0.522575 0.000000
1.000000 0.526053 0.000000
1.000000 0.529747 0.000000
0.082800 0.530543 0.000000
0.172317 0.530604 0.000000
0.245849 0.530543 0.000000
0.325870 0.530543 0.000000
0.412312 0.530482 0.000000
0.501769 0.530421 0.000000
0.590881 0.530421 0.000000
0.679683 0.530421 0.000000
0.769133 0.530543 0.000000
0.857807 0.530543 0.000000
0.945959 0.530849 0.000000
1.000000 0.531154 0.000000
1.000000 0.531521 0.000000
1.000000 0.531887 0.000000
1.000000 0.532192 0.000000
1.000000 0.532313 0.000000
1.000000 0.532252 0.000000
1.000000 0.531948 0.000000
1.000000 0.531582 0.000000
1.000000 0.531276 0.000000
1.000000 0.531338 0.000000
1.000000 0.531826 0.000000
1.000000 0.532618 0.000000
1.000000 0.533955 0.000000
1.000000 0.535590 0.000000
1.000000 0.537400 0.000000
1.000000 0.539441 0.000000
1.000000 0.541831 0.000000
1.000000 0.544266 0.000000
1.000000 0.546981 0.000000
1.000000 0.549680 0.000000
1.000000 0.552653 0.000000
1.000000 0.555836 0.000000
0.094629 0.561792 0.000000
0.179603 0.561848 0.000000
0.251409 0.561792 0.000000
0.331296 0.561792 0.000000
0.416647 0.561735 0.000000
0.504610 0.561678 0.000000
0.594454 0.561564 0.000000
0.683254 0.561621 0.000000
0.772236 0.561621 0.000000
0.861321 0.561735 0.000000
0.949784 0.561848 0.000000
1.000000 0.562133 0.000000
1.000000 0.562474 0.000000
1.000000 0.562814 0.000000
1.000000 0.563211 0.000000
1.000000 0.563495 0.000000
1.000000 0.563665 0.000000
1.000000 0.563551 0.000000
1.000000 0.563155 0.000000
1.000000 0.562871 0.000000
1.000000 0.562530 0.000000
1.000000 0.562587 0.000000
1.000000 0.562984 0.000000
1.000000 0.563721 0.000000
1.000000 0.564909 0.000000
1.000000 0.566488 0.000000
1.000000 0.568173 0.000000
1.000000 0.570075 0.000000
1.000000 0.572303 0.000000
1.000000 0.574851 0.000000
1.000000 0.577220 0.000000
1.000000 0.580069 0.000000
1.000000 0.582791 0.000000
0.106458 0.593042 0.000000
0.188419 0.593042 0.000000
0.258216 0.593042 0.000000
0.336641 0.592936 0.000000
0.420937 0.592989 0.000000
0.508138 0.592883 0.000000
0.597415 0.592830 0.000000
0.686803 0.592777 0.000000
0.775765 0.592830 0.000000
0.864817 0.592936 0.000000
0.953936 0.592989 0.000000
1.000000 0.593201 0.000000
1.000000 0.593467 0.000000
1.000000 0.593838 0.000000
1.000000 0.594155 0.000000
1.000000 0.594632 0.000000
1.000000 0.594843 0.000000
1.000000 0.594949 0.000000
1.000000 0.594843 0.000000
1.000000 0.594473 0.000000
1.000000 0.594155 0.000000
1.000000 0.593785 0.000000
1.000000 0.593785 0.000000
1.000000 0.594155 0.000000
1.000000 0.594843 0.000000
1.000000 0.595900 0.000000
1.000000 0.597374 0.000000
1.000000 0.598949 0.000000
1.000000 0.600780 0.000000
1.000000 0.602968 0.000000
1.000000 0.605300 0.000000
1.000000 0.607724 0.000000
1.000000 0.610289 0.000000
0.118286 0.624256 0.000000
0.198607 0.624256 0.000000
0.266187 0.624256 0.000000
0.341907 0.624156 0.000000
0.425184 0.624206 0.000000
0.512337 0.624106 0.000000
0.600946 0.624057 0.000000
0.690834 0.624057 0.000000
0.779275 0.624057 0.000000
0.868298 0.624106 0.000000
0.957379 0.624156 0.000000
1.000000 0.624305 0.000000
1.000000 0.624554 0.000000
1.000000 0.624852 0.000000
1.000000 0.625149 0.000000
1.000000 0.625596 0.000000
1.000000 0.625942 0.000000
1.000000 0.626140 0.000000
1.000000 0.626289 0.000000
1.000000 0.626140 0.000000
1.000000 0.625794 0.000000
1.000000 0.625447 0.000000
1.000000 0.625050 0.000000
1.000000 0.625050 0.000000
1.000000 0.625348 0.000000
1.000000 0.625893 0.000000
1.000000 0.626882 0.000000
1.000000 0.628215 0.000000
1.000000 0.629839 0.000000
1.000000 0.631605 0.000000
1.000000 0.633559 0.000000
1.000000 0.635797 0.000000
1.000000 0.638314 0.000000
0.132014 0.655497 0.000000
0.206802 0.655450 0.000000
0.272675 0.655450 0.000000
0.348127 0.655403 0.000000
0.430224 0.655403 0.000000
0.515809 0.655357 0.000000
0.604455 0.655310 0.000000
0.693840 0.655217 0.000000
0.782767 0.655217 0.000000
0.871762 0.655263 0.000000
0.960808 0.655310 0.000000
1.000000 0.655403 0.000000
1.000000 0.655637 0.000000
1.000000 0.655870 0.000000
1.000000 0.656150 0.000000
1.000000 0.656569 0.000000
1.000000 0.656895 0.000000
1.000000 0.657267 0.000000
1.000000 0.657499 0.000000
1.000000 0.657592 0.000000
1.000000 0.657453 0.000000
1.000000 0.657081 0.000000
1.000000 0.656755 0.000000
1.000000 0.656336 0.000000
1.000000 0.656243 0.000000
1.000000 0.656522 0.000000
1.000000 0.657034 0.000000
1.000000 0.657871 0.000000
1.000000 0.659170 0.000000
1.000000 0.660789 0.000000
1.000000 0.662357 0.000000
1.000000 0.664287 0.000000
1.000000 0.666392 0.000000
0.144881 0.686685 0.000000
0.216313 0.686685 0.000000
0.280288 0.686641 0.000000
0.354244 0.686641 0.000000
0.434379 0.686597 0.000000
0.519943 0.686597 0.000000
0.607941 0.686509 0.000000
0.696832 0.686465 0.000000
0.786675 0.686377 0.000000
0.875210 0.686421 0.000000
0.964222 0.686465 0.000000
1.000000 0.686553 0.000000
1.000000 0.686685 0.000000
1.000000 0.686904 0.000000
1.000000 0.687212 0.000000
1.000000 0.687563 0.000000
1.000000 0.687914 0.000000
1.000000 0.688308 0.000000
1.000000 0.688615 0.000000
1.000000 0.688834 0.000000
1.000000 0.688877 0.000000
1.000000 0.688702 0.000000
1.000000 0.688308 0.000000
1.000000 0.688001 0.000000
1.000000 0.687607 0.000000
1.000000 0.687519 0.000000
1.000000 0.687738 0.000000
1.000000 0.688177 0.000000
1.000000 0.688965 0.000000
1.000000 0.690145 0.000000
1.000000 0.691584 0.000000
1.000000 0.693192 0.000000
1.000000 0.695055 0.000000
0.157041 0.717923 0.000000
0.227006 0.717882 0.000000
0.288945 0.717882 0.000000
0.361254 0.717840 0.000000
0.440129 0.717840 0.000000
0.524042 0.717799 0.000000
0.611406 0.717757 0.000000
0.700304 0.717716 0.000000
0.789698 0.717633 0.000000
0.878641 0.717674 0.000000
0.967622 0.717674 0.000000
1.000000 0.717757 0.000000
1.000000 0.717840 0.000000
1.000000 0.718006 0.000000
1.000000 0.718214 0.000000
1.000000 0.718587 0.000000
1.000000 0.718876 0.000000
1.000000 0.719249 0.000000
1.000000 0.719663 0.000000
1.000000 0.719952 0.000000
1.000000 0.720158 0.000000
1.000000 0.720200 0.000000
1.000000 0.720035 0.000000
1.000000 0.719621 0.000000
1.000000 0.719332 0.000000
1.000000 0.718918 0.000000
1.000000 0.718752 0.000000
1.000000 0.718959 0.000000
1.000000 0.719332 0.000000
1.000000 0.720076 0.000000
1.000000 0.721066 0.000000
1.000000 0.722467 0.000000
1.000000 0.724110 0.000000
0.170460 0.749138 0.000000
0.237306 0.749098 0.000000
0.297377 0.749098 0.000000
0.367161 0.749059 0.000000
0.445804 0.749059 0.000000
0.528781 0.749020 0.000000
0.615421 0.748981 0.000000
0.703756 0.748941 0.000000
0.793137 0.748863 0.000000
0.882436 0.748863 0.000000
0.971008 0.748863 0.000000
1.000000 0.748902 0.000000
1.000000 0.748981 0.000000
1.000000 0.749098 0.000000
1.000000 0.749334 0.000000
1.000000 0.749608 0.000000
1.000000 0.749883 0.000000
1.000000 0.750235 0.000000
1.000000 0.750627 0.000000
1.000000 0.751018 0.000000
1.000000 0.751331 0.000000
1.000000 0.751487 0.000000
1.000000 0.751526 0.000000
1.000000 0.751292 0.000000
1.000000 0.750940 0.000000
1.000000 0.750588 0.000000
1.000000 0.750196 0.000000
1.000000 0.750000 0.000000
1.000000 0.750118 0.000000
1.000000 0.750509 0.000000
1.000000 0.751135 0.000000
1.000000 0.752073 0.000000
1.000000 0.753399 0.000000
0.183167 0.780343 0.000000
0.247249 0.780306 0.000000
0.305600 0.780343 0.000000
0.374896 0.780269 0.000000
0.451405 0.780306 0.000000
0.533476 0.780232 0.000000
0.619407 0.780195 0.000000
0.707189 0.780157 0.000000
0.796132 0.780083 0.000000
0.886212 0.780046 0.000000
0.974379 0.780046 0.000000
1.000000 0.780083 0.000000
1.000000 0.780157 0.000000
1.000000 0.780232 0.000000
1.000000 0.780418 0.000000
1.000000 0.780641 0.000000
1.000000 0.780901 0.000000
1.000000 0.781236 0.000000
1.000000 0.781607 0.000000
1.000000 0.781978 0.000000
1.000000 0.782386 0.000000
1.000000 0.782646 0.000000
1.000000 0.782794 0.000000
1.000000 0.782794 0.000000
1.000000 0.782608 0.000000
1.000000 0.782201 0.000000
1.000000 0.781904 0.000000
1.000000 0.781496 0.000000
1.000000 0.781236 0.000000
1.000000 0.781347 0.000000
1.000000 0.781681 0.000000
1.000000 0.782275 0.000000
1.000000 0.783090 0.000000
0.196937 0.811554 0.000000
0.256867 0.811554 0.000000
0.313625 0.811519 0.000000
0.381540 0.811519 0.000000
0.456937 0.811483 0.000000
0.538127 0.811483 0.000000
0.623365 0.811448 0.000000
0.710604 0.811377 0.000000
0.799540 0.811342 0.000000
0.889219 0.811236 0.000000
0.978407 0.811271 0.000000
1.000000 0.811306 0.000000
1.000000 0.811306 0.000000
1.000000 0.811413 0.000000
1.000000 0.811519 0.000000
1.000000 0.811695 0.000000
1.000000 0.811942 0.000000
1.000000 0.812296 0.000000
1.000000 0.812648 0.000000
1.000000 0.813001 0.000000
1.000000 0.813354 0.000000
1.000000 0.813741 0.000000
1.000000 0.813987 0.000000
1.000000 0.814093 0.000000
1.000000 0.814093 0.000000
1.000000 0.813882 0.000000
1.000000 0.813495 0.000000
