3dlut/3dlut_lib/3.cube
TITLE "Generated by 3D LUT Creator Pro (c) Oleg Sharonov"
LUT_3D_SIZE 9
#IMAGEPROFILE 
#OUTPUTGAMMA 
0.000000 0.000000 0.000000
0.330217 0.010251 0.000000
0.674546 0.036274 0.000789
1.000000 0.073649 0.001577
1.000000 0.111148 0.003154
1.000000 0.148601 0.004731
1.000000 0.185863 0.007097
1.000000 0.223295 0.010251
1.000000 0.260632 0.013406
0.004731 0.124646 0.000000
0.372977 0.125284 0.000000
0.720737 0.130586 0.000000
1.000000 0.146437 0.000000
1.000000 0.167731 0.000000
1.000000 0.193744 0.000000
1.000000 0.222600 0.001577
1.000000 0.253995 0.004731
1.000000 0.286717 0.008674
0.016560 0.249610 0.000000
0.381540 0.249610 0.000000
0.746076 0.250220 0.000000
1.000000 0.252794 0.000000
1.000000 0.263520 0.000000
1.000000 0.279056 0.000000
1.000000 0.298151 0.000000
1.000000 0.320497 0.000000
1.000000 0.345528 0.000000
0.040217 0.374452 0.000000
0.395408 0.374358 0.000000
0.749289 0.375112 0.000000
1.000000 0.375489 0.000000
1.000000 0.376429 0.000000
1.000000 0.384394 0.000000
1.000000 0.396593 0.000000
1.000000 0.411978 0.000000
1.000000 0.430205 0.000000
0.073337 0.499416 0.000000
0.408811 0.499284 0.000000
0.765569 0.499284 0.000000
1.000000 0.500471 0.000000
1.000000 0.500669 0.000000
1.000000 0.500669 0.000000
1.000000 0.506615 0.000000
1.000000 0.516671 0.000000
1.000000 0.529747 0.000000
0.118286 0.624256 0.000000
0.425184 0.624206 0.000000
0.779275 0.624057 0.000000
1.000000 0.624554 0.000000
1.000000 0.625942 0.000000
1.000000 0.625794 0.000000
1.000000 0.625348 0.000000
1.000000 0.629839 0.000000
1.000000 0.638314 0.000000
0.170460 0.749138 0.000000
0.445804 0.749059 0.000000
0.793137 0.748863 0.000000
1.000000 0.748981 0.000000
1.000000 0.749883 0.000000
1.000000 0.751331 0.000000
1.000000 0.750940 0.000000
1.000000 0.750118 0.000000
1.000000 0.753399 0.000000
0.222474 0.873999 0.000000
0.470091 0.873967 0.000000
0.806304 0.873775 0.000000
1.000000 0.873711 0.000000
1.000000 0.874096 0.000000
1.000000 0.875345 0.000000
1.000000 0.876623 0.000000
1.000000 0.876048 0.000000
1.000000 0.875025 0.000000
0.275234 0.998845 0.000000
0.497476 0.998819 0.000000
0.821698 0.998684 0.000000
1.000000 0.998469 0.000000
1.000000 0.998630 0.000000
1.000000 0.999383 0.000000
1.000000 1.000000 0.089165
1.000000 1.000000 0.185012
1.000000 1.000000 0.202261
0.002366 0.002366 0.113969
0.371048 0.001577 0.123360
0.744233 0.005520 0.113270
1.000000 0.008674 0.084261
1.000000 0.011040 0.017349
1.000000 0.093011 0.013406
1.000000 0.146710 0.014983
1.000000 0.193338 0.018137
1.000000 0.236543 0.021292
0.000000 0.125284 0.120748
0.285264 0.138017 0.045463
0.583661 0.155164 0.081010
0.950824 0.171474 0.099126
1.000000 0.191499 0.105669
1.000000 0.215336 0.108987
1.000000 0.241994 0.111148
1.000000 0.270723 0.112919
1.000000 0.267502 0.014194
0.000000 0.249916 0.124965
0.338757 0.254444 0.038640
0.679172 0.259028 0.046181
1.000000 0.264522 0.090463
1.000000 0.275540 0.100309
1.000000 0.290971 0.103784
1.000000 0.309683 0.105669
1.000000 0.331878 0.107524
1.000000 0.331550 0.000000
0.000000 0.375018 0.123036
0.352216 0.377272 0.045463
0.711090 0.379138 0.033909
1.000000 0.380622 0.054295
1.000000 0.383753 0.087409
1.000000 0.391537 0.093429
1.000000 0.403300 0.095908
1.000000 0.418959 0.098330
1.000000 0.421744 0.000000
0.000000 0.500142 0.117744
0.354244 0.501655 0.038640
0.720258 0.502639 0.015771
1.000000 0.503947 0.000000
1.000000 0.504143 0.049669
1.000000 0.505836 0.083803
1.000000 0.511578 0.084261
1.000000 0.521201 0.081950
1.000000 0.525310 0.000000
0.000000 0.625199 0.111148
0.355253 0.626338 0.023657
0.725981 0.626932 0.000000
1.000000 0.627327 0.000000
1.000000 0.628462 0.000000
1.000000 0.628462 0.038640
1.000000 0.629200 0.081950
1.000000 0.633510 0.075669
1.000000 0.636233 0.000000
0.000000 0.750274 0.101867
0.349154 0.751214 0.001577
0.740531 0.751174 0.000000
1.000000 0.751253 0.000000
1.000000 0.752034 0.000000
1.000000 0.753282 0.000000
1.000000 0.753087 0.018137
1.000000 0.753204 0.079582
1.000000 0.752619 0.000000
0.000000 0.875345 0.088729
0.374896 0.875760 0.000000
0.754761 0.875664 0.000000
1.000000 0.875601 0.000000
1.000000 0.875952 0.000000
1.000000 0.877070 0.000000
1.000000 0.878282 0.000000
1.000000 0.877899 0.000000
1.000000 0.875025 0.122387
0.082800 1.000000 0.087409
0.408811 1.000000 0.085170
0.768689 1.000000 0.077646
1.000000 1.000000 0.059267
1.000000 1.000000 0.054934
1.000000 1.000000 0.090463
1.000000 1.000000 0.159966
1.000000 1.000000 0.227242
1.000000 1.000000 0.241994
0.011829 0.008674 0.230613
0.351198 0.012617 0.236056
0.743309 0.004731 0.246998
1.000000 0.011040 0.242310
1.000000 0.022080 0.223468
1.000000 0.029177 0.195961
1.000000 0.033120 0.152835
1.000000 0.038640 0.071060
1.000000 0.138595 0.042516
0.000000 0.124965 0.249763
0.318128 0.142009 0.174907
0.675577 0.147253 0.198744
1.000000 0.140597 0.197953
1.000000 0.138017 0.183513
1.000000 0.137728 0.151788
1.000000 0.167967 0.134204
1.000000 0.210029 0.131803
1.000000 0.191088 0.037063
0.000000 0.250677 0.243098
0.331296 0.256081 0.202647
0.597415 0.271971 0.115355
0.869454 0.290075 0.139456
1.000000 0.305976 0.184799
1.000000 0.322201 0.202067
1.000000 0.340169 0.211139
1.000000 0.360837 0.216775
1.000000 0.284234 0.015771
0.000000 0.375207 0.247770
0.245849 0.380807 0.202840
0.672479 0.385490 0.106415
0.965924 0.395270 0.095908
1.000000 0.400095 0.167967
1.000000 0.410379 0.196362
1.000000 0.423209 0.207036
1.000000 0.438774 0.212609
1.000000 0.395182 0.000000
0.000000 0.499944 0.250068
0.193564 0.504925 0.195961
0.696832 0.506420 0.108623
1.000000 0.509845 0.110791
1.000000 0.513942 0.121734
1.000000 0.517619 0.172167
1.000000 0.524752 0.195560
1.000000 0.534804 0.204950
1.000000 0.512154 0.000000
0.000000 0.625050 0.247924
0.136389 0.629397 0.186075
0.709143 0.629397 0.114664
1.000000 0.631360 0.107524
1.000000 0.633559 0.104542
1.000000 0.635457 0.129357
1.000000 0.638218 0.171243
1.000000 0.643455 0.191909
1.000000 0.629888 0.000000
0.000000 0.750157 0.243727
0.087532 0.753866 0.178934
0.714483 0.753360 0.113270
1.000000 0.754722 0.097126
1.000000 0.756390 0.074664
1.000000 0.757745 0.080060
1.000000 0.758363 0.129049
1.000000 0.760406 0.168675
1.000000 0.751917 0.156951
0.000000 0.875249 0.238000
0.011829 0.878632 0.165825
0.714967 0.877836 0.105295
1.000000 0.878855 0.082416
1.000000 0.879999 0.037852
1.000000 0.881428 0.000000
1.000000 0.882346 0.029966
1.000000 0.882093 0.123360
1.000000 0.875057 0.247307
0.066240 1.000000 0.236706
0.402611 1.000000 0.235893
0.765569 1.000000 0.233599
1.000000 1.000000 0.228428
1.000000 1.000000 0.224849
1.000000 1.000000 0.232609
1.000000 1.000000 0.263663
1.000000 1.000000 0.307776
1.000000 1.000000 0.318668
0.026023 0.018926 0.347913
0.352216 0.018137 0.359649
0.712546 0.034697 0.354345
1.000000 0.010251 0.370843
1.000000 0.012617 0.369886
1.000000 0.038640 0.354042
1.000000 0.052347 0.333295
1.000000 0.061056 0.306578
1.000000 0.080536 0.271833
0.007097 0.125919 0.370938
0.355253 0.148063 0.296156
0.687813 0.146710 0.340593
1.000000 0.151261 0.343962
1.000000 0.149671 0.341755
1.000000 0.148333 0.331987
1.000000 0.149937 0.311928
1.000000 0.151525 0.283313
1.000000 0.157963 0.272799
0.011829 0.250373 0.371034
0.379653 0.256822 0.327472
0.600946 0.278787 0.238483
0.927265 0.292246 0.234913
1.000000 0.285021 0.254294
1.000000 0.277844 0.259174
1.000000 0.286196 0.255339
1.000000 0.303799 0.251587
1.000000 0.266088 0.274721
0.000000 0.375959 0.365347
0.352216 0.378299 0.348016
0.599183 0.393320 0.241677
0.909574 0.405962 0.185438
1.000000 0.425234 0.201679
1.000000 0.441096 0.254892
1.000000 0.456648 0.287496
1.000000 0.472770 0.304527
1.000000 0.384211 0.270445
0.000000 0.500405 0.368926
0.272675 0.503620 0.347706
0.522679 0.514578 0.258735
0.998253 0.517619 0.174226
1.000000 0.531643 0.143408
1.000000 0.535651 0.228934
1.000000 0.546569 0.277709
1.000000 0.558652 0.299760
1.000000 0.506485 0.263376
0.000000 0.625050 0.373980
0.238747 0.628166 0.347189
0.460067 0.637589 0.248231
1.000000 0.637057 0.167256
1.000000 0.642594 0.169847
1.000000 0.649158 0.178491
1.000000 0.652454 0.241994
1.000000 0.659957 0.283444
1.000000 0.629397 0.276356
0.000000 0.750000 0.375018
0.200267 0.752892 0.344276
0.400823 0.761137 0.233764
1.000000 0.758556 0.178270
1.000000 0.761713 0.178491
1.000000 0.764891 0.182217
1.000000 0.768773 0.197755
1.000000 0.772065 0.244354
1.000000 0.752112 0.319470
0.000000 0.875089 0.372937
0.129793 0.877931 0.337718
0.358266 0.884780 0.222774
1.000000 0.881554 0.183728
1.000000 0.883612 0.178934
1.000000 0.885915 0.172397
1.000000 0.888115 0.179155
1.000000 0.890340 0.204185
1.000000 0.875121 0.371320
0.035486 1.000000 0.370556
0.391757 1.000000 0.369790
0.761087 1.000000 0.367673
1.000000 1.000000 0.365736
1.000000 1.000000 0.361331
1.000000 1.000000 0.362512
1.000000 1.000000 0.378672
1.000000 1.000000 0.408602
1.000000 1.000000 0.417806
0.047314 0.035486 0.465266
0.351198 0.025234 0.483031
0.710604 0.046892 0.475519
1.000000 0.062806 0.475449
1.000000 0.019714 0.494833
1.000000 0.010251 0.497098
1.000000 0.051020 0.483375
1.000000 0.073137 0.465194
1.000000 0.084717 0.442943
0.028389 0.129973 0.487141
0.378707 0.156951 0.416483
0.688822 0.151261 0.464327
1.000000 0.158215 0.464616
1.000000 0.155421 0.475940
1.000000 0.155421 0.474887
1.000000 0.157710 0.466851
1.000000 0.161452 0.450312
1.000000 0.158466 0.442867
0.000000 0.249916 0.499812
0.405280 0.259174 0.450012
0.671961 0.280394 0.372368
1.000000 0.278921 0.438074
1.000000 0.288789 0.424264
1.000000 0.285152 0.416897
1.000000 0.278383 0.419616
1.000000 0.275812 0.406474
1.000000 0.266938 0.442483
0.037852 0.375771 0.491815
0.398124 0.378579 0.469215
0.673513 0.390642 0.409195
0.870224 0.417475 0.278518
1.000000 0.430125 0.294775
1.000000 0.437529 0.321634
1.000000 0.436280 0.348738
1.000000 0.440401 0.356659
1.000000 0.384760 0.442329
0.000000 0.501195 0.487482
0.352216 0.502639 0.477131
0.690332 0.508749 0.431238
0.892214 0.529869 0.270445
1.000000 0.539980 0.255190
1.000000 0.560253 0.266372
1.000000 0.575955 0.311811
1.000000 0.591873 0.362020
1.000000 0.505836 0.441405
0.000000 0.625744 0.490331
0.264873 0.628117 0.477201
0.589684 0.634144 0.433058
0.778838 0.651044 0.290203
1.000000 0.650479 0.241042
1.000000 0.667533 0.200315
1.000000 0.671031 0.292373
1.000000 0.682538 0.347499
1.000000 0.629298 0.438230
0.000000 0.750196 0.496766
0.244442 0.752502 0.480197
0.530127 0.758479 0.429727
0.716414 0.772517 0.280794
1.000000 0.768204 0.237192
1.000000 0.776574 0.219091
1.000000 0.785345 0.227412
1.000000 0.787444 0.301114
1.000000 0.752385 0.457681
0.000000 0.875025 0.499482
0.228501 0.877102 0.480751
0.481389 0.882821 0.423615
0.658333 0.894986 0.262945
1.000000 0.888994 0.232443
1.000000 0.893306 0.238322
1.000000 0.897839 0.245447
1.000000 0.903631 0.256526
1.000000 0.875249 0.495100
0.000000 1.000000 0.499944
0.375852 1.000000 0.499878
0.751574 1.000000 0.499020
1.000000 1.000000 0.497031
1.000000 1.000000 0.494432
1.000000 1.000000 0.491343
1.000000 1.000000 0.497894
1.000000 1.000000 0.519005
1.000000 1.000000 0.527534
0.075703 0.055568 0.582519
0.349154 0.035486 0.606178
0.712546 0.056196 0.599473
1.000000 0.081010 0.592511
1.000000 0.087409 0.597532
1.000000 0.031543 0.618607
1.000000 0.006309 0.623858
1.000000 0.059267 0.611209
1.000000 0.090032 0.594473
0.056777 0.136270 0.602708
0.399925 0.167019 0.537219
0.689829 0.155933 0.588454
1.000000 0.165586 0.584957
1.000000 0.171011 0.588990
1.000000 0.160215 0.604213
1.000000 0.156443 0.606591
1.000000 0.164623 0.598057
1.000000 0.154133 0.594790
0.016560 0.250981 0.620764
0.419227 0.262801 0.572414
0.706700 0.286587 0.493159
1.000000 0.281327 0.567556
1.000000 0.286457 0.567556
1.000000 0.292881 0.568173
1.000000 0.292754 0.563778
1.000000 0.287885 0.562984
1.000000 0.264950 0.594102
0.009463 0.375207 0.623460
0.426028 0.379788 0.590274
0.742384 0.391716 0.528458
0.953936 0.415902 0.445544
1.000000 0.415154 0.527473
1.000000 0.425960 0.477970
1.000000 0.418053 0.468214
1.000000 0.409703 0.483168
1.000000 0.384303 0.592032
0.066240 0.501064 0.612382
0.407931 0.502639 0.599002
0.727877 0.508878 0.561279
0.972695 0.525310 0.481996
1.000000 0.549972 0.343543
1.000000 0.565868 0.359649
1.000000 0.577550 0.379416
1.000000 0.582573 0.425638
1.000000 0.506290 0.590434
0.000000 0.626536 0.609675
0.346066 0.627623 0.602448
0.709143 0.630968 0.575569
0.992020 0.642785 0.491141
1.000000 0.661251 0.331002
1.000000 0.673965 0.325129
1.000000 0.694579 0.337504
1.000000 0.699406 0.387579
1.000000 0.628609 0.589793
0.000000 0.751018 0.611719
0.241609 0.753087 0.602500
0.613130 0.756855 0.575127
0.889594 0.766797 0.502442
1.000000 0.784533 0.336323
1.000000 0.783719 0.306457
1.000000 0.801938 0.277034
1.000000 0.799095 0.351504
1.000000 0.752541 0.591766
0.000000 0.875441 0.618255
0.220947 0.877421 0.606591
0.555675 0.881554 0.574409
0.815913 0.890778 0.497496
1.000000 0.906356 0.319927
1.000000 0.905072 0.282123
1.000000 0.911168 0.263233
1.000000 0.917090 0.271694
1.000000 0.875473 0.617651
0.026023 1.000000 0.623261
0.384353 1.000000 0.623559
0.752030 1.000000 0.624057
1.000000 1.000000 0.624901
1.000000 1.000000 0.624454
1.000000 1.000000 0.621465
1.000000 1.000000 0.620263
1.000000 1.000000 0.633705
1.000000 1.000000 0.642402
0.113555 0.075669 0.699835
0.343992 0.048294 0.729091
0.711576 0.066202 0.723289
1.000000 0.090892 0.715388
1.000000 0.111859 0.711709
1.000000 0.110072 0.720282
1.000000 0.046892 0.742428
1.000000 0.002366 0.749804
1.000000 0.062227 0.738804
0.094629 0.145618 0.717135
0.422641 0.177825 0.658892
0.689829 0.161698 0.711876
1.000000 0.171706 0.707751
1.000000 0.183082 0.705762
1.000000 0.184799 0.713217
1.000000 0.165586 0.730877
1.000000 0.155677 0.736441
1.000000 0.140028 0.739961
0.047314 0.253396 0.738604
0.432722 0.267925 0.691932
0.732122 0.294524 0.613044
1.000000 0.285152 0.691975
1.000000 0.291354 0.690843
1.000000 0.295529 0.695358
1.000000 0.296781 0.702871
1.000000 0.295655 0.703297
1.000000 0.258295 0.739003
0.002366 0.375112 0.749569
0.434379 0.381269 0.715263
0.768689 0.395359 0.650479
1.000000 0.418548 0.569964
1.000000 0.414321 0.667624
1.000000 0.418300 0.663690
1.000000 0.430364 0.648590
1.000000 0.427889 0.641731
1.000000 0.380715 0.737644
0.044949 0.500669 0.743935
0.433551 0.502966 0.723946
0.778399 0.510680 0.673740
1.000000 0.525867 0.605817
1.000000 0.552130 0.511194
1.000000 0.564570 0.557734
1.000000 0.574132 0.508362
1.000000 0.564796 0.520011
1.000000 0.504534 0.734874
0.094629 0.626487 0.733706
0.414919 0.627525 0.724643
0.747455 0.631213 0.699278
1.000000 0.641779 0.649205
1.000000 0.662955 0.530971
1.000000 0.683379 0.408008
1.000000 0.701163 0.423696
1.000000 0.698591 0.471352
1.000000 0.628609 0.731404
0.000000 0.751800 0.731889
0.337700 0.752775 0.726402
0.713031 0.754955 0.708005
1.000000 0.761521 0.658382
1.000000 0.780269 0.528642
1.000000 0.793734 0.390103
1.000000 0.807939 0.394917
1.000000 0.814937 0.408432
1.000000 0.752112 0.730025
0.000000 0.876400 0.732980
0.201916 0.878282 0.726239
0.615421 0.880920 0.707075
0.937549 0.887362 0.660789
1.000000 0.901665 0.555143
1.000000 0.923916 0.401745
1.000000 0.925583 0.338893
1.000000 0.933298 0.280394
1.000000 0.875952 0.738244
0.183167 1.000000 0.740479
0.443381 1.000000 0.740997
0.777961 1.000000 0.742666
1.000000 1.000000 0.744963
1.000000 1.000000 0.747959
1.000000 1.000000 0.749961
1.000000 1.000000 0.747959
1.000000 1.000000 0.750783
1.000000 1.000000 0.760214
0.157041 0.095908 0.817148
0.338757 0.061643 0.851565
0.710117 0.077155 0.846603
1.000000 0.099522 0.839273
1.000000 0.124646 0.832610
1.000000 0.141164 0.831413
1.000000 0.130586 0.844023
1.000000 0.062806 0.866358
1.000000 0.000000 0.874993
0.142789 0.157205 0.831824
0.444998 0.189016 0.780641
0.690332 0.167494 0.835882
1.000000 0.177825 0.831105
1.000000 0.191499 0.826326
1.000000 0.202261 0.826705
1.000000 0.198744 0.837410
1.000000 0.171936 0.856785
1.000000 0.124965 0.875025
0.094629 0.257854 0.854114
0.449013 0.274174 0.810564
0.755214 0.303435 0.734109
1.000000 0.289304 0.816026
1.000000 0.296156 0.813987
1.000000 0.303921 0.813776
1.000000 0.305253 0.821927
1.000000 0.301114 0.833873
1.000000 0.249916 0.874993
0.026023 0.375959 0.870431
0.444190 0.383386 0.837682
0.786242 0.400007 0.772065
1.000000 0.424911 0.690014
1.000000 0.416400 0.795260
1.000000 0.421581 0.791949
1.000000 0.425396 0.795986
1.000000 0.434476 0.791912
1.000000 0.375207 0.874897
0.004731 0.500010 0.874736
0.440129 0.503620 0.850236
0.803775 0.512474 0.797832
1.000000 0.528150 0.727667
1.000000 0.552943 0.643789
1.000000 0.551548 0.749883
1.000000 0.551955 0.752151
1.000000 0.568173 0.712547
1.000000 0.500339 0.874256
0.094629 0.626041 0.864539
0.443381 0.627475 0.851432
0.797412 0.632094 0.816622
1.000000 0.642977 0.755692
1.000000 0.662034 0.683953
1.000000 0.681474 0.643311
1.000000 0.686025 0.702017
1.000000 0.689315 0.626833
1.000000 0.625843 0.872362
0.120652 0.751800 0.855237
0.421790 0.752580 0.848805
0.758383 0.755110 0.830214
1.000000 0.761713 0.793771
1.000000 0.774512 0.727218
1.000000 0.796276 0.650102
1.000000 0.818372 0.558824
1.000000 0.815534 0.569349
1.000000 0.751331 0.869431
0.000000 0.877102 0.854081
0.326962 0.877963 0.849837
0.711576 0.879586 0.836120
1.000000 0.883801 0.802727
1.000000 0.894489 0.725175
1.000000 0.909497 0.650903
1.000000 0.922365 0.594738
1.000000 0.930588 0.566488
1.000000 0.875952 0.866163
0.349154 1.000000 0.855072
0.535474 1.000000 0.855632
0.831101 1.000000 0.856917
1.000000 1.000000 0.859183
1.000000 1.000000 0.862813
1.000000 1.000000 0.867427
1.000000 1.000000 0.872973
1.000000 1.000000 0.874064
1.000000 1.000000 0.879586
0.200267 0.116385 0.934385
0.330217 0.076167 0.973872
0.707678 0.089600 0.969552
1.000000 0.109350 0.963377
1.000000 0.134501 0.955069
1.000000 0.157963 0.949631
1.000000 0.168675 0.952556
1.000000 0.150468 0.967593
1.000000 0.078619 0.990115
0.188419 0.170314 0.946867
0.268799 0.136855 0.997151
0.693340 0.139456 0.996450
1.000000 0.145068 0.994885
1.000000 0.150998 0.992450
1.000000 0.164381 0.984467
1.000000 0.174226 0.978912
1.000000 0.155164 0.987747
1.000000 0.141728 0.994128
0.146954 0.263376 0.970530
0.297377 0.254444 0.997958
0.705720 0.255636 0.997258
1.000000 0.258295 0.995830
1.000000 0.261936 0.993425
1.000000 0.265520 0.990469
1.000000 0.265662 0.988782
1.000000 0.260777 0.990903
1.000000 0.258001 0.994344
0.070972 0.377926 0.989218
0.330217 0.376522 0.999007
0.723126 0.377178 0.998523
1.000000 0.378299 0.997447
1.000000 0.380807 0.995236
1.000000 0.383386 0.992097
1.000000 0.384211 0.989653
1.000000 0.381638 0.991148
1.000000 0.379788 0.994723
0.004731 0.500208 0.998953
0.363233 0.500274 0.999893
0.740995 0.500405 0.999732
1.000000 0.500866 0.999222
1.000000 0.502114 0.997716
1.000000 0.504338 0.994588
1.000000 0.505836 0.991256
1.000000 0.504599 0.991555
1.000000 0.502901 0.995317
0.040217 0.625447 0.996504
0.347098 0.625496 0.999624
0.746536 0.625149 0.999812
1.000000 0.625000 1.000000
1.000000 0.625248 0.999758
1.000000 0.626289 0.998120
1.000000 0.628363 0.994155
1.000000 0.628264 0.992477
1.000000 0.626833 0.996127
0.157041 0.751370 0.985261
0.157041 0.752931 0.993425
0.621672 0.753165 0.998388
1.000000 0.752229 0.998738
1.000000 0.750901 0.999356
1.000000 0.750000 1.000000
1.000000 0.750744 0.998630
1.000000 0.752112 0.994453
1.000000 0.751057 0.997151
0.153060 0.877134 0.977006
0.155059 0.878823 0.981282
0.160954 0.883137 0.992341
0.804197 0.884149 0.998146
1.000000 0.881713 0.998200
1.000000 0.878759 0.998469
1.000000 0.875920 0.999356
1.000000 0.875313 0.999248
1.000000 0.875473 0.998442
0.448213 1.000000 0.974483
0.603872 1.000000 0.974844
0.875592 1.000000 0.975787
1.000000 1.000000 0.977476
1.000000 1.000000 0.980016
1.000000 1.000000 0.983480
1.000000 1.000000 0.987910
1.000000 1.000000 0.993425
1.000000 1.000000 1.000000
