3dlut/3dlut_lib/3.cube
TITLE "Generated by 3D LUT Creator Pro (c) Oleg Sharonov"
LUT_3D_SIZE 5
#IMAGEPROFILE 
#OUTPUTGAMMA 
0.000000 0.000000 0.000000
0.674546 0.036274 0.000789
1.000000 0.111148 0.003154
1.000000 0.185863 0.007097
1.000000 0.260632 0.013406
0.016560 0.249610 0.000000
0.746076 0.250220 0.000000
1.000000 0.263520 0.000000
1.000000 0.298151 0.000000
1.000000 0.345528 0.000000
0.073337 0.499416 0.000000
0.765569 0.499284 0.000000
1.000000 0.500669 0.000000
1.000000 0.506615 0.000000
1.000000 0.529747 0.000000
0.170460 0.749138 0.000000
0.793137 0.748863 0.000000
1.000000 0.749883 0.000000
1.000000 0.750940 0.000000
1.000000 0.753399 0.000000
0.275234 0.998845 0.000000
0.821698 0.998684 0.000000
1.000000 0.998630 0.000000
1.000000 1.000000 0.089165
1.000000 1.000000 0.202261
0.011829 0.008674 0.230613
0.743309 0.004731 0.246998
1.000000 0.022080 0.223468
1.000000 0.033120 0.152835
1.000000 0.138595 0.042516
0.000000 0.250677 0.243098
0.597415 0.271971 0.115355
1.000000 0.305976 0.184799
1.000000 0.340169 0.211139
1.000000 0.284234 0.015771
0.000000 0.499944 0.250068
0.696832 0.506420 0.108623
1.000000 0.513942 0.121734
1.000000 0.524752 0.195560
1.000000 0.512154 0.000000
0.000000 0.750157 0.243727
0.714483 0.753360 0.113270
1.000000 0.756390 0.074664
1.000000 0.758363 0.129049
1.000000 0.751917 0.156951
0.066240 1.000000 0.236706
0.765569 1.000000 0.233599
1.000000 1.000000 0.224849
1.000000 1.000000 0.263663
1.000000 1.000000 0.318668
0.047314 0.035486 0.465266
0.710604 0.046892 0.475519
1.000000 0.019714 0.494833
1.000000 0.051020 0.483375
1.000000 0.084717 0.442943
0.000000 0.249916 0.499812
0.671961 0.280394 0.372368
1.000000 0.288789 0.424264
1.000000 0.278383 0.419616
1.000000 0.266938 0.442483
0.000000 0.501195 0.487482
0.690332 0.508749 0.431238
1.000000 0.539980 0.255190
1.000000 0.575955 0.311811
1.000000 0.505836 0.441405
0.000000 0.750196 0.496766
0.530127 0.758479 0.429727
1.000000 0.768204 0.237192
1.000000 0.785345 0.227412
1.000000 0.752385 0.457681
0.000000 1.000000 0.499944
0.751574 1.000000 0.499020
1.000000 1.000000 0.494432
1.000000 1.000000 0.497894
1.000000 1.000000 0.527534
0.113555 0.075669 0.699835
0.711576 0.066202 0.723289
1.000000 0.111859 0.711709
1.000000 0.046892 0.742428
1.000000 0.062227 0.738804
0.047314 0.253396 0.738604
0.732122 0.294524 0.613044
1.000000 0.291354 0.690843
1.000000 0.296781 0.702871
1.000000 0.258295 0.739003
0.044949 0.500669 0.743935
0.778399 0.510680 0.673740
1.000000 0.552130 0.511194
1.000000 0.574132 0.508362
1.000000 0.504534 0.734874
0.000000 0.751800 0.731889
0.713031 0.754955 0.708005
1.000000 0.780269 0.528642
1.000000 0.807939 0.394917
1.000000 0.752112 0.730025
0.183167 1.000000 0.740479
0.777961 1.000000 0.742666
1.000000 1.000000 0.747959
1.000000 1.000000 0.747959
1.000000 1.000000 0.760214
0.200267 0.116385 0.934385
0.707678 0.089600 0.969552
1.000000 0.134501 0.955069
1.000000 0.168675 0.952556
1.000000 0.078619 0.990115
0.146954 0.263376 0.970530
0.705720 0.255636 0.997258
1.000000 0.261936 0.993425
1.000000 0.265662 0.988782
1.000000 0.258001 0.994344
0.004731 0.500208 0.998953
0.740995 0.500405 0.999732
1.000000 0.502114 0.997716
1.000000 0.505836 0.991256
1.000000 0.502901 0.995317
0.157041 0.751370 0.985261
0.621672 0.753165 0.998388
1.000000 0.750901 0.999356
1.000000 0.750744 0.998630
1.000000 0.751057 0.997151
0.448213 1.000000 0.974483
0.875592 1.000000 0.975787
1.000000 1.000000 0.980016
1.000000 1.000000 0.987910
1.000000 1.000000 1.000000
