3dlut/3dlut_lib/no.cube
# Copyright: (C) Copyright 2010-2020 by IWLTBAP SAS
# Cannot be resold, shared or otherwise redistributed
# Website: https://luts.iwltbap.com
TITLE "IWLTBAP 8120 (Rec.709, sRGB, DCI-P3)"
LUT_3D_SIZE 9
0.000000 0.000000 0.000000
0.374896 0.000000 0.000000
0.750204 0.000000 0.000000
1.000000 0.000000 0.000000
1.000000 0.000000 0.000000
1.000000 0.000000 0.000000
1.000000 0.000000 0.000000
1.000000 0.000000 0.000000
1.000000 0.000000 0.000000
0.000000 0.124965 0.000000
0.374896 0.124965 0.000000
0.750204 0.124965 0.000000
1.000000 0.124965 0.000000
1.000000 0.124965 0.000000
1.000000 0.124965 0.000000
1.000000 0.124965 0.000000
1.000000 0.124965 0.000000
1.000000 0.124965 0.000000
0.000000 0.250068 0.000000
0.374896 0.250068 0.000000
0.750204 0.250068 0.000000
1.000000 0.250068 0.000000
1.000000 0.250068 0.000000
1.000000 0.250068 0.000000
1.000000 0.250068 0.000000
1.000000 0.250068 0.000000
1.000000 0.250068 0.000000
0.000000 0.375018 0.000000
0.374896 0.375018 0.000000
0.750204 0.375018 0.000000
1.000000 0.375018 0.000000
1.000000 0.375018 0.000000
1.000000 0.375018 0.000000
1.000000 0.375018 0.000000
1.000000 0.375018 0.000000
1.000000 0.375018 0.000000
0.000000 0.500010 0.000000
0.374896 0.500010 0.000000
0.750204 0.500010 0.000000
1.000000 0.500010 0.000000
1.000000 0.500010 0.000000
1.000000 0.500010 0.000000
1.000000 0.500010 0.000000
1.000000 0.500010 0.000000
1.000000 0.500010 0.000000
0.000000 0.625000 0.000000
0.374896 0.625000 0.000000
0.750204 0.625000 0.000000
1.000000 0.625000 0.000000
1.000000 0.625000 0.000000
1.000000 0.625000 0.000000
1.000000 0.625000 0.000000
1.000000 0.625000 0.000000
1.000000 0.625000 0.000000
0.000000 0.750000 0.000000
0.374896 0.750000 0.000000
0.750204 0.750000 0.000000
1.000000 0.750000 0.000000
1.000000 0.750000 0.000000
1.000000 0.750000 0.000000
1.000000 0.750000 0.000000
1.000000 0.750000 0.000000
1.000000 0.750000 0.000000
0.000000 0.874993 0.000000
0.374896 0.874993 0.000000
0.750204 0.874993 0.000000
1.000000 0.874993 0.000000
1.000000 0.874993 0.000000
1.000000 0.874993 0.000000
1.000000 0.874993 0.000000
1.000000 0.874993 0.000000
1.000000 0.874993 0.000000
0.000000 1.000000 0.000000
0.374896 1.000000 0.000000
0.750204 1.000000 0.000000
1.000000 1.000000 0.000000
1.000000 1.000000 0.000000
1.000000 1.000000 0.000000
1.000000 1.000000 0.000000
1.000000 1.000000 0.000000
1.000000 0.999839 0.022869
0.000000 0.000000 0.124965
0.374896 0.000000 0.124965
0.750204 0.000000 0.124965
1.000000 0.000000 0.124965
1.000000 0.000000 0.124965
1.000000 0.000000 0.124965
1.000000 0.000000 0.124965
1.000000 0.000000 0.124965
1.000000 0.000000 0.124965
0.000000 0.124965 0.124965
0.374896 0.124965 0.124965
0.750204 0.124965 0.124965
1.000000 0.124965 0.124965
1.000000 0.124965 0.124965
1.000000 0.124965 0.124965
1.000000 0.124965 0.124965
1.000000 0.124965 0.124965
1.000000 0.124965 0.124965
0.000000 0.250068 0.124965
0.374896 0.250068 0.124965
0.750204 0.250068 0.124965
1.000000 0.250068 0.124965
1.000000 0.250068 0.124965
1.000000 0.250068 0.124965
1.000000 0.250068 0.124965
1.000000 0.250068 0.124965
1.000000 0.250068 0.124965
0.000000 0.375018 0.124965
0.374896 0.375018 0.124965
0.750204 0.375018 0.124965
1.000000 0.375018 0.124965
1.000000 0.375018 0.124965
1.000000 0.375018 0.124965
1.000000 0.375018 0.124965
1.000000 0.375018 0.124965
1.000000 0.375018 0.124965
0.000000 0.500010 0.124965
0.374896 0.500010 0.124965
0.750204 0.500010 0.124965
1.000000 0.500010 0.124965
1.000000 0.500010 0.124965
1.000000 0.500010 0.124965
1.000000 0.500010 0.124965
1.000000 0.500010 0.124965
1.000000 0.500010 0.124965
0.000000 0.625000 0.124965
0.374896 0.625000 0.124965
0.750204 0.625000 0.124965
1.000000 0.625000 0.124965
1.000000 0.625000 0.124965
1.000000 0.625000 0.124965
1.000000 0.625000 0.124965
1.000000 0.625000 0.124965
1.000000 0.625000 0.124965
0.000000 0.750000 0.124965
0.374896 0.750000 0.124965
0.750204 0.750000 0.124965
1.000000 0.750000 0.124965
1.000000 0.750000 0.124965
1.000000 0.750000 0.124965
1.000000 0.750000 0.124965
1.000000 0.750000 0.124965
1.000000 0.750000 0.124965
0.000000 0.874993 0.124965
0.374896 0.874993 0.124965
0.750204 0.874993 0.124965
1.000000 0.874993 0.124965
1.000000 0.874993 0.124965
1.000000 0.874993 0.124965
1.000000 0.874993 0.124965
1.000000 0.874993 0.124965
1.000000 0.874993 0.124965
0.000000 1.000000 0.124965
0.374896 1.000000 0.124965
0.750204 1.000000 0.124965
1.000000 1.000000 0.124965
1.000000 1.000000 0.124965
1.000000 1.000000 0.124965
1.000000 1.000000 0.124965
1.000000 1.000000 0.124965
1.000000 1.000000 0.124965
0.000000 0.000000 0.250068
0.374896 0.000000 0.250068
0.750204 0.000000 0.250068
1.000000 0.000000 0.250068
1.000000 0.000000 0.250068
1.000000 0.000000 0.250068
1.000000 0.000000 0.250068
1.000000 0.000000 0.250068
1.000000 0.000000 0.250068
0.000000 0.124965 0.250068
0.374896 0.124965 0.250068
0.750204 0.124965 0.250068
1.000000 0.124965 0.250068
1.000000 0.124965 0.250068
1.000000 0.124965 0.250068
1.000000 0.124965 0.250068
1.000000 0.124965 0.250068
1.000000 0.124965 0.250068
0.000000 0.250068 0.250068
0.374896 0.250068 0.250068
0.750204 0.250068 0.250068
1.000000 0.250068 0.250068
1.000000 0.250068 0.250068
1.000000 0.250068 0.250068
1.000000 0.250068 0.250068
1.000000 0.250068 0.250068
1.000000 0.250068 0.250068
0.000000 0.375018 0.250068
0.374896 0.375018 0.250068
0.750204 0.375018 0.250068
1.000000 0.375018 0.250068
1.000000 0.375018 0.250068
1.000000 0.375018 0.250068
1.000000 0.375018 0.250068
1.000000 0.375018 0.250068
1.000000 0.375018 0.250068
0.000000 0.500010 0.250068
0.374896 0.500010 0.250068
0.750204 0.500010 0.250068
1.000000 0.500010 0.250068
1.000000 0.500010 0.250068
1.000000 0.500010 0.250068
1.000000 0.500010 0.250068
1.000000 0.500010 0.250068
1.000000 0.500010 0.250068
0.000000 0.625000 0.250068
0.374896 0.625000 0.250068
0.750204 0.625000 0.250068
1.000000 0.625000 0.250068
1.000000 0.625000 0.250068
1.000000 0.625000 0.250068
1.000000 0.625000 0.250068
1.000000 0.625000 0.250068
1.000000 0.625000 0.250068
0.000000 0.750000 0.250068
0.374896 0.750000 0.250068
0.750204 0.750000 0.250068
1.000000 0.750000 0.250068
1.000000 0.750000 0.250068
1.000000 0.750000 0.250068
1.000000 0.750000 0.250068
1.000000 0.750000 0.250068
1.000000 0.750000 0.250068
0.000000 0.874993 0.250068
0.374896 0.874993 0.250068
0.750204 0.874993 0.250068
1.000000 0.874993 0.250068
1.000000 0.874993 0.250068
1.000000 0.874993 0.250068
1.000000 0.874993 0.250068
1.000000 0.874993 0.250068
1.000000 0.874993 0.250068
0.000000 1.000000 0.250068
0.374896 1.000000 0.250068
0.750204 1.000000 0.250068
1.000000 1.000000 0.250068
1.000000 1.000000 0.250068
1.000000 1.000000 0.250068
1.000000 1.000000 0.250068
1.000000 1.000000 0.250068
1.000000 1.000000 0.250068
0.000000 0.000000 0.375018
0.374896 0.000000 0.375018
0.750204 0.000000 0.375018
1.000000 0.000000 0.375018
1.000000 0.000000 0.375018
1.000000 0.000000 0.375018
1.000000 0.000000 0.375018
1.000000 0.000000 0.375018
1.000000 0.000000 0.375018
0.000000 0.124965 0.375018
0.374896 0.124965 0.375018
0.750204 0.124965 0.375018
1.000000 0.124965 0.375018
1.000000 0.124965 0.375018
1.000000 0.124965 0.375018
1.000000 0.124965 0.375018
1.000000 0.124965 0.375018
1.000000 0.124965 0.375018
0.000000 0.250068 0.375018
0.374896 0.250068 0.375018
0.750204 0.250068 0.375018
1.000000 0.250068 0.375018
1.000000 0.250068 0.375018
1.000000 0.250068 0.375018
1.000000 0.250068 0.375018
1.000000 0.250068 0.375018
1.000000 0.250068 0.375018
0.000000 0.375018 0.375018
0.374896 0.375018 0.375018
0.750204 0.375018 0.375018
1.000000 0.375018 0.375018
1.000000 0.375018 0.375018
1.000000 0.375018 0.375018
1.000000 0.375018 0.375018
1.000000 0.375018 0.375018
1.000000 0.375018 0.375018
0.000000 0.500010 0.375018
0.374896 0.500010 0.375018
0.750204 0.500010 0.375018
1.000000 0.500010 0.375018
1.000000 0.500010 0.375018
1.000000 0.500010 0.375018
1.000000 0.500010 0.375018
1.000000 0.500010 0.375018
1.000000 0.500010 0.375018
0.000000 0.625000 0.375018
0.374896 0.625000 0.375018
0.750204 0.625000 0.375018
1.000000 0.625000 0.375018
1.000000 0.625000 0.375018
1.000000 0.625000 0.375018
1.000000 0.625000 0.375018
1.000000 0.625000 0.375018
1.000000 0.625000 0.375018
0.000000 0.750000 0.375018
0.374896 0.750000 0.375018
0.750204 0.750000 0.375018
1.000000 0.750000 0.375018
1.000000 0.750000 0.375018
1.000000 0.750000 0.375018
1.000000 0.750000 0.375018
1.000000 0.750000 0.375018
1.000000 0.750000 0.375018
0.000000 0.874993 0.375018
0.374896 0.874993 0.375018
0.750204 0.874993 0.375018
1.000000 0.874993 0.375018
1.000000 0.874993 0.375018
1.000000 0.874993 0.375018
1.000000 0.874993 0.375018
1.000000 0.874993 0.375018
1.000000 0.874993 0.375018
0.000000 1.000000 0.375018
0.374896 1.000000 0.375018
0.750204 1.000000 0.375018
1.000000 1.000000 0.375018
1.000000 1.000000 0.375018
1.000000 1.000000 0.375018
1.000000 1.000000 0.375018
1.000000 1.000000 0.375018
1.000000 1.000000 0.375018
0.000000 0.000000 0.500010
0.374896 0.000000 0.500010
0.750204 0.000000 0.500010
1.000000 0.000000 0.500010
1.000000 0.000000 0.500010
1.000000 0.000000 0.500010
1.000000 0.000000 0.500010
1.000000 0.000000 0.500010
1.000000 0.000000 0.500010
0.000000 0.124965 0.500010
0.374896 0.124965 0.500010
0.750204 0.124965 0.500010
1.000000 0.124965 0.500010
1.000000 0.124965 0.500010
1.000000 0.124965 0.500010
1.000000 0.124965 0.500010
1.000000 0.124965 0.500010
1.000000 0.124965 0.500010
0.000000 0.250068 0.500010
0.374896 0.250068 0.500010
0.750204 0.250068 0.500010
1.000000 0.250068 0.500010
1.000000 0.250068 0.500010
1.000000 0.250068 0.500010
1.000000 0.250068 0.500010
1.000000 0.250068 0.500010
1.000000 0.250068 0.500010
0.000000 0.375018 0.500010
0.374896 0.375018 0.500010
0.750204 0.375018 0.500010
1.000000 0.375018 0.500010
1.000000 0.375018 0.500010
1.000000 0.375018 0.500010
1.000000 0.375018 0.500010
1.000000 0.375018 0.500010
1.000000 0.375018 0.500010
0.000000 0.500010 0.500010
0.374896 0.500010 0.500010
0.750204 0.500010 0.500010
1.000000 0.500010 0.500010
1.000000 0.500010 0.500010
1.000000 0.500010 0.500010
1.000000 0.500010 0.500010
1.000000 0.500010 0.500010
1.000000 0.500010 0.500010
0.000000 0.625000 0.500010
0.374896 0.625000 0.500010
0.750204 0.625000 0.500010
1.000000 0.625000 0.500010
1.000000 0.625000 0.500010
1.000000 0.625000 0.500010
1.000000 0.625000 0.500010
1.000000 0.625000 0.500010
1.000000 0.625000 0.500010
0.000000 0.750000 0.500010
0.374896 0.750000 0.500010
0.750204 0.750000 0.500010
1.000000 0.750000 0.500010
1.000000 0.750000 0.500010
1.000000 0.750000 0.500010
1.000000 0.750000 0.500010
1.000000 0.750000 0.500010
1.000000 0.750000 0.500010
0.000000 0.874993 0.500010
0.374896 0.874993 0.500010
0.750204 0.874993 0.500010
1.000000 0.874993 0.500010
1.000000 0.874993 0.500010
1.000000 0.874993 0.500010
1.000000 0.874993 0.500010
1.000000 0.874993 0.500010
1.000000 0.874993 0.500010
0.000000 1.000000 0.500010
0.374896 1.000000 0.500010
0.750204 1.000000 0.500010
1.000000 1.000000 0.500010
1.000000 1.000000 0.500010
1.000000 1.000000 0.500010
1.000000 1.000000 0.500010
1.000000 1.000000 0.500010
1.000000 1.000000 0.500010
0.000000 0.000000 0.625000
0.374896 0.000000 0.625000
0.750204 0.000000 0.625000
1.000000 0.000000 0.625000
1.000000 0.000000 0.625000
1.000000 0.000000 0.625000
1.000000 0.000000 0.625000
1.000000 0.000000 0.625000
1.000000 0.000000 0.625000
0.000000 0.124965 0.625000
0.374896 0.124965 0.625000
0.750204 0.124965 0.625000
1.000000 0.124965 0.625000
1.000000 0.124965 0.625000
1.000000 0.124965 0.625000
1.000000 0.124965 0.625000
1.000000 0.124965 0.625000
1.000000 0.124965 0.625000
0.000000 0.250068 0.625000
0.374896 0.250068 0.625000
0.750204 0.250068 0.625000
1.000000 0.250068 0.625000
1.000000 0.250068 0.625000
1.000000 0.250068 0.625000
1.000000 0.250068 0.625000
1.000000 0.250068 0.625000
1.000000 0.250068 0.625000
0.000000 0.375018 0.625000
0.374896 0.375018 0.625000
0.750204 0.375018 0.625000
1.000000 0.375018 0.625000
1.000000 0.375018 0.625000
1.000000 0.375018 0.625000
1.000000 0.375018 0.625000
1.000000 0.375018 0.625000
1.000000 0.375018 0.625000
0.000000 0.500010 0.625000
0.374896 0.500010 0.625000
0.750204 0.500010 0.625000
1.000000 0.500010 0.625000
1.000000 0.500010 0.625000
1.000000 0.500010 0.625000
1.000000 0.500010 0.625000
1.000000 0.500010 0.625000
1.000000 0.500010 0.625000
0.000000 0.625000 0.625000
0.374896 0.625000 0.625000
0.750204 0.625000 0.625000
1.000000 0.625000 0.625000
1.000000 0.625000 0.625000
1.000000 0.625000 0.625000
1.000000 0.625000 0.625000
1.000000 0.625000 0.625000
1.000000 0.625000 0.625000
0.000000 0.750000 0.625000
0.374896 0.750000 0.625000
0.750204 0.750000 0.625000
1.000000 0.750000 0.625000
1.000000 0.750000 0.625000
1.000000 0.750000 0.625000
1.000000 0.750000 0.625000
1.000000 0.750000 0.625000
1.000000 0.750000 0.625000
0.000000 0.874993 0.625000
0.374896 0.874993 0.625000
0.750204 0.874993 0.625000
1.000000 0.874993 0.625000
1.000000 0.874993 0.625000
1.000000 0.874993 0.625000
1.000000 0.874993 0.625000
1.000000 0.874993 0.625000
1.000000 0.874993 0.625000
0.000000 1.000000 0.625000
0.374896 1.000000 0.625000
0.750204 1.000000 0.625000
1.000000 1.000000 0.625000
1.000000 1.000000 0.625000
1.000000 1.000000 0.625000
1.000000 1.000000 0.625000
1.000000 1.000000 0.625000
1.000000 1.000000 0.625000
0.000000 0.000000 0.750000
0.374896 0.000000 0.750000
0.750204 0.000000 0.750000
1.000000 0.000000 0.750000
1.000000 0.000000 0.750000
1.000000 0.000000 0.750000
1.000000 0.000000 0.750000
1.000000 0.000000 0.750000
1.000000 0.000000 0.750000
0.000000 0.124965 0.750000
0.374896 0.124965 0.750000
0.750204 0.124965 0.750000
1.000000 0.124965 0.750000
1.000000 0.124965 0.750000
1.000000 0.124965 0.750000
1.000000 0.124965 0.750000
1.000000 0.124965 0.750000
1.000000 0.124965 0.750000
0.000000 0.250068 0.750000
0.374896 0.250068 0.750000
0.750204 0.250068 0.750000
1.000000 0.250068 0.750000
1.000000 0.250068 0.750000
1.000000 0.250068 0.750000
1.000000 0.250068 0.750000
1.000000 0.250068 0.750000
1.000000 0.250068 0.750000
0.000000 0.375018 0.750000
0.374896 0.375018 0.750000
0.750204 0.375018 0.750000
1.000000 0.375018 0.750000
1.000000 0.375018 0.750000
1.000000 0.375018 0.750000
1.000000 0.375018 0.750000
1.000000 0.375018 0.750000
1.000000 0.375018 0.750000
0.000000 0.500010 0.750000
0.374896 0.500010 0.750000
0.750204 0.500010 0.750000
1.000000 0.500010 0.750000
1.000000 0.500010 0.750000
1.000000 0.500010 0.750000
1.000000 0.500010 0.750000
1.000000 0.500010 0.750000
1.000000 0.500010 0.750000
0.000000 0.625000 0.750000
0.374896 0.625000 0.750000
0.750204 0.625000 0.750000
1.000000 0.625000 0.750000
1.000000 0.625000 0.750000
1.000000 0.625000 0.750000
1.000000 0.625000 0.750000
1.000000 0.625000 0.750000
1.000000 0.625000 0.750000
0.000000 0.750000 0.750000
0.374896 0.750000 0.750000
0.750204 0.750000 0.750000
1.000000 0.750000 0.750000
1.000000 0.750000 0.750000
1.000000 0.750000 0.750000
1.000000 0.750000 0.750000
1.000000 0.750000 0.750000
1.000000 0.750000 0.750000
0.000000 0.874993 0.750000
0.374896 0.874993 0.750000
0.750204 0.874993 0.750000
1.000000 0.874993 0.750000
1.000000 0.874993 0.750000
1.000000 0.874993 0.750000
1.000000 0.874993 0.750000
1.000000 0.874993 0.750000
1.000000 0.874993 0.750000
0.000000 1.000000 0.750000
0.374896 1.000000 0.750000
0.750204 1.000000 0.750000
1.000000 1.000000 0.750000
1.000000 1.000000 0.750000
1.000000 1.000000 0.750000
1.000000 1.000000 0.750000
1.000000 1.000000 0.750000
1.000000 1.000000 0.750000
0.000000 0.000000 0.874993
0.374896 0.000000 0.874993
0.750204 0.000000 0.874993
1.000000 0.000000 0.874993
1.000000 0.000000 0.874993
1.000000 0.000000 0.874993
1.000000 0.000000 0.874993
1.000000 0.000000 0.874993
1.000000 0.000000 0.874993
0.000000 0.124965 0.874993
0.374896 0.124965 0.874993
0.750204 0.124965 0.874993
1.000000 0.124965 0.874993
1.000000 0.124965 0.874993
1.000000 0.124965 0.874993
1.000000 0.124965 0.874993
1.000000 0.124965 0.874993
1.000000 0.124965 0.874993
0.000000 0.250068 0.874993
0.374896 0.250068 0.874993
0.750204 0.250068 0.874993
1.000000 0.250068 0.874993
1.000000 0.250068 0.874993
1.000000 0.250068 0.874993
1.000000 0.250068 0.874993
1.000000 0.250068 0.874993
1.000000 0.250068 0.874993
0.000000 0.375018 0.874993
0.374896 0.375018 0.874993
0.750204 0.375018 0.874993
1.000000 0.375018 0.874993
1.000000 0.375018 0.874993
1.000000 0.375018 0.874993
1.000000 0.375018 0.874993
1.000000 0.375018 0.874993
1.000000 0.375018 0.874993
0.000000 0.500010 0.874993
0.374896 0.500010 0.874993
0.750204 0.500010 0.874993
1.000000 0.500010 0.874993
1.000000 0.500010 0.874993
1.000000 0.500010 0.874993
1.000000 0.500010 0.874993
1.000000 0.500010 0.874993
1.000000 0.500010 0.874993
0.000000 0.625000 0.874993
0.374896 0.625000 0.874993
0.750204 0.625000 0.874993
1.000000 0.625000 0.874993
1.000000 0.625000 0.874993
1.000000 0.625000 0.874993
1.000000 0.625000 0.874993
1.000000 0.625000 0.874993
1.000000 0.625000 0.874993
0.000000 0.750000 0.874993
0.374896 0.750000 0.874993
0.750204 0.750000 0.874993
1.000000 0.750000 0.874993
1.000000 0.750000 0.874993
1.000000 0.750000 0.874993
1.000000 0.750000 0.874993
1.000000 0.750000 0.874993
1.000000 0.750000 0.874993
0.000000 0.874993 0.874993
0.374896 0.874993 0.874993
0.750204 0.874993 0.874993
1.000000 0.874993 0.874993
1.000000 0.874993 0.874993
1.000000 0.874993 0.874993
1.000000 0.874993 0.874993
1.000000 0.874993 0.874993
1.000000 0.874993 0.874993
0.000000 1.000000 0.874993
0.374896 1.000000 0.874993
0.750204 1.000000 0.874993
1.000000 1.000000 0.874993
1.000000 1.000000 0.874993
1.000000 1.000000 0.874993
1.000000 1.000000 0.874993
1.000000 1.000000 0.874993
1.000000 1.000000 0.874993
0.000000 0.000000 0.999920
0.374896 0.000000 1.000000
0.750204 0.000000 1.000000
1.000000 0.000000 1.000000
1.000000 0.000000 1.000000
1.000000 0.000000 1.000000
1.000000 0.000000 1.000000
1.000000 0.000000 1.000000
1.000000 0.000000 1.000000
0.000000 0.124965 1.000000
0.374896 0.124965 1.000000
0.750204 0.124965 1.000000
1.000000 0.124965 1.000000
1.000000 0.124965 1.000000
1.000000 0.124965 1.000000
1.000000 0.124965 1.000000
1.000000 0.124965 1.000000
1.000000 0.124965 1.000000
0.000000 0.250068 1.000000
0.374896 0.250068 1.000000
0.750204 0.250068 1.000000
1.000000 0.250068 1.000000
1.000000 0.250068 1.000000
1.000000 0.250068 1.000000
1.000000 0.250068 1.000000
1.000000 0.250068 1.000000
1.000000 0.250068 1.000000
0.000000 0.375018 1.000000
0.374896 0.375018 1.000000
0.750204 0.375018 1.000000
1.000000 0.375018 1.000000
1.000000 0.375018 1.000000
1.000000 0.375018 1.000000
1.000000 0.375018 1.000000
1.000000 0.375018 1.000000
1.000000 0.375018 1.000000
0.000000 0.500010 1.000000
0.374896 0.500010 1.000000
0.750204 0.500010 1.000000
1.000000 0.500010 1.000000
1.000000 0.500010 1.000000
1.000000 0.500010 1.000000
1.000000 0.500010 1.000000
1.000000 0.500010 1.000000
1.000000 0.500010 1.000000
0.000000 0.625000 1.000000
0.374896 0.625000 1.000000
0.750204 0.625000 1.000000
1.000000 0.625000 1.000000
1.000000 0.625000 1.000000
1.000000 0.625000 1.000000
1.000000 0.625000 1.000000
1.000000 0.625000 1.000000
1.000000 0.625000 1.000000
0.000000 0.750000 1.000000
0.374896 0.750000 1.000000
0.750204 0.750000 1.000000
1.000000 0.750000 1.000000
1.000000 0.750000 1.000000
1.000000 0.750000 1.000000
1.000000 0.750000 1.000000
1.000000 0.750000 1.000000
1.000000 0.750000 1.000000
0.000000 0.874993 1.000000
0.374896 0.874993 1.000000
0.750204 0.874993 1.000000
1.000000 0.874993 1.000000
1.000000 0.874993 1.000000
1.000000 0.874993 1.000000
1.000000 0.874993 1.000000
1.000000 0.874993 1.000000
1.000000 0.874993 1.000000
0.000000 1.000000 1.000000
0.374896 1.000000 1.000000
0.750204 1.000000 1.000000
1.000000 1.000000 1.000000
1.000000 1.000000 1.000000
1.000000 1.000000 1.000000
1.000000 1.000000 1.000000
1.000000 1.000000 1.000000
1.000000 1.000000 1.000000
