3dlut/3dlut_lib/no.cube
# Copyright: (C) Copyright 2010-2020 by IWLTBAP SAS
# Cannot be resold, shared or otherwise redistributed
# Website: https://luts.iwltbap.com
TITLE "IWLTBAP 8120 (Rec.709, sRGB, DCI-P3)"
LUT_3D_SIZE 17
0.000000 0.000000 0.000000
0.186681 0.000000 0.000000
0.374896 0.000000 0.000000
0.562656 0.000000 0.000000
0.750204 0.000000 0.000000
0.937549 0.000000 0.000000
1.000000 0.000000 0.000000
1.000000 0.000000 0.000000
1.000000 0.000000 0.000000
1.000000 0.000000 0.000000
1.000000 0.000000 0.000000
1.000000 0.000000 0.000000
1.000000 0.000000 0.000000
1.000000 0.000000 0.000000
1.000000 0.000000 0.000000
1.000000 0.000000 0.000000
1.000000 0.000000 0.000000
0.000000 0.062227 0.000000
0.186681 0.062227 0.000000
0.374896 0.062227 0.000000
0.562656 0.062227 0.000000
0.750204 0.062227 0.000000
0.937549 0.062227 0.000000
1.000000 0.062227 0.000000
1.000000 0.062227 0.000000
1.000000 0.062227 0.000000
1.000000 0.062227 0.000000
1.000000 0.062227 0.000000
1.000000 0.062227 0.000000
1.000000 0.062227 0.000000
1.000000 0.062227 0.000000
1.000000 0.062227 0.000000
1.000000 0.062227 0.000000
1.000000 0.062227 0.000000
0.000000 0.124965 0.000000
0.186681 0.124965 0.000000
0.374896 0.124965 0.000000
0.562656 0.124965 0.000000
0.750204 0.124965 0.000000
0.937549 0.124965 0.000000
1.000000 0.124965 0.000000
1.000000 0.124965 0.000000
1.000000 0.124965 0.000000
1.000000 0.124965 0.000000
1.000000 0.124965 0.000000
1.000000 0.124965 0.000000
1.000000 0.124965 0.000000
1.000000 0.124965 0.000000
1.000000 0.124965 0.000000
1.000000 0.124965 0.000000
1.000000 0.124965 0.000000
0.000000 0.187552 0.000000
0.186681 0.187552 0.000000
0.374896 0.187552 0.000000
0.562656 0.187552 0.000000
0.750204 0.187552 0.000000
0.937549 0.187552 0.000000
1.000000 0.187552 0.000000
1.000000 0.187552 0.000000
1.000000 0.187552 0.000000
1.000000 0.187552 0.000000
1.000000 0.187552 0.000000
1.000000 0.187552 0.000000
1.000000 0.187552 0.000000
1.000000 0.187552 0.000000
1.000000 0.187552 0.000000
1.000000 0.187552 0.000000
1.000000 0.187552 0.000000
0.000000 0.250068 0.000000
0.186681 0.250068 0.000000
0.374896 0.250068 0.000000
0.562656 0.250068 0.000000
0.750204 0.250068 0.000000
0.937549 0.250068 0.000000
1.000000 0.250068 0.000000
1.000000 0.250068 0.000000
1.000000 0.250068 0.000000
1.000000 0.250068 0.000000
1.000000 0.250068 0.000000
1.000000 0.250068 0.000000
1.000000 0.250068 0.000000
1.000000 0.250068 0.000000
1.000000 0.250068 0.000000
1.000000 0.250068 0.000000
1.000000 0.250068 0.000000
0.000000 0.312516 0.000000
0.186681 0.312516 0.000000
0.374896 0.312516 0.000000
0.562656 0.312516 0.000000
0.750204 0.312516 0.000000
0.937549 0.312516 0.000000
1.000000 0.312516 0.000000
1.000000 0.312516 0.000000
1.000000 0.312516 0.000000
1.000000 0.312516 0.000000
1.000000 0.312516 0.000000
1.000000 0.312516 0.000000
1.000000 0.312516 0.000000
1.000000 0.312516 0.000000
1.000000 0.312516 0.000000
1.000000 0.312516 0.000000
1.000000 0.312516 0.000000
0.000000 0.375018 0.000000
0.186681 0.375018 0.000000
0.374896 0.375018 0.000000
0.562656 0.375018 0.000000
0.750204 0.375018 0.000000
0.937549 0.375018 0.000000
1.000000 0.375018 0.000000
1.000000 0.375018 0.000000
1.000000 0.375018 0.000000
1.000000 0.375018 0.000000
1.000000 0.375018 0.000000
1.000000 0.375018 0.000000
1.000000 0.375018 0.000000
1.000000 0.375018 0.000000
1.000000 0.375018 0.000000
1.000000 0.375018 0.000000
1.000000 0.375018 0.000000
0.000000 0.437529 0.000000
0.186681 0.437529 0.000000
0.374896 0.437529 0.000000
0.562656 0.437529 0.000000
0.750204 0.437529 0.000000
0.937549 0.437529 0.000000
1.000000 0.437529 0.000000
1.000000 0.437529 0.000000
1.000000 0.437529 0.000000
1.000000 0.437529 0.000000
1.000000 0.437529 0.000000
1.000000 0.437529 0.000000
1.000000 0.437529 0.000000
1.000000 0.437529 0.000000
1.000000 0.437529 0.000000
1.000000 0.437529 0.000000
1.000000 0.437529 0.000000
0.000000 0.500010 0.000000
0.186681 0.500010 0.000000
0.374896 0.500010 0.000000
0.562656 0.500010 0.000000
0.750204 0.500010 0.000000
0.937549 0.500010 0.000000
1.000000 0.500010 0.000000
1.000000 0.500010 0.000000
1.000000 0.500010 0.000000
1.000000 0.500010 0.000000
1.000000 0.500010 0.000000
1.000000 0.500010 0.000000
1.000000 0.500010 0.000000
1.000000 0.500010 0.000000
1.000000 0.500010 0.000000
1.000000 0.500010 0.000000
1.000000 0.500010 0.000000
0.000000 0.562474 0.000000
0.186681 0.562474 0.000000
0.374896 0.562474 0.000000
0.562656 0.562474 0.000000
0.750204 0.562474 0.000000
0.937549 0.562474 0.000000
1.000000 0.562474 0.000000
1.000000 0.562474 0.000000
1.000000 0.562474 0.000000
1.000000 0.562474 0.000000
1.000000 0.562474 0.000000
1.000000 0.562474 0.000000
1.000000 0.562474 0.000000
1.000000 0.562474 0.000000
1.000000 0.562474 0.000000
1.000000 0.562474 0.000000
1.000000 0.562474 0.000000
0.000000 0.625000 0.000000
0.186681 0.625000 0.000000
0.374896 0.625000 0.000000
0.562656 0.625000 0.000000
0.750204 0.625000 0.000000
0.937549 0.625000 0.000000
1.000000 0.625000 0.000000
1.000000 0.625000 0.000000
1.000000 0.625000 0.000000
1.000000 0.625000 0.000000
1.000000 0.625000 0.000000
1.000000 0.625000 0.000000
1.000000 0.625000 0.000000
1.000000 0.625000 0.000000
1.000000 0.625000 0.000000
1.000000 0.625000 0.000000
1.000000 0.625000 0.000000
0.000000 0.687519 0.000000
0.186681 0.687519 0.000000
0.374896 0.687519 0.000000
0.562656 0.687519 0.000000
0.750204 0.687519 0.000000
0.937549 0.687519 0.000000
1.000000 0.687519 0.000000
1.000000 0.687519 0.000000
1.000000 0.687519 0.000000
1.000000 0.687519 0.000000
1.000000 0.687519 0.000000
1.000000 0.687519 0.000000
1.000000 0.687519 0.000000
1.000000 0.687519 0.000000
1.000000 0.687519 0.000000
1.000000 0.687519 0.000000
1.000000 0.687519 0.000000
0.000000 0.750000 0.000000
0.186681 0.750000 0.000000
0.374896 0.750000 0.000000
0.562656 0.750000 0.000000
0.750204 0.750000 0.000000
0.937549 0.750000 0.000000
1.000000 0.750000 0.000000
1.000000 0.750000 0.000000
1.000000 0.750000 0.000000
1.000000 0.750000 0.000000
1.000000 0.750000 0.000000
1.000000 0.750000 0.000000
1.000000 0.750000 0.000000
1.000000 0.750000 0.000000
1.000000 0.750000 0.000000
1.000000 0.750000 0.000000
1.000000 0.750000 0.000000
0.000000 0.812507 0.000000
0.186681 0.812507 0.000000
0.374896 0.812507 0.000000
0.562656 0.812507 0.000000
0.750204 0.812507 0.000000
0.937549 0.812507 0.000000
1.000000 0.812507 0.000000
1.000000 0.812507 0.000000
1.000000 0.812507 0.000000
1.000000 0.812507 0.000000
1.000000 0.812507 0.000000
1.000000 0.812507 0.000000
1.000000 0.812507 0.000000
1.000000 0.812507 0.000000
1.000000 0.812507 0.000000
1.000000 0.812507 0.000000
1.000000 0.812507 0.000000
0.000000 0.874993 0.000000
0.186681 0.874993 0.000000
0.374896 0.874993 0.000000
0.562656 0.874993 0.000000
0.750204 0.874993 0.000000
0.937549 0.874993 0.000000
1.000000 0.874993 0.000000
1.000000 0.874993 0.000000
1.000000 0.874993 0.000000
1.000000 0.874993 0.000000
1.000000 0.874993 0.000000
1.000000 0.874993 0.000000
1.000000 0.874993 0.000000
1.000000 0.874993 0.000000
1.000000 0.874993 0.000000
1.000000 0.874993 0.000000
1.000000 0.874993 0.000000
0.000000 0.937490 0.000000
0.186681 0.937490 0.000000
0.374896 0.937490 0.000000
0.562656 0.937490 0.000000
0.750204 0.937490 0.000000
0.937549 0.937490 0.000000
1.000000 0.937490 0.000000
1.000000 0.937490 0.000000
1.000000 0.937490 0.000000
1.000000 0.937490 0.000000
1.000000 0.937490 0.000000
1.000000 0.937490 0.000000
1.000000 0.937490 0.000000
1.000000 0.937490 0.000000
1.000000 0.937490 0.000000
1.000000 0.937490 0.000000
1.000000 0.937490 0.000000
0.000000 1.000000 0.000000
0.186681 1.000000 0.000000
0.374896 1.000000 0.000000
0.562656 1.000000 0.000000
0.750204 1.000000 0.000000
0.937549 1.000000 0.000000
1.000000 1.000000 0.000000
1.000000 1.000000 0.000000
1.000000 1.000000 0.000000
1.000000 1.000000 0.000000
1.000000 1.000000 0.000000
1.000000 1.000000 0.000000
1.000000 1.000000 0.000000
1.000000 1.000000 0.000000
1.000000 1.000000 0.000000
1.000000 1.000000 0.000000
1.000000 0.999839 0.022869
0.000000 0.000000 0.062227
0.186681 0.000000 0.062227
0.374896 0.000000 0.062227
0.562656 0.000000 0.062227
0.750204 0.000000 0.062227
0.937549 0.000000 0.062227
1.000000 0.000000 0.062227
1.000000 0.000000 0.062227
1.000000 0.000000 0.062227
1.000000 0.000000 0.062227
1.000000 0.000000 0.062227
1.000000 0.000000 0.062227
1.000000 0.000000 0.062227
1.000000 0.000000 0.062227
1.000000 0.000000 0.062227
1.000000 0.000000 0.062227
1.000000 0.000000 0.062227
0.000000 0.062227 0.062227
0.186681 0.062227 0.062227
0.374896 0.062227 0.062227
0.562656 0.062227 0.062227
0.750204 0.062227 0.062227
0.937549 0.062227 0.062227
1.000000 0.062227 0.062227
1.000000 0.062227 0.062227
1.000000 0.062227 0.062227
1.000000 0.062227 0.062227
1.000000 0.062227 0.062227
1.000000 0.062227 0.062227
1.000000 0.062227 0.062227
1.000000 0.062227 0.062227
1.000000 0.062227 0.062227
1.000000 0.062227 0.062227
1.000000 0.062227 0.062227
0.000000 0.124965 0.062227
0.186681 0.124965 0.062227
0.374896 0.124965 0.062227
0.562656 0.124965 0.062227
0.750204 0.124965 0.062227
0.937549 0.124965 0.062227
1.000000 0.124965 0.062227
1.000000 0.124965 0.062227
1.000000 0.124965 0.062227
1.000000 0.124965 0.062227
1.000000 0.124965 0.062227
1.000000 0.124965 0.062227
1.000000 0.124965 0.062227
1.000000 0.124965 0.062227
1.000000 0.124965 0.062227
1.000000 0.124965 0.062227
1.000000 0.124965 0.062227
0.000000 0.187552 0.062227
0.186681 0.187552 0.062227
0.374896 0.187552 0.062227
0.562656 0.187552 0.062227
0.750204 0.187552 0.062227
0.937549 0.187552 0.062227
1.000000 0.187552 0.062227
1.000000 0.187552 0.062227
1.000000 0.187552 0.062227
1.000000 0.187552 0.062227
1.000000 0.187552 0.062227
1.000000 0.187552 0.062227
1.000000 0.187552 0.062227
1.000000 0.187552 0.062227
1.000000 0.187552 0.062227
1.000000 0.187552 0.062227
1.000000 0.187552 0.062227
0.000000 0.250068 0.062227
0.186681 0.250068 0.062227
0.374896 0.250068 0.062227
0.562656 0.250068 0.062227
0.750204 0.250068 0.062227
0.937549 0.250068 0.062227
1.000000 0.250068 0.062227
1.000000 0.250068 0.062227
1.000000 0.250068 0.062227
1.000000 0.250068 0.062227
1.000000 0.250068 0.062227
1.000000 0.250068 0.062227
1.000000 0.250068 0.062227
1.000000 0.250068 0.062227
1.000000 0.250068 0.062227
1.000000 0.250068 0.062227
1.000000 0.250068 0.062227
0.000000 0.312516 0.062227
0.186681 0.312516 0.062227
0.374896 0.312516 0.062227
0.562656 0.312516 0.062227
0.750204 0.312516 0.062227
0.937549 0.312516 0.062227
1.000000 0.312516 0.062227
1.000000 0.312516 0.062227
1.000000 0.312516 0.062227
1.000000 0.312516 0.062227
1.000000 0.312516 0.062227
1.000000 0.312516 0.062227
1.000000 0.312516 0.062227
1.000000 0.312516 0.062227
1.000000 0.312516 0.062227
1.000000 0.312516 0.062227
1.000000 0.312516 0.062227
0.000000 0.375018 0.062227
0.186681 0.375018 0.062227
0.374896 0.375018 0.062227
0.562656 0.375018 0.062227
0.750204 0.375018 0.062227
0.937549 0.375018 0.062227
1.000000 0.375018 0.062227
1.000000 0.375018 0.062227
1.000000 0.375018 0.062227
1.000000 0.375018 0.062227
1.000000 0.375018 0.062227
1.000000 0.375018 0.062227
1.000000 0.375018 0.062227
1.000000 0.375018 0.062227
1.000000 0.375018 0.062227
1.000000 0.375018 0.062227
1.000000 0.375018 0.062227
0.000000 0.437529 0.062227
0.186681 0.437529 0.062227
0.374896 0.437529 0.062227
0.562656 0.437529 0.062227
0.750204 0.437529 0.062227
0.937549 0.437529 0.062227
1.000000 0.437529 0.062227
1.000000 0.437529 0.062227
1.000000 0.437529 0.062227
1.000000 0.437529 0.062227
1.000000 0.437529 0.062227
1.000000 0.437529 0.062227
1.000000 0.437529 0.062227
1.000000 0.437529 0.062227
1.000000 0.437529 0.062227
1.000000 0.437529 0.062227
1.000000 0.437529 0.062227
0.000000 0.500010 0.062227
0.186681 0.500010 0.062227
0.374896 0.500010 0.062227
0.562656 0.500010 0.062227
0.750204 0.500010 0.062227
0.937549 0.500010 0.062227
1.000000 0.500010 0.062227
1.000000 0.500010 0.062227
1.000000 0.500010 0.062227
1.000000 0.500010 0.062227
1.000000 0.500010 0.062227
1.000000 0.500010 0.062227
1.000000 0.500010 0.062227
1.000000 0.500010 0.062227
1.000000 0.500010 0.062227
1.000000 0.500010 0.062227
1.000000 0.500010 0.062227
0.000000 0.562474 0.062227
0.186681 0.562474 0.062227
0.374896 0.562474 0.062227
0.562656 0.562474 0.062227
0.750204 0.562474 0.062227
0.937549 0.562474 0.062227
1.000000 0.562474 0.062227
1.000000 0.562474 0.062227
1.000000 0.562474 0.062227
1.000000 0.562474 0.062227
1.000000 0.562474 0.062227
1.000000 0.562474 0.062227
1.000000 0.562474 0.062227
1.000000 0.562474 0.062227
1.000000 0.562474 0.062227
1.000000 0.562474 0.062227
1.000000 0.562474 0.062227
0.000000 0.625000 0.062227
0.186681 0.625000 0.062227
0.374896 0.625000 0.062227
0.562656 0.625000 0.062227
0.750204 0.625000 0.062227
0.937549 0.625000 0.062227
1.000000 0.625000 0.062227
1.000000 0.625000 0.062227
1.000000 0.625000 0.062227
1.000000 0.625000 0.062227
1.000000 0.625000 0.062227
1.000000 0.625000 0.062227
1.000000 0.625000 0.062227
1.000000 0.625000 0.062227
1.000000 0.625000 0.062227
1.000000 0.625000 0.062227
1.000000 0.625000 0.062227
0.000000 0.687519 0.062227
0.186681 0.687519 0.062227
0.374896 0.687519 0.062227
0.562656 0.687519 0.062227
0.750204 0.687519 0.062227
0.937549 0.687519 0.062227
1.000000 0.687519 0.062227
1.000000 0.687519 0.062227
1.000000 0.687519 0.062227
1.000000 0.687519 0.062227
1.000000 0.687519 0.062227
1.000000 0.687519 0.062227
1.000000 0.687519 0.062227
1.000000 0.687519 0.062227
1.000000 0.687519 0.062227
1.000000 0.687519 0.062227
1.000000 0.687519 0.062227
0.000000 0.750000 0.062227
0.186681 0.750000 0.062227
0.374896 0.750000 0.062227
0.562656 0.750000 0.062227
0.750204 0.750000 0.062227
0.937549 0.750000 0.062227
1.000000 0.750000 0.062227
1.000000 0.750000 0.062227
1.000000 0.750000 0.062227
1.000000 0.750000 0.062227
1.000000 0.750000 0.062227
1.000000 0.750000 0.062227
1.000000 0.750000 0.062227
1.000000 0.750000 0.062227
1.000000 0.750000 0.062227
1.000000 0.750000 0.062227
1.000000 0.750000 0.062227
0.000000 0.812507 0.062227
0.186681 0.812507 0.062227
0.374896 0.812507 0.062227
0.562656 0.812507 0.062227
0.750204 0.812507 0.062227
0.937549 0.812507 0.062227
1.000000 0.812507 0.062227
1.000000 0.812507 0.062227
1.000000 0.812507 0.062227
1.000000 0.812507 0.062227
1.000000 0.812507 0.062227
1.000000 0.812507 0.062227
1.000000 0.812507 0.062227
1.000000 0.812507 0.062227
1.000000 0.812507 0.062227
1.000000 0.812507 0.062227
1.000000 0.812507 0.062227
0.000000 0.874993 0.062227
0.186681 0.874993 0.062227
0.374896 0.874993 0.062227
0.562656 0.874993 0.062227
0.750204 0.874993 0.062227
0.937549 0.874993 0.062227
1.000000 0.874993 0.062227
1.000000 0.874993 0.062227
1.000000 0.874993 0.062227
1.000000 0.874993 0.062227
1.000000 0.874993 0.062227
1.000000 0.874993 0.062227
1.000000 0.874993 0.062227
1.000000 0.874993 0.062227
1.000000 0.874993 0.062227
1.000000 0.874993 0.062227
1.000000 0.874993 0.062227
0.000000 0.937490 0.062227
0.186681 0.937490 0.062227
0.374896 0.937490 0.062227
0.562656 0.937490 0.062227
0.750204 0.937490 0.062227
0.937549 0.937490 0.062227
1.000000 0.937490 0.062227
1.000000 0.937490 0.062227
1.000000 0.937490 0.062227
1.000000 0.937490 0.062227
1.000000 0.937490 0.062227
1.000000 0.937490 0.062227
1.000000 0.937490 0.062227
1.000000 0.937490 0.062227
1.000000 0.937490 0.062227
1.000000 0.937490 0.062227
1.000000 0.937490 0.062227
0.000000 1.000000 0.062227
0.186681 1.000000 0.062227
0.374896 1.000000 0.062227
0.562656 1.000000 0.062227
0.750204 1.000000 0.062227
0.937549 1.000000 0.062227
1.000000 1.000000 0.062227
1.000000 1.000000 0.062227
1.000000 1.000000 0.062227
1.000000 1.000000 0.062227
1.000000 1.000000 0.062227
1.000000 1.000000 0.062227
1.000000 1.000000 0.062227
1.000000 1.000000 0.062227
1.000000 1.000000 0.062227
1.000000 1.000000 0.062227
1.000000 1.000000 0.062227
0.000000 0.000000 0.124965
0.186681 0.000000 0.124965
0.374896 0.000000 0.124965
0.562656 0.000000 0.124965
0.750204 0.000000 0.124965
0.937549 0.000000 0.124965
1.000000 0.000000 0.124965
1.000000 0.000000 0.124965
1.000000 0.000000 0.124965
1.000000 0.000000 0.124965
1.000000 0.000000 0.124965
1.000000 0.000000 0.124965
1.000000 0.000000 0.124965
1.000000 0.000000 0.124965
1.000000 0.000000 0.124965
1.000000 0.000000 0.124965
1.000000 0.000000 0.124965
0.000000 0.062227 0.124965
0.186681 0.062227 0.124965
0.374896 0.062227 0.124965
0.562656 0.062227 0.124965
0.750204 0.062227 0.124965
0.937549 0.062227 0.124965
1.000000 0.062227 0.124965
1.000000 0.062227 0.124965
1.000000 0.062227 0.124965
1.000000 0.062227 0.124965
1.000000 0.062227 0.124965
1.000000 0.062227 0.124965
1.000000 0.062227 0.124965
1.000000 0.062227 0.124965
1.000000 0.062227 0.124965
1.000000 0.062227 0.124965
1.000000 0.062227 0.124965
0.000000 0.124965 0.124965
0.186681 0.124965 0.124965
0.374896 0.124965 0.124965
0.562656 0.124965 0.124965
0.750204 0.124965 0.124965
0.937549 0.124965 0.124965
1.000000 0.124965 0.124965
1.000000 0.124965 0.124965
1.000000 0.124965 0.124965
1.000000 0.124965 0.124965
1.000000 0.124965 0.124965
1.000000 0.124965 0.124965
1.000000 0.124965 0.124965
1.000000 0.124965 0.124965
1.000000 0.124965 0.124965
1.000000 0.124965 0.124965
1.000000 0.124965 0.124965
0.000000 0.187552 0.124965
0.186681 0.187552 0.124965
0.374896 0.187552 0.124965
0.562656 0.187552 0.124965
0.750204 0.187552 0.124965
0.937549 0.187552 0.124965
1.000000 0.187552 0.124965
1.000000 0.187552 0.124965
1.000000 0.187552 0.124965
1.000000 0.187552 0.124965
1.000000 0.187552 0.124965
1.000000 0.187552 0.124965
1.000000 0.187552 0.124965
1.000000 0.187552 0.124965
1.000000 0.187552 0.124965
1.000000 0.187552 0.124965
1.000000 0.187552 0.124965
0.000000 0.250068 0.124965
0.186681 0.250068 0.124965
0.374896 0.250068 0.124965
0.562656 0.250068 0.124965
0.750204 0.250068 0.124965
0.937549 0.250068 0.124965
1.000000 0.250068 0.124965
1.000000 0.250068 0.124965
1.000000 0.250068 0.124965
1.000000 0.250068 0.124965
1.000000 0.250068 0.124965
1.000000 0.250068 0.124965
1.000000 0.250068 0.124965
1.000000 0.250068 0.124965
1.000000 0.250068 0.124965
1.000000 0.250068 0.124965
1.000000 0.250068 0.124965
0.000000 0.312516 0.124965
0.186681 0.312516 0.124965
0.374896 0.312516 0.124965
0.562656 0.312516 0.124965
0.750204 0.312516 0.124965
0.937549 0.312516 0.124965
1.000000 0.312516 0.124965
1.000000 0.312516 0.124965
1.000000 0.312516 0.124965
1.000000 0.312516 0.124965
1.000000 0.312516 0.124965
1.000000 0.312516 0.124965
1.000000 0.312516 0.124965
1.000000 0.312516 0.124965
1.000000 0.312516 0.124965
1.000000 0.312516 0.124965
1.000000 0.312516 0.124965
0.000000 0.375018 0.124965
0.186681 0.375018 0.124965
0.374896 0.375018 0.124965
0.562656 0.375018 0.124965
0.750204 0.375018 0.124965
0.937549 0.375018 0.124965
1.000000 0.375018 0.124965
1.000000 0.375018 0.124965
1.000000 0.375018 0.124965
1.000000 0.375018 0.124965
1.000000 0.375018 0.124965
1.000000 0.375018 0.124965
1.000000 0.375018 0.124965
1.000000 0.375018 0.124965
1.000000 0.375018 0.124965
1.000000 0.375018 0.124965
1.000000 0.375018 0.124965
0.000000 0.437529 0.124965
0.186681 0.437529 0.124965
0.374896 0.437529 0.124965
0.562656 0.437529 0.124965
0.750204 0.437529 0.124965
0.937549 0.437529 0.124965
1.000000 0.437529 0.124965
1.000000 0.437529 0.124965
1.000000 0.437529 0.124965
1.000000 0.437529 0.124965
1.000000 0.437529 0.124965
1.000000 0.437529 0.124965
1.000000 0.437529 0.124965
1.000000 0.437529 0.124965
1.000000 0.437529 0.124965
1.000000 0.437529 0.124965
1.000000 0.437529 0.124965
0.000000 0.500010 0.124965
0.186681 0.500010 0.124965
0.374896 0.500010 0.124965
0.562656 0.500010 0.124965
0.750204 0.500010 0.124965
0.937549 0.500010 0.124965
1.000000 0.500010 0.124965
1.000000 0.500010 0.124965
1.000000 0.500010 0.124965
1.000000 0.500010 0.124965
1.000000 0.500010 0.124965
1.000000 0.500010 0.124965
1.000000 0.500010 0.124965
1.000000 0.500010 0.124965
1.000000 0.500010 0.124965
1.000000 0.500010 0.124965
1.000000 0.500010 0.124965
0.000000 0.562474 0.124965
0.186681 0.562474 0.124965
0.374896 0.562474 0.124965
0.562656 0.562474 0.124965
0.750204 0.562474 0.124965
0.937549 0.562474 0.124965
1.000000 0.562474 0.124965
1.000000 0.562474 0.124965
1.000000 0.562474 0.124965
1.000000 0.562474 0.124965
1.000000 0.562474 0.124965
1.000000 0.562474 0.124965
1.000000 0.562474 0.124965
1.000000 0.562474 0.124965
1.000000 0.562474 0.124965
1.000000 0.562474 0.124965
1.000000 0.562474 0.124965
0.000000 0.625000 0.124965
0.186681 0.625000 0.124965
0.374896 0.625000 0.124965
0.562656 0.625000 0.124965
0.750204 0.625000 0.124965
0.937549 0.625000 0.124965
1.000000 0.625000 0.124965
1.000000 0.625000 0.124965
1.000000 0.625000 0.124965
1.000000 0.625000 0.124965
1.000000 0.625000 0.124965
1.000000 0.625000 0.124965
1.000000 0.625000 0.124965
1.000000 0.625000 0.124965
1.000000 0.625000 0.124965
1.000000 0.625000 0.124965
1.000000 0.625000 0.124965
0.000000 0.687519 0.124965
0.186681 0.687519 0.124965
0.374896 0.687519 0.124965
0.562656 0.687519 0.124965
0.750204 0.687519 0.124965
0.937549 0.687519 0.124965
1.000000 0.687519 0.124965
1.000000 0.687519 0.124965
1.000000 0.687519 0.124965
1.000000 0.687519 0.124965
1.000000 0.687519 0.124965
1.000000 0.687519 0.124965
1.000000 0.687519 0.124965
1.000000 0.687519 0.124965
1.000000 0.687519 0.124965
1.000000 0.687519 0.124965
1.000000 0.687519 0.124965
0.000000 0.750000 0.124965
0.186681 0.750000 0.124965
0.374896 0.750000 0.124965
0.562656 0.750000 0.124965
0.750204 0.750000 0.124965
0.937549 0.750000 0.124965
1.000000 0.750000 0.124965
1.000000 0.750000 0.124965
1.000000 0.750000 0.124965
1.000000 0.750000 0.124965
1.000000 0.750000 0.124965
1.000000 0.750000 0.124965
1.000000 0.750000 0.124965
1.000000 0.750000 0.124965
1.000000 0.750000 0.124965
1.000000 0.750000 0.124965
1.000000 0.750000 0.124965
0.000000 0.812507 0.124965
0.186681 0.812507 0.124965
0.374896 0.812507 0.124965
0.562656 0.812507 0.124965
0.750204 0.812507 0.124965
0.937549 0.812507 0.124965
1.000000 0.812507 0.124965
1.000000 0.812507 0.124965
1.000000 0.812507 0.124965
1.000000 0.812507 0.124965
1.000000 0.812507 0.124965
1.000000 0.812507 0.124965
1.000000 0.812507 0.124965
1.000000 0.812507 0.124965
1.000000 0.812507 0.124965
1.000000 0.812507 0.124965
1.000000 0.812507 0.124965
0.000000 0.874993 0.124965
0.186681 0.874993 0.124965
0.374896 0.874993 0.124965
0.562656 0.874993 0.124965
0.750204 0.874993 0.124965
0.937549 0.874993 0.124965
1.000000 0.874993 0.124965
1.000000 0.874993 0.124965
1.000000 0.874993 0.124965
1.000000 0.874993 0.124965
1.000000 0.874993 0.124965
1.000000 0.874993 0.124965
1.000000 0.874993 0.124965
1.000000 0.874993 0.124965
1.000000 0.874993 0.124965
1.000000 0.874993 0.124965
1.000000 0.874993 0.124965
0.000000 0.937490 0.124965
0.186681 0.937490 0.124965
0.374896 0.937490 0.124965
0.562656 0.937490 0.124965
0.750204 0.937490 0.124965
0.937549 0.937490 0.124965
1.000000 0.937490 0.124965
1.000000 0.937490 0.124965
1.000000 0.937490 0.124965
1.000000 0.937490 0.124965
1.000000 0.937490 0.124965
1.000000 0.937490 0.124965
1.000000 0.937490 0.124965
1.000000 0.937490 0.124965
1.000000 0.937490 0.124965
1.000000 0.937490 0.124965
1.000000 0.937490 0.124965
0.000000 1.000000 0.124965
0.186681 1.000000 0.124965
0.374896 1.000000 0.124965
0.562656 1.000000 0.124965
0.750204 1.000000 0.124965
0.937549 1.000000 0.124965
1.000000 1.000000 0.124965
1.000000 1.000000 0.124965
1.000000 1.000000 0.124965
1.000000 1.000000 0.124965
1.000000 1.000000 0.124965
1.000000 1.000000 0.124965
1.000000 1.000000 0.124965
1.000000 1.000000 0.124965
1.000000 1.000000 0.124965
1.000000 1.000000 0.124965
1.000000 1.000000 0.124965
0.000000 0.000000 0.187552
0.186681 0.000000 0.187552
0.374896 0.000000 0.187552
0.562656 0.000000 0.187552
0.750204 0.000000 0.187552
0.937549 0.000000 0.187552
1.000000 0.000000 0.187552
1.000000 0.000000 0.187552
1.000000 0.000000 0.187552
1.000000 0.000000 0.187552
1.000000 0.000000 0.187552
1.000000 0.000000 0.187552
1.000000 0.000000 0.187552
1.000000 0.000000 0.187552
